; generated by Slic3r 1.3.0 on 2020-07-29 at 17:50:34

; external perimeters extrusion width = 0.44mm (2.38mm^3/s)
; perimeters extrusion width = 0.56mm (4.14mm^3/s)
; infill extrusion width = 0.50mm (7.31mm^3/s)
; solid infill extrusion width = 0.56mm (8.27mm^3/s)
; top infill extrusion width = 0.56mm (4.14mm^3/s)

M107
M190 S60 ; set bed temperature and wait for it to be reached
;D3D:START:START
T0
M104 S215 T0

G21
G90
M107
T0
G28
G29
M109 T0 S215 T0
G0 F3000
M107
T0
G92 E0
G0 X0 Y149 Z0.1 F3600
G1 Y49 E6.5 F1200
G0 Z1
G92 E0
; Filament gcode

G21 ; set units to millimeters
G90 ; use absolute coordinates
M82 ; use absolute distances for extrusion
G92 E0
G1 Z0.300 F9000.000
G1 E-3.20000 F4200.00000
G92 E0
G1 Z0.500 F9000.000
G1 X88.445 Y87.307 F9000.000
G1 Z0.300 F9000.000
G1 E3.20000 F4200.00000
M201 X800 Y800
M204 P800 T800
G1 F1200
G1 X91.555 Y87.307 E3.30302
G1 X93.109 Y90.000 E3.40603
G1 X91.555 Y92.693 E3.50905
G1 X88.445 Y92.693 E3.61206
G1 X86.891 Y90.000 E3.71508
G1 X88.415 Y87.359 E3.81610
M201 X1250 Y1250
M204 P1250 T1250
G1 X88.702 Y87.469 F9000.000
M201 X800 Y800
M204 P800 T800
G1 F900
G1 X88.495 Y87.676 E3.82599
G1 X87.972 Y88.582 E3.86130
G1 X89.085 Y87.469 E3.91444
G1 X89.468 Y87.469 E3.92737
G1 X87.449 Y89.488 E4.02376
G1 X87.094 Y90.103 E4.04775
G1 X87.139 Y90.181 E4.05079
G1 X89.851 Y87.469 E4.18028
G1 X90.233 Y87.469 E4.19320
G1 X87.279 Y90.424 E4.33428
G1 X87.419 Y90.667 E4.34375
G1 X90.616 Y87.469 E4.49642
G1 X90.999 Y87.469 E4.50935
G1 X87.559 Y90.909 E4.67361
G1 X87.699 Y91.152 E4.68307
G1 X91.382 Y87.469 E4.85892
G1 X91.505 Y87.469 E4.86306
G1 X91.600 Y87.634 E4.86949
G1 X87.840 Y91.395 E5.04906
G1 X87.980 Y91.637 E5.05852
G1 X91.740 Y87.877 E5.23809
G1 X91.880 Y88.120 E5.24755
G1 X88.120 Y91.880 E5.42711
G1 X88.260 Y92.123 E5.43658
G1 X92.020 Y88.363 E5.61614
G1 X92.160 Y88.605 E5.62561
G1 X88.400 Y92.366 E5.80517
G1 X88.495 Y92.531 E5.81160
G1 X88.618 Y92.531 E5.81574
G1 X92.301 Y88.848 E5.99159
G1 X92.441 Y89.091 E6.00106
G1 X89.001 Y92.531 E6.16532
G1 X89.384 Y92.531 E6.17825
G1 X92.581 Y89.333 E6.33092
G1 X92.721 Y89.576 E6.34038
G1 X89.767 Y92.531 E6.48146
G1 X90.149 Y92.531 E6.49439
G1 X92.861 Y89.819 E6.62388
G1 X92.906 Y89.897 E6.62691
G1 X92.551 Y90.512 E6.65090
G1 X90.532 Y92.531 E6.74729
G1 X90.915 Y92.531 E6.76022
G1 X92.028 Y91.418 E6.81336
G1 X91.505 Y92.324 E6.84867
G1 X91.298 Y92.531 E6.85856
M201 X1250 Y1250
M204 P1250 T1250
M106 S255
M104 S210 ; set temperature
G1 Z0.500 F9000.000
G1 E3.65856 F4200.00000
G92 E0
G1 Z0.700 F9000.000
G1 X88.477 Y87.362 F9000.000
G1 Z0.500 F9000.000
G1 E3.20000 F4200.00000
M201 X800 Y800
M204 P800 T800
G1 F900
G1 X91.523 Y87.362 E3.30057
G1 X92.865 Y89.687 E3.38919
G1 X93.046 Y90.000 E3.40114
G1 X91.523 Y92.638 E3.50171
G1 X88.477 Y92.638 E3.60228
G1 X86.954 Y90.000 E3.70285
G1 X88.447 Y87.414 E3.80144
M201 X1250 Y1250
M204 P1250 T1250
G1 F7200
G1 X91.523 Y87.362 E2.09659
G1 F7200
G1 X92.728 Y89.449 E0.76144
G1 E0.60144 F4200.00000
G92 E0
G1 Z0.700 F9000.000
G1 X91.443 Y88.051 F9000.000
G1 Z0.500 F9000.000
G1 E3.20000 F4200.00000
M201 X1000 Y1000
M204 P1000 T1000
G1 F900
G1 X91.041 Y87.648 E3.22523
G1 X90.287 Y87.648 E3.25865
G1 X92.473 Y89.834 E3.39569
G1 X92.685 Y90.201 E3.41447
G1 X92.465 Y90.581 E3.43390
G1 X89.533 Y87.648 E3.61773
G1 X88.779 Y87.648 E3.65115
G1 X92.190 Y91.059 E3.86494
G1 X91.914 Y91.537 E3.88941
G1 X88.362 Y87.985 E4.11202
G1 X88.086 Y88.463 E4.13648
G1 X91.638 Y92.015 E4.35909
G1 X91.443 Y92.352 E4.37635
G1 X91.221 Y92.352 E4.38618
G1 X87.810 Y88.941 E4.59998
G1 X87.535 Y89.419 E4.62444
G1 X90.467 Y92.352 E4.80828
G1 X89.713 Y92.352 E4.84169
G1 X87.527 Y90.166 E4.97874
G1 X88.557 Y91.949 E5.07003
G1 X88.959 Y92.352 E5.09524
M201 X1250 Y1250
M204 P1250 T1250
G1 Z0.700 F9000.000
G1 E1.89524 F4200.00000
G92 E0
G1 Z0.900 F9000.000
G1 X88.477 Y87.362 F9000.000
G1 Z0.700 F9000.000
G1 E3.20000 F4200.00000
M201 X800 Y800
M204 P800 T800
G1 F900
G1 X91.523 Y87.362 E3.30057
G1 X93.046 Y90.000 E3.40114
G1 X91.523 Y92.638 E3.50171
G1 X88.477 Y92.638 E3.60228
G1 X86.954 Y90.000 E3.70285
G1 X88.447 Y87.414 E3.80144
M201 X1250 Y1250
M204 P1250 T1250
G1 X88.557 Y88.050 F9000.000
M201 X1000 Y1000
M204 P1000 T1000
G1 F900
G1 X88.959 Y87.648 E3.82665
G1 X89.713 Y87.648 E3.86006
G1 X87.527 Y89.834 E3.99711
G1 X87.315 Y90.201 E4.01588
G1 X87.535 Y90.581 E4.03531
G1 X90.467 Y87.648 E4.21915
G1 X91.221 Y87.648 E4.25257
G1 X87.810 Y91.059 E4.46636
G1 X88.086 Y91.537 E4.49082
G1 X91.638 Y87.985 E4.71343
G1 X91.914 Y88.463 E4.73790
G1 X88.362 Y92.015 E4.96051
G1 X88.557 Y92.352 E4.97777
G1 X88.779 Y92.352 E4.98760
G1 X92.190 Y88.941 E5.20140
G1 X92.465 Y89.419 E5.22586
G1 X89.533 Y92.352 E5.40970
G1 X90.287 Y92.352 E5.44311
G1 X92.473 Y90.166 E5.58016
G1 X91.443 Y91.949 E5.67145
G1 X91.041 Y92.352 E5.69668
M201 X1250 Y1250
M204 P1250 T1250
G1 Z0.900 F9000.000
G1 E2.49668 F4200.00000
G92 E0
G1 Z1.100 F9000.000
G1 X88.477 Y87.362 F9000.000
G1 Z0.900 F9000.000
G1 E3.20000 F4200.00000
M201 X800 Y800
M204 P800 T800
G1 F900
G1 X91.523 Y87.362 E3.30057
G1 X93.046 Y90.000 E3.40114
G1 X91.523 Y92.638 E3.50171
G1 X88.477 Y92.638 E3.60228
G1 X86.954 Y90.000 E3.70285
G1 X88.447 Y87.414 E3.80144
M201 X1250 Y1250
M204 P1250 T1250
G1 F7200
G1 X91.523 Y87.362 E2.09659
G1 F7200
G1 X92.621 Y89.263 E0.88009
G1 F7200
G1 X92.728 Y89.449 E0.76144
G1 E0.60144 F4200.00000
G92 E0
G1 Z1.100 F9000.000
G1 X91.443 Y88.051 F9000.000
G1 Z0.900 F9000.000
G1 E3.20000 F4200.00000
M201 X1000 Y1000
M204 P1000 T1000
G1 F900
G1 X91.041 Y87.648 E3.22523
G1 X90.287 Y87.648 E3.25865
G1 X92.473 Y89.834 E3.39569
G1 X92.685 Y90.201 E3.41447
G1 X92.465 Y90.581 E3.43390
G1 X89.533 Y87.648 E3.61773
G1 X88.779 Y87.648 E3.65115
G1 X92.190 Y91.059 E3.86495
G1 X91.914 Y91.537 E3.88941
G1 X88.362 Y87.985 E4.11202
G1 X88.086 Y88.463 E4.13648
G1 X91.638 Y92.015 E4.35909
G1 X91.443 Y92.352 E4.37636
G1 X91.221 Y92.352 E4.38619
G1 X87.810 Y88.941 E4.59998
G1 X87.535 Y89.419 E4.62444
G1 X90.467 Y92.352 E4.80828
G1 X89.713 Y92.352 E4.84170
G1 X87.527 Y90.166 E4.97874
G1 X88.557 Y91.949 E5.07004
G1 X88.959 Y92.352 E5.09525
M201 X1250 Y1250
M204 P1250 T1250
G1 Z1.100 F9000.000
G1 E1.89525 F4200.00000
G92 E0
G1 Z1.300 F9000.000
G1 X88.477 Y87.362 F9000.000
G1 Z1.100 F9000.000
G1 E3.20000 F4200.00000
M201 X800 Y800
M204 P800 T800
G1 F900
G1 X91.523 Y87.362 E3.30057
G1 X93.046 Y90.000 E3.40114
G1 X91.523 Y92.638 E3.50171
G1 X88.477 Y92.638 E3.60228
G1 X86.954 Y90.000 E3.70285
G1 X88.447 Y87.414 E3.80144
M201 X1250 Y1250
M204 P1250 T1250
G1 X88.557 Y88.050 F9000.000
M201 X1000 Y1000
M204 P1000 T1000
G1 F900
G1 X88.959 Y87.648 E3.82665
G1 X89.713 Y87.648 E3.86006
G1 X87.527 Y89.834 E3.99711
G1 X87.315 Y90.201 E4.01588
G1 X87.535 Y90.581 E4.03531
G1 X90.467 Y87.648 E4.21915
G1 X91.221 Y87.648 E4.25257
G1 X87.810 Y91.059 E4.46636
G1 X88.086 Y91.537 E4.49082
G1 X91.638 Y87.985 E4.71343
G1 X91.914 Y88.463 E4.73790
G1 X88.362 Y92.015 E4.96051
G1 X88.557 Y92.352 E4.97777
G1 X88.779 Y92.352 E4.98760
G1 X92.190 Y88.941 E5.20140
G1 X92.465 Y89.419 E5.22586
G1 X89.533 Y92.352 E5.40970
G1 X90.287 Y92.352 E5.44311
G1 X92.473 Y90.166 E5.58016
G1 X91.443 Y91.949 E5.67145
G1 X91.041 Y92.352 E5.69668
M201 X1250 Y1250
M204 P1250 T1250
G1 Z1.300 F9000.000
G1 E2.49668 F4200.00000
G92 E0
G1 Z1.500 F9000.000
G1 X88.477 Y87.362 F9000.000
G1 Z1.300 F9000.000
G1 E3.20000 F4200.00000
M201 X800 Y800
M204 P800 T800
G1 F900
G1 X91.523 Y87.362 E3.30057
G1 X93.046 Y90.000 E3.40114
G1 X91.523 Y92.638 E3.50171
G1 X88.477 Y92.638 E3.60228
G1 X86.954 Y90.000 E3.70285
G1 X88.447 Y87.414 E3.80144
M201 X1250 Y1250
M204 P1250 T1250
G1 F7200
G1 X91.523 Y87.362 E2.09659
G1 F7200
G1 X92.333 Y88.765 E1.19891
G1 F7200
G1 X92.728 Y89.449 E0.76144
G1 E0.60144 F4200.00000
G92 E0
G1 Z1.500 F9000.000
G1 X91.443 Y88.051 F9000.000
G1 Z1.300 F9000.000
G1 E3.20000 F4200.00000
M201 X1000 Y1000
M204 P1000 T1000
G1 F900
G1 X91.041 Y87.648 E3.22523
G1 X90.287 Y87.648 E3.25865
G1 X92.473 Y89.834 E3.39569
G1 X92.685 Y90.201 E3.41447
G1 X92.465 Y90.581 E3.43390
G1 X89.533 Y87.648 E3.61773
G1 X88.779 Y87.648 E3.65115
G1 X92.190 Y91.059 E3.86495
G1 X91.914 Y91.537 E3.88941
G1 X88.362 Y87.985 E4.11202
G1 X88.086 Y88.463 E4.13648
G1 X91.638 Y92.015 E4.35909
G1 X91.443 Y92.352 E4.37636
G1 X91.221 Y92.352 E4.38619
G1 X87.810 Y88.941 E4.59998
G1 X87.535 Y89.419 E4.62444
G1 X90.467 Y92.352 E4.80828
G1 X89.713 Y92.352 E4.84170
G1 X87.527 Y90.166 E4.97874
G1 X88.557 Y91.949 E5.07004
G1 X88.959 Y92.352 E5.09525
M201 X1250 Y1250
M204 P1250 T1250
G1 Z1.500 F9000.000
G1 E1.89525 F4200.00000
G92 E0
G1 Z1.700 F9000.000
G1 X88.477 Y87.362 F9000.000
G1 Z1.500 F9000.000
G1 E3.20000 F4200.00000
M201 X800 Y800
M204 P800 T800
G1 F900
G1 X91.523 Y87.362 E3.30057
G1 X93.046 Y90.000 E3.40114
G1 X91.523 Y92.638 E3.50171
G1 X88.477 Y92.638 E3.60228
G1 X86.954 Y90.000 E3.70285
G1 X88.447 Y87.414 E3.80144
M201 X1250 Y1250
M204 P1250 T1250
G1 F7200
G1 X91.523 Y87.362 E2.09659
G1 F7200
G1 X92.254 Y88.628 E1.28647
G1 F7200
G1 X92.728 Y89.449 E0.76144
G1 E0.60144 F4200.00000
G92 E0
G1 Z1.700 F9000.000
G1 X88.593 Y91.407 F9000.000
G1 Z1.500 F9000.000
G1 E3.20000 F4200.00000
M201 X1000 Y1000
M204 P1000 T1000
G1 F900
G1 X88.930 Y91.991 E3.22564
G1 X91.449 Y91.991 E3.32135
G1 X92.708 Y89.811 E3.41706
G1 X91.786 Y88.214 E3.48712
G1 X88.214 Y91.786 E3.67910
M201 X1250 Y1250
M204 P1250 T1250
G1 Z1.700 F9000.000
G1 E0.47910 F4200.00000
G92 E0
G1 Z1.900 F9000.000
G1 X88.477 Y87.362 F9000.000
G1 Z1.700 F9000.000
G1 E3.20000 F4200.00000
M201 X800 Y800
M204 P800 T800
G1 F900
G1 X91.523 Y87.362 E3.30057
G1 X93.046 Y90.000 E3.40114
G1 X91.523 Y92.638 E3.50171
G1 X88.477 Y92.638 E3.60228
G1 X86.954 Y90.000 E3.70285
G1 X88.447 Y87.414 E3.80144
M201 X1250 Y1250
M204 P1250 T1250
G1 F7200
G1 X91.523 Y87.362 E2.09659
G1 F7200
G1 X92.146 Y88.441 E1.40597
G1 F7200
G1 X92.728 Y89.449 E0.76144
G1 E0.60144 F4200.00000
G92 E0
G1 Z1.900 F9000.000
G1 X91.443 Y88.051 F9000.000
G1 Z1.700 F9000.000
G1 E3.20000 F4200.00000
M201 X1000 Y1000
M204 P1000 T1000
G1 F900
G1 X91.041 Y87.648 E3.22523
G1 X90.287 Y87.648 E3.25865
G1 X92.473 Y89.834 E3.39569
G1 X92.685 Y90.201 E3.41447
G1 X92.465 Y90.581 E3.43390
G1 X89.533 Y87.648 E3.61773
G1 X88.779 Y87.648 E3.65115
G1 X92.190 Y91.059 E3.86495
G1 X91.914 Y91.537 E3.88941
G1 X88.362 Y87.985 E4.11202
G1 X88.086 Y88.463 E4.13648
G1 X91.638 Y92.015 E4.35909
G1 X91.443 Y92.352 E4.37636
G1 X91.221 Y92.352 E4.38619
G1 X87.810 Y88.941 E4.59998
G1 X87.535 Y89.419 E4.62444
G1 X90.467 Y92.352 E4.80828
G1 X89.713 Y92.352 E4.84170
G1 X87.527 Y90.166 E4.97874
G1 X88.557 Y91.949 E5.07004
G1 X88.959 Y92.352 E5.09525
M201 X1250 Y1250
M204 P1250 T1250
G1 Z1.900 F9000.000
G1 E1.89525 F4200.00000
G92 E0
G1 Z2.100 F9000.000
G1 X88.477 Y87.362 F9000.000
G1 Z1.900 F9000.000
G1 E3.20000 F4200.00000
M201 X800 Y800
M204 P800 T800
G1 F900
G1 X91.523 Y87.362 E3.30057
G1 X93.046 Y90.000 E3.40114
G1 X91.523 Y92.638 E3.50171
G1 X88.477 Y92.638 E3.60228
G1 X86.954 Y90.000 E3.70285
G1 X88.447 Y87.414 E3.80144
M201 X1250 Y1250
M204 P1250 T1250
G1 X88.557 Y88.050 F9000.000
M201 X1000 Y1000
M204 P1000 T1000
G1 F900
G1 X88.959 Y87.648 E3.82665
G1 X89.713 Y87.648 E3.86006
G1 X87.527 Y89.834 E3.99711
G1 X87.315 Y90.201 E4.01588
G1 X87.535 Y90.581 E4.03531
G1 X90.467 Y87.648 E4.21915
G1 X91.221 Y87.648 E4.25257
G1 X87.810 Y91.059 E4.46636
G1 X88.086 Y91.537 E4.49082
G1 X91.638 Y87.985 E4.71343
G1 X91.914 Y88.463 E4.73790
G1 X88.362 Y92.015 E4.96051
G1 X88.557 Y92.352 E4.97777
G1 X88.779 Y92.352 E4.98760
G1 X92.190 Y88.941 E5.20140
G1 X92.465 Y89.419 E5.22586
G1 X89.533 Y92.352 E5.40970
G1 X90.287 Y92.352 E5.44311
G1 X92.473 Y90.166 E5.58016
G1 X91.443 Y91.949 E5.67145
G1 X91.041 Y92.352 E5.69668
M201 X1250 Y1250
M204 P1250 T1250
G1 Z2.100 F9000.000
G1 E2.49668 F4200.00000
G92 E0
G1 Z2.300 F9000.000
G1 X88.477 Y87.362 F9000.000
G1 Z2.100 F9000.000
G1 E3.20000 F4200.00000
M201 X800 Y800
M204 P800 T800
G1 F900
G1 X91.523 Y87.362 E3.30057
G1 X93.046 Y90.000 E3.40114
G1 X91.523 Y92.638 E3.50171
G1 X88.477 Y92.638 E3.60228
G1 X86.954 Y90.000 E3.70285
G1 X88.447 Y87.414 E3.80144
M201 X1250 Y1250
M204 P1250 T1250
G1 F7200
G1 X91.523 Y87.362 E2.09659
G1 F7200
G1 X91.887 Y87.993 E1.69286
G1 F7200
G1 X92.728 Y89.449 E0.76144
G1 E0.60144 F4200.00000
G92 E0
G1 Z2.300 F9000.000
G1 X91.443 Y88.051 F9000.000
G1 Z2.100 F9000.000
G1 E3.20000 F4200.00000
M201 X1000 Y1000
M204 P1000 T1000
G1 F900
G1 X91.041 Y87.648 E3.22523
G1 X90.287 Y87.648 E3.25865
G1 X92.473 Y89.834 E3.39569
G1 X92.685 Y90.201 E3.41447
G1 X92.465 Y90.581 E3.43390
G1 X89.533 Y87.648 E3.61773
G1 X88.779 Y87.648 E3.65115
G1 X92.190 Y91.059 E3.86495
G1 X91.914 Y91.537 E3.88941
G1 X88.362 Y87.985 E4.11202
G1 X88.086 Y88.463 E4.13648
G1 X91.638 Y92.015 E4.35909
G1 X91.443 Y92.352 E4.37636
G1 X91.221 Y92.352 E4.38619
G1 X87.810 Y88.941 E4.59998
G1 X87.535 Y89.419 E4.62444
G1 X90.467 Y92.352 E4.80828
G1 X89.713 Y92.352 E4.84170
G1 X87.527 Y90.166 E4.97874
G1 X88.557 Y91.949 E5.07004
G1 X88.959 Y92.352 E5.09525
M201 X1250 Y1250
M204 P1250 T1250
G1 Z2.300 F9000.000
G1 E1.89525 F4200.00000
G92 E0
G1 Z2.500 F9000.000
G1 X88.477 Y87.362 F9000.000
G1 Z2.300 F9000.000
G1 E3.20000 F4200.00000
M201 X800 Y800
M204 P800 T800
G1 F900
G1 X91.523 Y87.362 E3.30057
G1 X93.046 Y90.000 E3.40114
G1 X91.523 Y92.638 E3.50171
G1 X88.477 Y92.638 E3.60228
G1 X86.954 Y90.000 E3.70285
G1 X88.447 Y87.414 E3.80144
M201 X1250 Y1250
M204 P1250 T1250
G1 X88.557 Y88.050 F9000.000
M201 X1000 Y1000
M204 P1000 T1000
G1 F900
G1 X88.959 Y87.648 E3.82665
G1 X89.713 Y87.648 E3.86006
G1 X87.527 Y89.834 E3.99711
G1 X87.315 Y90.201 E4.01588
G1 X87.535 Y90.581 E4.03531
G1 X90.467 Y87.648 E4.21915
G1 X91.221 Y87.648 E4.25257
G1 X87.810 Y91.059 E4.46636
G1 X88.086 Y91.537 E4.49082
G1 X91.638 Y87.985 E4.71343
G1 X91.914 Y88.463 E4.73790
G1 X88.362 Y92.015 E4.96050
G1 X88.557 Y92.352 E4.97777
G1 X88.779 Y92.352 E4.98760
G1 X92.190 Y88.941 E5.20140
G1 X92.465 Y89.419 E5.22586
G1 X89.533 Y92.352 E5.40970
G1 X90.287 Y92.352 E5.44311
G1 X92.473 Y90.166 E5.58016
G1 X91.443 Y91.949 E5.67145
G1 X91.041 Y92.352 E5.69668
M201 X1250 Y1250
M204 P1250 T1250
G1 Z2.500 F9000.000
G1 E2.49668 F4200.00000
G92 E0
G1 Z2.700 F9000.000
G1 X88.477 Y87.362 F9000.000
G1 Z2.500 F9000.000
G1 E3.20000 F4200.00000
M201 X800 Y800
M204 P800 T800
G1 F900
G1 X91.523 Y87.362 E3.30057
G1 X93.046 Y90.000 E3.40114
G1 X91.523 Y92.638 E3.50171
G1 X88.477 Y92.638 E3.60228
G1 X86.954 Y90.000 E3.70285
G1 X88.447 Y87.414 E3.80144
M201 X1250 Y1250
M204 P1250 T1250
G1 F7200
G1 X91.523 Y87.362 E2.09659
G1 F7200
G1 X91.643 Y87.570 E1.96379
G1 F7200
G1 X92.728 Y89.449 E0.76144
G1 E0.60144 F4200.00000
G92 E0
G1 Z2.700 F9000.000
G1 X91.443 Y88.051 F9000.000
G1 Z2.500 F9000.000
G1 E3.20000 F4200.00000
M201 X1000 Y1000
M204 P1000 T1000
G1 F900
G1 X91.041 Y87.648 E3.22523
G1 X90.287 Y87.648 E3.25865
G1 X92.473 Y89.834 E3.39569
G1 X92.685 Y90.201 E3.41447
G1 X92.465 Y90.581 E3.43390
G1 X89.533 Y87.648 E3.61773
G1 X88.779 Y87.648 E3.65115
G1 X92.190 Y91.059 E3.86495
G1 X91.914 Y91.537 E3.88941
G1 X88.362 Y87.985 E4.11202
G1 X88.086 Y88.463 E4.13648
G1 X91.638 Y92.015 E4.35909
G1 X91.443 Y92.352 E4.37636
G1 X91.221 Y92.352 E4.38619
G1 X87.810 Y88.941 E4.59998
G1 X87.535 Y89.419 E4.62444
G1 X90.467 Y92.352 E4.80828
G1 X89.713 Y92.352 E4.84170
G1 X87.527 Y90.166 E4.97874
G1 X88.557 Y91.949 E5.07004
G1 X88.959 Y92.352 E5.09525
M201 X1250 Y1250
M204 P1250 T1250
G1 Z2.700 F9000.000
G1 E1.89525 F4200.00000
G92 E0
G1 Z2.900 F9000.000
G1 X88.477 Y87.362 F9000.000
G1 Z2.700 F9000.000
G1 E3.20000 F4200.00000
M201 X800 Y800
M204 P800 T800
G1 F1500
G1 X91.523 Y87.362 E3.30057
G1 X93.046 Y90.000 E3.40114
G1 X91.523 Y92.638 E3.50171
G1 X88.477 Y92.638 E3.60228
G1 X86.954 Y90.000 E3.70285
G1 X88.447 Y87.414 E3.80144
M201 X1250 Y1250
M204 P1250 T1250
G1 X88.557 Y88.050 F9000.000
M201 X1000 Y1000
M204 P1000 T1000
G1 F900
G1 X88.959 Y87.648 E3.82665
G1 X89.713 Y87.648 E3.86006
G1 X87.527 Y89.834 E3.99711
G1 X87.315 Y90.201 E4.01588
G1 X87.535 Y90.581 E4.03531
G1 X90.467 Y87.648 E4.21915
G1 X91.221 Y87.648 E4.25257
G1 X87.810 Y91.059 E4.46636
G1 X88.086 Y91.537 E4.49082
