; generated by Slic3r 1.3.0 on 2020-07-29 at 17:50:34

; external perimeters extrusion width = 0.44mm (2.86mm^3/s)
; perimeters extrusion width = 0.56mm (4.14mm^3/s)
; infill extrusion width = 0.50mm (3.66mm^3/s)
; solid infill extrusion width = 0.56mm (3.10mm^3/s)
; top infill extrusion width = 0.56mm (3.10mm^3/s)

M107
;D3D:START:START
T0
M104 S215 T0

G21
G90
M107
T0
G28
G29
M109 T0 S215 T0
G0 F3000
M107
T0
G92 E0
G0 X0 Y149 Z0.1 F3600
G1 Y49 E6.5 F1200
G0 Z1
G92 E0
; Filament gcode

G21 ; set units to millimeters
G90 ; use absolute coordinates
M82 ; use absolute distances for extrusion
G92 E0
G1 Z0.300 F7800.000
G1 E-2.00000 F2400.00000
G92 E0
G1 X73.445 Y72.307 F7800.000
G1 E2.00000 F2400.00000
G1 F1800
G1 X76.555 Y72.307 E2.10302
G1 X78.109 Y75.000 E2.20603
G1 X76.555 Y77.693 E2.30905
G1 X73.445 Y77.693 E2.41206
G1 X71.891 Y75.000 E2.51508
G1 X73.415 Y72.359 E2.61610
G1 X73.702 Y72.469 F7800.000
G1 F1234.29
G1 X73.495 Y72.676 E2.62599
G1 X72.972 Y73.582 E2.66130
G1 X74.085 Y72.469 E2.71444
G1 X74.468 Y72.469 E2.72737
G1 X72.449 Y74.488 E2.82376
G1 X72.094 Y75.103 E2.84775
G1 X72.139 Y75.181 E2.85079
G1 X74.851 Y72.469 E2.98028
G1 X75.233 Y72.469 E2.99320
G1 X72.279 Y75.424 E3.13428
G1 X72.419 Y75.667 E3.14375
G1 X75.616 Y72.469 E3.29642
G1 X75.999 Y72.469 E3.30935
G1 X72.559 Y75.909 E3.47361
G1 X72.699 Y76.152 E3.48307
G1 X76.382 Y72.469 E3.65892
G1 X76.505 Y72.469 E3.66306
G1 X76.600 Y72.634 E3.66949
G1 X72.840 Y76.395 E3.84906
G1 X72.980 Y76.637 E3.85852
G1 X76.740 Y72.877 E4.03809
G1 X76.880 Y73.120 E4.04755
G1 X73.120 Y76.880 E4.22711
G1 X73.260 Y77.123 E4.23658
G1 X77.020 Y73.363 E4.41614
G1 X77.160 Y73.605 E4.42561
G1 X73.400 Y77.366 E4.60517
G1 X73.495 Y77.531 E4.61160
G1 X73.618 Y77.531 E4.61574
G1 X77.301 Y73.848 E4.79159
G1 X77.441 Y74.091 E4.80106
G1 X74.001 Y77.531 E4.96532
G1 X74.384 Y77.531 E4.97825
G1 X77.581 Y74.333 E5.13092
G1 X77.721 Y74.576 E5.14038
G1 X74.767 Y77.531 E5.28146
G1 X75.149 Y77.531 E5.29439
G1 X77.861 Y74.819 E5.42388
G1 X77.906 Y74.897 E5.42691
G1 X77.551 Y75.512 E5.45090
G1 X75.532 Y77.531 E5.54729
G1 X75.915 Y77.531 E5.56022
G1 X77.028 Y76.418 E5.61336
G1 X76.505 Y77.324 E5.64867
G1 X76.298 Y77.531 E5.65856
M106 S255
G1 Z0.500 F7800.000
G1 E3.65856 F2400.00000
G92 E0
G1 X73.477 Y72.362 F7800.000
G1 E2.00000 F2400.00000
G1 F1800
G1 X76.523 Y72.362 E2.10057
G1 X77.865 Y74.687 E2.18919
G1 X78.046 Y75.000 E2.20114
G1 X76.523 Y77.638 E2.30171
G1 X73.477 Y77.638 E2.40228
G1 X71.954 Y75.000 E2.50285
G1 X73.447 Y72.414 E2.60144
G1 E0.60144 F2400.00000
G92 E0
G1 X76.443 Y73.051 F7800.000
G1 E2.00000 F2400.00000
G1 F600
G1 X76.041 Y72.648 E2.02523
G1 X75.287 Y72.648 E2.05865
G1 X77.473 Y74.834 E2.19569
G1 X77.685 Y75.201 E2.21447
G1 X77.465 Y75.581 E2.23390
G1 X74.533 Y72.648 E2.41773
G1 X73.779 Y72.648 E2.45115
G1 X77.190 Y76.059 E2.66494
G1 X76.914 Y76.537 E2.68941
G1 X73.362 Y72.985 E2.91202
G1 X73.086 Y73.463 E2.93648
G1 X76.638 Y77.015 E3.15909
G1 X76.443 Y77.352 E3.17635
G1 X76.221 Y77.352 E3.18618
G1 X72.810 Y73.941 E3.39998
G1 X72.535 Y74.419 E3.42444
G1 X75.467 Y77.352 E3.60828
G1 X74.713 Y77.352 E3.64169
G1 X72.527 Y75.166 E3.77874
G1 X73.557 Y76.949 E3.87003
G1 X73.959 Y77.352 E3.89524
G1 Z0.700 F7800.000
G1 E1.89524 F2400.00000
G92 E0
G1 X73.477 Y72.362 F7800.000
G1 E2.00000 F2400.00000
G1 F1800
G1 X76.523 Y72.362 E2.10057
G1 X78.046 Y75.000 E2.20114
G1 X76.523 Y77.638 E2.30171
G1 X73.477 Y77.638 E2.40228
G1 X71.954 Y75.000 E2.50285
G1 X73.447 Y72.414 E2.60144
G1 X73.557 Y73.050 F7800.000
G1 F600
G1 X73.959 Y72.648 E2.62665
G1 X74.713 Y72.648 E2.66006
G1 X72.527 Y74.834 E2.79711
G1 X72.315 Y75.201 E2.81588
G1 X72.535 Y75.581 E2.83531
G1 X75.467 Y72.648 E3.01915
G1 X76.221 Y72.648 E3.05257
G1 X72.810 Y76.059 E3.26636
G1 X73.086 Y76.537 E3.29082
G1 X76.638 Y72.985 E3.51343
G1 X76.914 Y73.463 E3.53790
G1 X73.362 Y77.015 E3.76051
G1 X73.557 Y77.352 E3.77777
G1 X73.779 Y77.352 E3.78760
G1 X77.190 Y73.941 E4.00140
G1 X77.465 Y74.419 E4.02586
G1 X74.533 Y77.352 E4.20970
G1 X75.287 Y77.352 E4.24311
G1 X77.473 Y75.166 E4.38016
G1 X76.443 Y76.949 E4.47145
G1 X76.041 Y77.352 E4.49668
G1 Z0.900 F7800.000
G1 E2.49668 F2400.00000
G92 E0
G1 X73.477 Y72.362 F7800.000
G1 E2.00000 F2400.00000
G1 F1800
G1 X76.523 Y72.362 E2.10057
G1 X78.046 Y75.000 E2.20114
G1 X76.523 Y77.638 E2.30171
G1 X73.477 Y77.638 E2.40228
G1 X71.954 Y75.000 E2.50285
G1 X73.447 Y72.414 E2.60144
G1 E0.60144 F2400.00000
G92 E0
G1 X76.443 Y73.051 F7800.000
G1 E2.00000 F2400.00000
G1 F600
G1 X76.041 Y72.648 E2.02523
G1 X75.287 Y72.648 E2.05865
G1 X77.473 Y74.834 E2.19569
G1 X77.685 Y75.201 E2.21447
G1 X77.465 Y75.581 E2.23390
G1 X74.533 Y72.648 E2.41773
G1 X73.779 Y72.648 E2.45115
G1 X77.190 Y76.059 E2.66495
G1 X76.914 Y76.537 E2.68941
G1 X73.362 Y72.985 E2.91202
G1 X73.086 Y73.463 E2.93648
G1 X76.638 Y77.015 E3.15909
G1 X76.443 Y77.352 E3.17636
G1 X76.221 Y77.352 E3.18619
G1 X72.810 Y73.941 E3.39998
G1 X72.535 Y74.419 E3.42444
G1 X75.467 Y77.352 E3.60828
G1 X74.713 Y77.352 E3.64170
G1 X72.527 Y75.166 E3.77874
G1 X73.557 Y76.949 E3.87004
G1 X73.959 Y77.352 E3.89525
G1 Z1.100 F7800.000
G1 E1.89525 F2400.00000
G92 E0
G1 X73.477 Y72.362 F7800.000
G1 E2.00000 F2400.00000
G1 F1800
G1 X76.523 Y72.362 E2.10057
G1 X78.046 Y75.000 E2.20114
G1 X76.523 Y77.638 E2.30171
G1 X73.477 Y77.638 E2.40228
G1 X71.954 Y75.000 E2.50285
G1 X73.447 Y72.414 E2.60144
G1 X73.557 Y73.050 F7800.000
G1 F600
G1 X73.959 Y72.648 E2.62665
G1 X74.713 Y72.648 E2.66006
G1 X72.527 Y74.834 E2.79711
G1 X72.315 Y75.201 E2.81588
G1 X72.535 Y75.581 E2.83531
G1 X75.467 Y72.648 E3.01915
G1 X76.221 Y72.648 E3.05257
G1 X72.810 Y76.059 E3.26636
G1 X73.086 Y76.537 E3.29082
G1 X76.638 Y72.985 E3.51343
G1 X76.914 Y73.463 E3.53790
G1 X73.362 Y77.015 E3.76051
G1 X73.557 Y77.352 E3.77777
G1 X73.779 Y77.352 E3.78760
G1 X77.190 Y73.941 E4.00140
G1 X77.465 Y74.419 E4.02586
G1 X74.533 Y77.352 E4.20970
G1 X75.287 Y77.352 E4.24311
G1 X77.473 Y75.166 E4.38016
G1 X76.443 Y76.949 E4.47145
G1 X76.041 Y77.352 E4.49668
G1 Z1.300 F7800.000
G1 E2.49668 F2400.00000
G92 E0
G1 X73.477 Y72.362 F7800.000
G1 E2.00000 F2400.00000
G1 F1800
G1 X76.523 Y72.362 E2.10057
G1 X78.046 Y75.000 E2.20114
G1 X76.523 Y77.638 E2.30171
G1 X73.477 Y77.638 E2.40228
G1 X71.954 Y75.000 E2.50285
G1 X73.447 Y72.414 E2.60144
G1 E0.60144 F2400.00000
G92 E0
G1 X76.443 Y73.051 F7800.000
G1 E2.00000 F2400.00000
G1 F600
G1 X76.041 Y72.648 E2.02523
G1 X75.287 Y72.648 E2.05865
G1 X77.473 Y74.834 E2.19569
G1 X77.685 Y75.201 E2.21447
G1 X77.465 Y75.581 E2.23390
G1 X74.533 Y72.648 E2.41773
G1 X73.779 Y72.648 E2.45115
G1 X77.190 Y76.059 E2.66495
G1 X76.914 Y76.537 E2.68941
G1 X73.362 Y72.985 E2.91202
G1 X73.086 Y73.463 E2.93648
G1 X76.638 Y77.015 E3.15909
G1 X76.443 Y77.352 E3.17636
G1 X76.221 Y77.352 E3.18619
G1 X72.810 Y73.941 E3.39998
G1 X72.535 Y74.419 E3.42444
G1 X75.467 Y77.352 E3.60828
G1 X74.713 Y77.352 E3.64170
G1 X72.527 Y75.166 E3.77874
G1 X73.557 Y76.949 E3.87004
G1 X73.959 Y77.352 E3.89525
G1 Z1.500 F7800.000
G1 E1.89525 F2400.00000
G92 E0
G1 X73.477 Y72.362 F7800.000
G1 E2.00000 F2400.00000
G1 F600
G1 X76.523 Y72.362 E2.10057
G1 X78.046 Y75.000 E2.20114
G1 X76.523 Y77.638 E2.30171
G1 X73.477 Y77.638 E2.40228
G1 X71.954 Y75.000 E2.50285
G1 X73.447 Y72.414 E2.60144
G1 E0.60144 F2400.00000
G92 E0
G1 X73.593 Y76.407 F7800.000
G1 E2.00000 F2400.00000
G1 F600
G1 X73.930 Y76.991 E2.02564
G1 X76.449 Y76.991 E2.12135
G1 X77.708 Y74.811 E2.21706
G1 X76.786 Y73.214 E2.28712
G1 X73.214 Y76.786 E2.47910
G1 Z1.700 F7800.000
G1 E0.47910 F2400.00000
G92 E0
G1 X73.477 Y72.362 F7800.000
G1 E2.00000 F2400.00000
G1 F1800
G1 X76.523 Y72.362 E2.10057
G1 X78.046 Y75.000 E2.20114
G1 X76.523 Y77.638 E2.30171
G1 X73.477 Y77.638 E2.40228
G1 X71.954 Y75.000 E2.50285
G1 X73.447 Y72.414 E2.60144
G1 E0.60144 F2400.00000
G92 E0
G1 X76.443 Y73.051 F7800.000
G1 E2.00000 F2400.00000
G1 F600
G1 X76.041 Y72.648 E2.02523
G1 X75.287 Y72.648 E2.05865
G1 X77.473 Y74.834 E2.19569
G1 X77.685 Y75.201 E2.21447
G1 X77.465 Y75.581 E2.23390
G1 X74.533 Y72.648 E2.41773
G1 X73.779 Y72.648 E2.45115
G1 X77.190 Y76.059 E2.66495
G1 X76.914 Y76.537 E2.68941
G1 X73.362 Y72.985 E2.91202
G1 X73.086 Y73.463 E2.93648
G1 X76.638 Y77.015 E3.15909
G1 X76.443 Y77.352 E3.17636
G1 X76.221 Y77.352 E3.18619
G1 X72.810 Y73.941 E3.39998
G1 X72.535 Y74.419 E3.42444
G1 X75.467 Y77.352 E3.60828
G1 X74.713 Y77.352 E3.64170
G1 X72.527 Y75.166 E3.77874
G1 X73.557 Y76.949 E3.87004
G1 X73.959 Y77.352 E3.89525
G1 Z1.900 F7800.000
G1 E1.89525 F2400.00000
G92 E0
G1 X73.477 Y72.362 F7800.000
G1 E2.00000 F2400.00000
G1 F1800
G1 X76.523 Y72.362 E2.10057
G1 X78.046 Y75.000 E2.20114
G1 X76.523 Y77.638 E2.30171
G1 X73.477 Y77.638 E2.40228
G1 X71.954 Y75.000 E2.50285
G1 X73.447 Y72.414 E2.60144
G1 X73.557 Y73.050 F7800.000
G1 F600
G1 X73.959 Y72.648 E2.62665
G1 X74.713 Y72.648 E2.66006
G1 X72.527 Y74.834 E2.79711
G1 X72.315 Y75.201 E2.81588
G1 X72.535 Y75.581 E2.83531
G1 X75.467 Y72.648 E3.01915
G1 X76.221 Y72.648 E3.05257
G1 X72.810 Y76.059 E3.26636
G1 X73.086 Y76.537 E3.29082
G1 X76.638 Y72.985 E3.51343
G1 X76.914 Y73.463 E3.53790
G1 X73.362 Y77.015 E3.76051
G1 X73.557 Y77.352 E3.77777
G1 X73.779 Y77.352 E3.78760
G1 X77.190 Y73.941 E4.00140
G1 X77.465 Y74.419 E4.02586
G1 X74.533 Y77.352 E4.20970
G1 X75.287 Y77.352 E4.24311
G1 X77.473 Y75.166 E4.38016
G1 X76.443 Y76.949 E4.47145
G1 X76.041 Y77.352 E4.49668
G1 Z2.100 F7800.000
G1 E2.49668 F2400.00000
G92 E0
G1 X73.477 Y72.362 F7800.000
G1 E2.00000 F2400.00000
G1 F1800
G1 X76.523 Y72.362 E2.10057
G1 X78.046 Y75.000 E2.20114
G1 X76.523 Y77.638 E2.30171
G1 X73.477 Y77.638 E2.40228
G1 X71.954 Y75.000 E2.50285
G1 X73.447 Y72.414 E2.60144
G1 E0.60144 F2400.00000
G92 E0
G1 X76.443 Y73.051 F7800.000
G1 E2.00000 F2400.00000
G1 F600
G1 X76.041 Y72.648 E2.02523
G1 X75.287 Y72.648 E2.05865
G1 X77.473 Y74.834 E2.19569
G1 X77.685 Y75.201 E2.21447
G1 X77.465 Y75.581 E2.23390
G1 X74.533 Y72.648 E2.41773
G1 X73.779 Y72.648 E2.45115
G1 X77.190 Y76.059 E2.66495
G1 X76.914 Y76.537 E2.68941
G1 X73.362 Y72.985 E2.91202
G1 X73.086 Y73.463 E2.93648
G1 X76.638 Y77.015 E3.15909
G1 X76.443 Y77.352 E3.17636
G1 X76.221 Y77.352 E3.18619
G1 X72.810 Y73.941 E3.39998
G1 X72.535 Y74.419 E3.42444
G1 X75.467 Y77.352 E3.60828
G1 X74.713 Y77.352 E3.64170
G1 X72.527 Y75.166 E3.77874
G1 X73.557 Y76.949 E3.87004
G1 X73.959 Y77.352 E3.89525
G1 Z2.300 F7800.000
G1 E1.89525 F2400.00000
G92 E0
G1 X73.477 Y72.362 F7800.000
G1 E2.00000 F2400.00000
G1 F1800
G1 X76.523 Y72.362 E2.10057
G1 X78.046 Y75.000 E2.20114
G1 X76.523 Y77.638 E2.30171
G1 X73.477 Y77.638 E2.40228
G1 X71.954 Y75.000 E2.50285
G1 X73.447 Y72.414 E2.60144
G1 X73.557 Y73.050 F7800.000
G1 F600
G1 X73.959 Y72.648 E2.62665
G1 X74.713 Y72.648 E2.66006
G1 X72.527 Y74.834 E2.79711
G1 X72.315 Y75.201 E2.81588
G1 X72.535 Y75.581 E2.83531
G1 X75.467 Y72.648 E3.01915
G1 X76.221 Y72.648 E3.05257
G1 X72.810 Y76.059 E3.26636
G1 X73.086 Y76.537 E3.29082
G1 X76.638 Y72.985 E3.51343
G1 X76.914 Y73.463 E3.53790
G1 X73.362 Y77.015 E3.76050
G1 X73.557 Y77.352 E3.77777
G1 X73.779 Y77.352 E3.78760
G1 X77.190 Y73.941 E4.00140
G1 X77.465 Y74.419 E4.02586
G1 X74.533 Y77.352 E4.20970
G1 X75.287 Y77.352 E4.24311
G1 X77.473 Y75.166 E4.38016
G1 X76.443 Y76.949 E4.47145
G1 X76.041 Y77.352 E4.49668
G1 Z2.500 F7800.000
G1 E2.49668 F2400.00000
G92 E0
G1 X73.477 Y72.362 F7800.000
G1 E2.00000 F2400.00000
G1 F1800
G1 X76.523 Y72.362 E2.10057
G1 X78.046 Y75.000 E2.20114
G1 X76.523 Y77.638 E2.30171
G1 X73.477 Y77.638 E2.40228
G1 X71.954 Y75.000 E2.50285
G1 X73.447 Y72.414 E2.60144
G1 E0.60144 F2400.00000
G92 E0
G1 X76.443 Y73.051 F7800.000
G1 E2.00000 F2400.00000
G1 F600
G1 X76.041 Y72.648 E2.02523
G1 X75.287 Y72.648 E2.05865
G1 X77.473 Y74.834 E2.19569
G1 X77.685 Y75.201 E2.21447
G1 X77.465 Y75.581 E2.23390
G1 X74.533 Y72.648 E2.41773
G1 X73.779 Y72.648 E2.45115
G1 X77.190 Y76.059 E2.66495
G1 X76.914 Y76.537 E2.68941
G1 X73.362 Y72.985 E2.91202
G1 X73.086 Y73.463 E2.93648
G1 X76.638 Y77.015 E3.15909
G1 X76.443 Y77.352 E3.17636
G1 X76.221 Y77.352 E3.18619
G1 X72.810 Y73.941 E3.39998
G1 X72.535 Y74.419 E3.42444
G1 X75.467 Y77.352 E3.60828
G1 X74.713 Y77.352 E3.64170
G1 X72.527 Y75.166 E3.77874
G1 X73.557 Y76.949 E3.87004
G1 X73.959 Y77.352 E3.89525
G1 Z2.700 F7800.000
G1 E1.89525 F2400.00000
G92 E0
G1 X73.477 Y72.362 F7800.000
G1 E2.00000 F2400.00000
G1 F1800
G1 X76.523 Y72.362 E2.10057
G1 X78.046 Y75.000 E2.20114
G1 X76.523 Y77.638 E2.30171
G1 X73.477 Y77.638 E2.40228
G1 X71.954 Y75.000 E2.50285
G1 X73.447 Y72.414 E2.60144
G1 X73.557 Y73.050 F7800.000
G1 F600
G1 X73.959 Y72.648 E2.62665
G1 X74.713 Y72.648 E2.66006
G1 X72.527 Y74.834 E2.79711
G1 X72.315 Y75.201 E2.81588
G1 X72.535 Y75.581 E2.83531
G1 X75.467 Y72.648 E3.01915
G1 X76.221 Y72.648 E3.05257
G1 X72.810 Y76.059 E3.26636
G1 X73.086 Y76.537 E3.29082
G1 X76.638 Y72.985 E3.51343
G1 X76.914 Y73.463 E3.53790
G1 X73.362 Y77.015 E3.76050
G1 X73.557 Y77.352 E3.77777
G1 X73.779 Y77.352 E3.78760
G1 X77.190 Y73.941 E4.00140
G1 X77.465 Y74.419 E4.02586
G1 X74.533 Y77.352 E4.20970
G1 X75.287 Y77.352 E4.24311
G1 X77.473 Y75.166 E4.38016
G1 X76.443 Y76.949 E4.47145
G1 X76.041 Y77.352 E4.49668
G1 Z2.900 F7800.000
G1 E2.49668 F2400.00000
G92 E0
G1 X74.261 Y73.835 F7800.000
G1 E2.00000 F2400.00000
G1 F600
G1 X74.574 Y73.688 E2.01142
G1 X74.741 Y73.645 E2.01714
G1 X74.913 Y73.623 E2.02286
G1 X75.257 Y73.645 E2.03421
G1 X75.426 Y73.688 E2.04000
G1 X75.739 Y73.835 E2.05141
G1 X75.879 Y73.937 E2.05713
G1 X76.116 Y74.189 E2.06855
G1 X76.282 Y74.490 E2.07990
G1 X76.369 Y74.827 E2.09139
G1 X76.369 Y75.173 E2.10281
G1 X76.336 Y75.343 E2.10852
G1 X76.283 Y75.508 E2.11424
G1 X76.116 Y75.811 E2.12566
G1 X75.879 Y76.063 E2.13708
G1 X75.739 Y76.165 E2.14280
G1 X75.587 Y76.248 E2.14852
G1 X75.259 Y76.355 E2.15994
G1 X75.087 Y76.377 E2.16566
G1 X74.741 Y76.355 E2.17707
G1 X74.574 Y76.312 E2.18280
G1 X74.261 Y76.165 E2.19421
G1 X74.121 Y76.063 E2.19993
G1 X73.884 Y75.811 E2.21135
G1 X73.717 Y75.508 E2.22277
G1 X73.664 Y75.343 E2.22849
G1 X73.620 Y75.000 E2.23991
G1 X73.631 Y74.827 E2.24563
G1 X73.664 Y74.657 E2.25135
G1 X73.791 Y74.335 E2.26276
G1 X73.994 Y74.056 E2.27418
G1 X74.212 Y73.870 E2.28362
G1 X75.357 Y74.105 F7800.000
G1 F600
G1 X75.759 Y74.507 E2.31153
G1 X75.998 Y75.581 F7800.000
G1 F600
G1 X74.415 Y73.998 E2.42136
G1 X74.233 Y74.114 E2.43199
G1 X74.069 Y74.288 E2.44368
G1 X74.001 Y74.419 E2.45091
G1 X75.586 Y76.003 E2.56085
G1 X75.272 Y76.089 E2.57680
G1 X74.941 Y76.053 E2.59318
G1 X74.646 Y75.897 E2.60952
G1 X74.241 Y75.493 E2.63762
G1 Z3.100 F7800.000
G1 X74.414 Y73.752 F7800.000
G1 F600
G1 X74.574 Y73.688 E2.64332
G1 X74.907 Y73.624 E2.65450
G1 X75.259 Y73.646 E2.66617
G1 X75.587 Y73.752 E2.67755
G1 X75.879 Y73.937 E2.68897
G1 X76.006 Y74.056 E2.69469
G1 X76.112 Y74.184 E2.70018
G1 X76.282 Y74.493 E2.71185
G1 X76.336 Y74.657 E2.71755
G1 X76.380 Y75.000 E2.72895
G1 X76.336 Y75.343 E2.74037
G1 X76.283 Y75.508 E2.74609
G1 X76.116 Y75.811 E2.75751
G1 X76.006 Y75.944 E2.76323
G1 X75.879 Y76.063 E2.76895
G1 X75.587 Y76.248 E2.78037
G1 X75.259 Y76.355 E2.79178
G1 X75.087 Y76.377 E2.79750
G1 X74.741 Y76.355 E2.80892
G1 X74.574 Y76.312 E2.81464
G1 X74.413 Y76.248 E2.82036
G1 X74.121 Y76.063 E2.83178
G1 X73.884 Y75.811 E2.84320
G1 X73.791 Y75.665 E2.84892
G1 X73.717 Y75.508 E2.85464
G1 X73.631 Y75.173 E2.86606
G1 X73.620 Y75.000 E2.87178
G1 X73.664 Y74.657 E2.88319
G1 X73.717 Y74.492 E2.88891
G1 X73.884 Y74.189 E2.90033
G1 X74.116 Y73.942 E2.91152
G1 X74.363 Y73.784 E2.92121
G1 X74.163 Y74.578 F7800.000
G1 F600
G1 X74.617 Y74.127 E2.95272
G1 X74.838 Y73.986 E2.96563
G1 X75.139 Y73.913 E2.98087
G1 X75.385 Y73.928 E2.99300
G1 X75.576 Y74.001 E3.00308
G1 X74.000 Y75.578 E3.11281
G1 X74.080 Y75.723 E3.12099
G1 X74.243 Y75.897 E3.13271
G1 X74.418 Y75.996 E3.14263
G1 X75.997 Y74.418 E3.25247
G1 X76.060 Y74.564 E3.26030
G1 X76.090 Y74.799 E3.27195
G1 X76.035 Y75.112 E3.28762
G1 X75.920 Y75.321 E3.29935
G1 X75.354 Y75.897 E3.33909
G1 Z3.300 F7800.000
G1 E1.33909 F2400.00000
G92 E0
G1 X74.410 Y73.754 F7800.000
G1 E2.00000 F2400.00000
G1 F600
G1 X74.574 Y73.688 E2.00584
G1 X74.907 Y73.624 E2.01701
