; generated by Slic3r 1.3.1-dev (Build 2d100c4) on 2020-06-04 at 13:21:16

; external perimeters extrusion width = 0.45mm (2.44mm^3/s)
; perimeters extrusion width = 0.45mm (3.26mm^3/s)
; infill extrusion width = 0.45mm (6.51mm^3/s)
; solid infill extrusion width = 0.45mm (6.51mm^3/s)
; top infill extrusion width = 0.40mm (2.86mm^3/s)

M107
G92 E0
M190 S60 ; set bed temperature and wait for it to be reached
;D3D:START:START
T0
M104 S215 T0

G21
G90
M107
T0
G28
G29
M109 T0 S215 T0
G0 F3000
M107
T0
G92 E0
G0 X0 Y149 Z0.1 F3600
G1 Y49 E6.5 F1200
G0 Z1
G92 E0
; Filament gcode

G21 ; set units to millimeters
G90 ; use absolute coordinates
M82 ; use absolute distances for extrusion
G92 E0
G1 Z0.300 F9000.000
G1 E-3.20000 F4200.00000
G92 E0
G1 Z0.500 F9000.000
G1 X85.698 Y85.611 F9000.000
G1 Z0.300 F9000.000
G1 E3.20000 F4200.00000
M201 X800 Y800
M204 P800 T800
G1 F900.000
G1 X86.789 Y84.507 E3.25143
G1 X88.350 Y84.080 E3.30504
G1 X91.650 Y84.080 E3.41436
G1 X93.152 Y84.473 E3.46579
G1 X94.302 Y85.611 E3.51940
G1 X95.952 Y88.469 E3.62873
G1 X96.362 Y89.966 E3.68016
G1 X95.952 Y91.531 E3.73376
G1 X94.302 Y94.389 E3.84309
G1 X93.211 Y95.493 E3.89452
G1 X91.650 Y95.920 E3.94813
G1 X88.350 Y95.920 E4.05745
G1 X86.848 Y95.527 E4.10888
G1 X85.698 Y94.389 E4.16249
G1 X84.048 Y91.531 E4.27182
G1 X83.638 Y90.034 E4.32325
G1 X84.048 Y88.469 E4.37685
G1 X85.668 Y85.663 E4.48419
M201 X1250 Y1250
M204 P1250 T1250
G1 X85.928 Y85.744 F9000.000
M201 X800 Y800
M204 P800 T800
G1 F900.000
G1 X86.983 Y84.702 E4.53330
G1 X88.350 Y84.345 E4.58012
G1 X91.650 Y84.345 E4.68944
G1 X93.079 Y84.738 E4.73855
G1 X94.072 Y85.744 E4.78537
G1 X95.722 Y88.602 E4.89470
G1 X96.097 Y90.036 E4.94381
G1 X95.722 Y91.398 E4.99062
G1 X94.072 Y94.256 E5.09995
G1 X93.017 Y95.298 E5.14906
G1 X91.650 Y95.655 E5.19587
G1 X88.350 Y95.655 E5.30520
G1 X86.921 Y95.262 E5.35431
G1 X85.928 Y94.256 E5.40113
G1 X84.278 Y91.398 E5.51045
G1 X83.903 Y89.964 E5.55957
G1 X84.278 Y88.602 E5.60638
G1 X85.898 Y85.796 E5.71372
M201 X1250 Y1250
M204 P1250 T1250
G1 X86.158 Y85.876 F9000.000
M201 X800 Y800
M204 P800 T800
G1 F900.000
G1 X87.174 Y84.901 E5.76040
G1 X88.350 Y84.611 E5.80052
G1 X91.650 Y84.611 E5.90985
G1 X93.003 Y85.003 E5.95652
G1 X93.842 Y85.876 E5.99664
G1 X95.492 Y88.734 E6.10597
G1 X95.829 Y90.102 E6.15265
G1 X95.492 Y91.266 E6.19277
G1 X93.842 Y94.123 E6.30210
G1 X92.826 Y95.099 E6.34877
G1 X91.650 Y95.389 E6.38890
G1 X88.350 Y95.389 E6.49823
G1 X86.997 Y94.997 E6.54490
G1 X86.158 Y94.123 E6.58502
G1 X84.508 Y91.266 E6.69435
G1 X84.171 Y89.898 E6.74103
G1 X84.508 Y88.734 E6.78115
G1 X86.128 Y85.928 E6.88849
M201 X1250 Y1250
M204 P1250 T1250
G1 X86.388 Y86.009 F9000.000
M201 X800 Y800
M204 P800 T800
G1 F900.000
G1 X87.363 Y85.103 E6.93260
G1 X88.350 Y84.876 E6.96615
G1 X91.650 Y84.876 E7.07547
G1 X92.923 Y85.268 E7.11958
G1 X93.612 Y86.009 E7.15313
G1 X95.262 Y88.867 E7.26246
G1 X95.560 Y90.165 E7.30656
G1 X95.262 Y91.133 E7.34011
G1 X93.612 Y93.991 E7.44944
G1 X92.637 Y94.897 E7.49354
G1 X91.650 Y95.123 E7.52709
G1 X88.350 Y95.123 E7.63642
G1 X87.077 Y94.732 E7.68053
G1 X86.388 Y93.991 E7.71408
G1 X84.738 Y91.133 E7.82340
G1 X84.440 Y89.835 E7.86751
G1 X84.738 Y88.867 E7.90106
G1 X86.358 Y86.061 E8.00840
M201 X1250 Y1250
M204 P1250 T1250
G1 F7200.000
G1 X87.363 Y85.103 E7.23876
G1 F7200.000
G1 X88.350 Y84.877 E6.67759
G1 F7200.000
G1 X91.434 Y84.877 E4.96840
G1 E4.80840 F4200.00000
G92 E0
G1 Z0.500 F9000.000
G1 X91.248 Y92.162 F9000.000
G1 Z0.300 F9000.000
G1 E3.20000 F4200.00000
M201 X800 Y800
M204 P800 T800
G1 F900.000
G1 X88.752 Y92.162 E3.28269
G1 X87.504 Y90.000 E3.36539
G1 X88.752 Y87.838 E3.44808
G1 X91.248 Y87.838 E3.53077
G1 X92.496 Y90.000 E3.61346
G1 X91.278 Y92.110 E3.69417
M201 X1250 Y1250
M204 P1250 T1250
G1 X91.401 Y92.427 F9000.000
M201 X800 Y800
M204 P800 T800
G1 F900.000
G1 X88.599 Y92.427 E3.78702
G1 X87.197 Y90.000 E3.87988
G1 X88.599 Y87.573 E3.97273
G1 X91.401 Y87.573 E4.06559
G1 X92.803 Y90.000 E4.15844
G1 X91.431 Y92.375 E4.24931
M201 X1250 Y1250
M204 P1250 T1250
G1 X91.555 Y92.693 F9000.000
M201 X800 Y800
M204 P800 T800
G1 F1200.000
G1 X88.445 Y92.693 E4.35232
G1 X86.891 Y90.000 E4.45534
G1 X88.445 Y87.307 E4.55835
G1 X91.555 Y87.307 E4.66137
G1 X93.109 Y90.000 E4.76438
G1 X91.585 Y92.641 E4.86541
M201 X1250 Y1250
M204 P1250 T1250
G1 X90.991 Y91.999 F9000.000
M201 X800 Y800
M204 P800 T800
G1 F900.000
G1 X91.198 Y91.792 E4.87570
G1 X91.743 Y90.849 E4.91401
G1 X90.592 Y91.999 E4.97123
G1 X90.194 Y91.999 E4.98525
G1 X92.293 Y89.897 E5.08973
G1 X92.148 Y89.646 E5.09990
G1 X89.795 Y91.999 E5.21693
G1 X89.396 Y91.999 E5.23095
G1 X92.002 Y89.393 E5.36055
G1 X91.856 Y89.141 E5.37081
G1 X88.998 Y91.999 E5.51298
G1 X88.802 Y91.999 E5.51986
G1 X88.728 Y91.870 E5.52509
G1 X91.710 Y88.888 E5.67343
G1 X91.564 Y88.635 E5.68369
G1 X88.582 Y91.618 E5.83203
G1 X88.436 Y91.365 E5.84229
G1 X91.418 Y88.382 E5.99063
G1 X91.272 Y88.130 E6.00089
G1 X88.290 Y91.112 E6.14923
G1 X88.144 Y90.859 E6.15950
G1 X91.002 Y88.001 E6.30167
G1 X90.604 Y88.001 E6.31569
G1 X87.998 Y90.607 E6.44529
G1 X87.852 Y90.354 E6.45555
G1 X90.205 Y88.001 E6.57258
G1 X89.806 Y88.001 E6.58660
G1 X87.712 Y90.094 E6.69074
G1 X88.257 Y89.151 E6.72905
G1 X89.408 Y88.001 E6.78626
G1 X89.009 Y88.001 E6.80028
G1 X88.802 Y88.207 E6.81056
M201 X1250 Y1250
M204 P1250 T1250
M106 S255
M104 S210 ; set temperature
G1 Z0.500 F9000.000
G1 E3.61056 F4200.00000
G92 E0
G1 Z0.700 F9000.000
G1 X85.698 Y85.611 F9000.000
G1 Z0.500 F9000.000
G1 E3.20000 F4200.00000
G1 F900.000
G1 X86.789 Y84.507 E3.23706
G1 X88.350 Y84.080 E3.27568
G1 X91.650 Y84.080 E3.35445
G1 X93.152 Y84.473 E3.39151
G1 X94.302 Y85.611 E3.43014
G1 X95.952 Y88.469 E3.50891
G1 X96.362 Y89.966 E3.54597
G1 X95.952 Y91.531 E3.58459
G1 X94.302 Y94.389 E3.66336
G1 X93.211 Y95.493 E3.70042
G1 X91.650 Y95.920 E3.73905
G1 X88.350 Y95.920 E3.81782
G1 X86.848 Y95.527 E3.85488
G1 X85.698 Y94.389 E3.89350
G1 X84.048 Y91.531 E3.97227
G1 X83.638 Y90.034 E4.00933
G1 X84.048 Y88.469 E4.04796
G1 X85.668 Y85.663 E4.12530
G1 F7200.000
G1 X86.789 Y84.507 E3.23280
G1 F7200.000
G1 X88.350 Y84.080 E2.33613
G1 F7200.000
G1 X90.607 Y84.080 E1.08530
G1 E0.92530 F4200.00000
G92 E0
G1 Z0.700 F9000.000
G1 X91.285 Y92.226 F9000.000
G1 Z0.500 F9000.000
G1 E3.20000 F4200.00000
M201 X800 Y800
M204 P800 T800
G1 F900.000
G1 X88.715 Y92.226 E3.28700
G1 X87.430 Y90.000 E3.37399
G1 X88.715 Y87.774 E3.46099
G1 X91.285 Y87.774 E3.54798
G1 X92.570 Y90.000 E3.63498
G1 X91.315 Y92.174 E3.71995
M201 X1250 Y1250
M204 P1250 T1250
G1 X91.520 Y92.633 F9000.000
M201 X800 Y800
M204 P800 T800
G1 F1500.000
G1 X88.480 Y92.633 E3.82285
G1 X86.960 Y90.000 E3.92576
G1 X88.480 Y87.367 E4.02867
G1 X91.520 Y87.367 E4.13157
G1 X93.040 Y90.000 E4.23448
G1 X91.550 Y92.581 E4.33536
M201 X1250 Y1250
M204 P1250 T1250
G1 F7200.000
G1 X88.480 Y92.633 E2.63371
G1 F7200.000
G1 X87.272 Y90.541 E1.29536
G1 E1.13536 F4200.00000
G92 E0
G1 Z0.700 F9000.000
G1 X89.108 Y91.977 F9000.000
G1 Z0.500 F9000.000
G1 E3.20000 F4200.00000
M201 X1000 Y1000
M204 P1000 T1000
G1 F900.000
G1 X88.791 Y91.660 E3.21678
G1 X87.921 Y90.152 E3.28206
G1 X89.746 Y91.977 E3.37881
G1 X90.383 Y91.977 E3.40271
G1 X87.927 Y89.521 E3.53291
G1 X88.160 Y89.116 E3.55041
G1 X91.021 Y91.977 E3.70203
G1 X91.208 Y91.977 E3.70906
G1 X91.373 Y91.692 E3.72141
G1 X88.394 Y88.712 E3.87934
G1 X88.627 Y88.308 E3.89683
G1 X91.606 Y91.288 E4.05476
G1 X91.840 Y90.884 E4.07225
G1 X88.979 Y88.023 E4.22388
G1 X89.617 Y88.023 E4.24778
G1 X92.073 Y90.479 E4.37798
G1 X92.258 Y90.158 E4.39188
G1 X92.079 Y89.848 E4.40530
G1 X90.254 Y88.023 E4.50205
G1 X90.892 Y88.023 E4.52594
G1 X91.209 Y88.340 E4.54274
M201 X1250 Y1250
M204 P1250 T1250
G1 Z0.700 F9000.000
G1 E1.34274 F4200.00000
G92 E0
G1 Z0.900 F9000.000
G1 X85.698 Y85.611 F9000.000
G1 Z0.700 F9000.000
G1 E3.20000 F4200.00000
G1 F900.000
G1 X86.789 Y84.507 E3.23706
G1 X88.350 Y84.080 E3.27568
G1 X91.650 Y84.080 E3.35445
G1 X93.152 Y84.473 E3.39151
G1 X94.302 Y85.611 E3.43014
G1 X95.952 Y88.469 E3.50891
G1 X96.362 Y89.966 E3.54597
G1 X95.952 Y91.531 E3.58459
G1 X94.302 Y94.389 E3.66336
G1 X93.211 Y95.493 E3.70042
G1 X91.650 Y95.920 E3.73905
G1 X88.350 Y95.920 E3.81782
G1 X86.848 Y95.527 E3.85488
G1 X85.698 Y94.389 E3.89350
G1 X84.048 Y91.531 E3.97227
G1 X83.638 Y90.034 E4.00933
G1 X84.048 Y88.469 E4.04796
G1 X85.668 Y85.663 E4.12530
G1 F7200.000
G1 X86.789 Y84.507 E3.23280
G1 F7200.000
G1 X88.350 Y84.080 E2.33613
G1 F7200.000
G1 X90.607 Y84.080 E1.08530
G1 E0.92530 F4200.00000
G92 E0
G1 Z0.900 F9000.000
G1 X91.285 Y92.226 F9000.000
G1 Z0.700 F9000.000
G1 E3.20000 F4200.00000
M201 X800 Y800
M204 P800 T800
G1 F900.000
G1 X88.715 Y92.226 E3.28700
G1 X87.430 Y90.000 E3.37399
G1 X88.715 Y87.774 E3.46099
G1 X91.285 Y87.774 E3.54798
G1 X92.570 Y90.000 E3.63498
G1 X91.315 Y92.174 E3.71995
M201 X1250 Y1250
M204 P1250 T1250
G1 X91.520 Y92.633 F9000.000
M201 X800 Y800
M204 P800 T800
G1 F1500.000
G1 X88.480 Y92.633 E3.82285
G1 X86.960 Y90.000 E3.92576
G1 X88.480 Y87.367 E4.02867
G1 X91.520 Y87.367 E4.13157
G1 X93.040 Y90.000 E4.23448
G1 X91.550 Y92.581 E4.33536
M201 X1250 Y1250
M204 P1250 T1250
G1 X90.892 Y91.977 F9000.000
M201 X1000 Y1000
M204 P1000 T1000
G1 F900.000
G1 X91.209 Y91.660 E4.35216
G1 X92.079 Y90.152 E4.41744
G1 X90.254 Y91.977 E4.51419
G1 X89.617 Y91.977 E4.53808
G1 X92.073 Y89.521 E4.66829
G1 X91.840 Y89.116 E4.68578
G1 X88.979 Y91.977 E4.83741
G1 X88.792 Y91.977 E4.84444
G1 X88.627 Y91.692 E4.85678
G1 X91.606 Y88.712 E5.01471
G1 X91.373 Y88.308 E5.03220
G1 X88.394 Y91.288 E5.19013
G1 X88.160 Y90.884 E5.20763
G1 X91.021 Y88.023 E5.35925
G1 X90.383 Y88.023 E5.38315
G1 X87.927 Y90.479 E5.51335
G1 X87.742 Y90.158 E5.52725
G1 X87.921 Y89.848 E5.54067
G1 X89.746 Y88.023 E5.63742
G1 X89.108 Y88.023 E5.66132
G1 X88.792 Y88.340 E5.67810
M201 X1250 Y1250
M204 P1250 T1250
G1 Z0.900 F9000.000
G1 E2.47810 F4200.00000
G92 E0
G1 Z1.100 F9000.000
G1 X91.285 Y92.226 F9000.000
G1 Z0.900 F9000.000
G1 E3.20000 F4200.00000
M201 X800 Y800
M204 P800 T800
G1 F900.000
G1 X88.715 Y92.226 E3.28700
G1 X87.430 Y90.000 E3.37399
G1 X88.715 Y87.774 E3.46099
G1 X91.285 Y87.774 E3.54798
G1 X92.570 Y90.000 E3.63498
G1 X91.315 Y92.174 E3.71995
M201 X1250 Y1250
M204 P1250 T1250
G1 X91.520 Y92.633 F9000.000
M201 X800 Y800
M204 P800 T800
G1 F1500.000
G1 X88.480 Y92.633 E3.82285
G1 X86.960 Y90.000 E3.92576
G1 X88.480 Y87.367 E4.02867
G1 X91.520 Y87.367 E4.13157
G1 X93.040 Y90.000 E4.23448
G1 X91.550 Y92.581 E4.33536
M201 X1250 Y1250
M204 P1250 T1250
G1 F7200.000
G1 X88.480 Y92.633 E2.63371
G1 F7200.000
G1 X87.272 Y90.541 E1.29536
G1 E1.13536 F4200.00000
G92 E0
G1 Z1.100 F9000.000
G1 X89.108 Y91.977 F9000.000
G1 Z0.900 F9000.000
G1 E3.20000 F4200.00000
M201 X1000 Y1000
M204 P1000 T1000
G1 F900.000
G1 X88.791 Y91.660 E3.21678
G1 X87.921 Y90.152 E3.28206
G1 X89.746 Y91.977 E3.37881
G1 X90.383 Y91.977 E3.40271
G1 X87.927 Y89.521 E3.53291
G1 X88.160 Y89.116 E3.55041
G1 X91.021 Y91.977 E3.70203
G1 X91.208 Y91.977 E3.70906
G1 X91.373 Y91.692 E3.72141
G1 X88.394 Y88.712 E3.87934
G1 X88.627 Y88.308 E3.89683
G1 X91.606 Y91.288 E4.05476
G1 X91.840 Y90.884 E4.07225
G1 X88.979 Y88.023 E4.22388
G1 X89.617 Y88.023 E4.24778
G1 X92.073 Y90.479 E4.37798
G1 X92.258 Y90.158 E4.39188
G1 X92.079 Y89.848 E4.40530
G1 X90.254 Y88.023 E4.50205
G1 X90.892 Y88.023 E4.52594
G1 X91.209 Y88.340 E4.54274
M201 X1250 Y1250
M204 P1250 T1250
G1 Z1.100 F9000.000
G1 E1.34274 F4200.00000
G92 E0
G1 Z1.300 F9000.000
G1 X91.285 Y92.226 F9000.000
G1 Z1.100 F9000.000
G1 E3.20000 F4200.00000
M201 X800 Y800
M204 P800 T800
G1 F900.000
G1 X88.715 Y92.226 E3.28700
G1 X87.430 Y90.000 E3.37399
G1 X88.715 Y87.774 E3.46099
G1 X91.285 Y87.774 E3.54798
G1 X92.570 Y90.000 E3.63498
G1 X91.315 Y92.174 E3.71995
M201 X1250 Y1250
M204 P1250 T1250
G1 X91.520 Y92.633 F9000.000
M201 X800 Y800
M204 P800 T800
G1 F1500.000
G1 X88.480 Y92.633 E3.82285
G1 X86.960 Y90.000 E3.92576
G1 X88.480 Y87.367 E4.02867
G1 X91.520 Y87.367 E4.13157
G1 X93.040 Y90.000 E4.23448
G1 X91.550 Y92.581 E4.33536
M201 X1250 Y1250
M204 P1250 T1250
G1 F7200.000
G1 X88.480 Y92.633 E2.63371
G1 F7200.000
G1 X87.272 Y90.541 E1.29536
G1 E1.13536 F4200.00000
G92 E0
G1 Z1.300 F9000.000
G1 X88.827 Y91.173 F9000.000
G1 Z1.100 F9000.000
G1 E3.20000 F4200.00000
M201 X1000 Y1000
M204 P1000 T1000
G1 F900.000
G1 X89.108 Y91.660 E3.21905
G1 X91.208 Y91.660 E3.29013
G1 X92.258 Y89.842 E3.36122
G1 X91.490 Y88.510 E3.41326
G1 X88.510 Y91.490 E3.55588
M201 X1250 Y1250
M204 P1250 T1250
G1 Z1.300 F9000.000
G1 E0.35588 F4200.00000
G92 E0
G1 Z1.500 F9000.000
G1 X91.285 Y92.226 F9000.000
G1 Z1.300 F9000.000
G1 E3.20000 F4200.00000
M201 X800 Y800
M204 P800 T800
G1 F900.000
G1 X88.715 Y92.226 E3.28700
G1 X87.430 Y90.000 E3.37399
G1 X88.715 Y87.774 E3.46099
G1 X91.285 Y87.774 E3.54798
G1 X92.570 Y90.000 E3.63498
G1 X91.315 Y92.174 E3.71995
M201 X1250 Y1250
M204 P1250 T1250
G1 X91.520 Y92.633 F9000.000
M201 X800 Y800
M204 P800 T800
G1 F1500.000
G1 X88.480 Y92.633 E3.82285
G1 X86.960 Y90.000 E3.92576
G1 X88.480 Y87.367 E4.02867
G1 X91.520 Y87.367 E4.13157
G1 X93.040 Y90.000 E4.23448
G1 X91.550 Y92.581 E4.33536
M201 X1250 Y1250
M204 P1250 T1250
G1 X91.490 Y91.490 F9000.000
M201 X1000 Y1000
M204 P1000 T1000
G1 F900.000
G1 X88.510 Y88.510 E4.47798
G1 X88.792 Y88.023 E4.49703
G1 X90.892 Y88.023 E4.56811
G1 X91.942 Y89.842 E4.63920
G1 X91.173 Y91.173 E4.69124
M201 X1250 Y1250
M204 P1250 T1250
G1 Z1.500 F9000.000
G1 X91.285 Y92.226 F9000.000
M201 X800 Y800
M204 P800 T800
G1 F900.000
G1 X88.715 Y92.226 E4.77823
G1 X87.430 Y90.000 E4.86523
G1 X88.715 Y87.774 E4.95223
G1 X91.285 Y87.774 E5.03922
G1 X92.570 Y90.000 E5.12622
G1 X91.315 Y92.174 E5.21118
M201 X1250 Y1250
M204 P1250 T1250
G1 X91.520 Y92.633 F9000.000
M201 X800 Y800
M204 P800 T800
G1 F1500.000
G1 X88.480 Y92.633 E5.31409
G1 X86.960 Y90.000 E5.41700
G1 X88.480 Y87.367 E5.51990
G1 X91.520 Y87.367 E5.62281
G1 X93.040 Y90.000 E5.72572
G1 X91.550 Y92.581 E5.82659
M201 X1250 Y1250
M204 P1250 T1250
G1 F7200.000
G1 X88.480 Y92.633 E4.12495
G1 F7200.000
G1 X87.272 Y90.541 E2.78659
G1 E2.62659 F4200.00000
G92 E0
G1 Z1.700 F9000.000
G1 X88.827 Y91.173 F9000.000
G1 Z1.500 F9000.000
G1 E3.20000 F4200.00000
M201 X1000 Y1000
M204 P1000 T1000
G1 F900.000
G1 X89.108 Y91.660 E3.21905
G1 X91.208 Y91.660 E3.29013
G1 X92.258 Y89.842 E3.36122
G1 X91.490 Y88.510 E3.41326
G1 X88.510 Y91.490 E3.55588
M201 X1250 Y1250
M204 P1250 T1250
G1 Z1.700 F9000.000
G1 E0.35588 F4200.00000
G92 E0
G1 Z1.900 F9000.000
G1 X91.285 Y92.226 F9000.000
G1 Z1.700 F9000.000
G1 E3.20000 F4200.00000
M201 X800 Y800
M204 P800 T800
G1 F900.000
G1 X88.715 Y92.226 E3.28700
G1 X87.430 Y90.000 E3.37399
G1 X88.715 Y87.774 E3.46099
G1 X91.285 Y87.774 E3.54798
G1 X92.570 Y90.000 E3.63498
G1 X91.315 Y92.174 E3.71995
M201 X1250 Y1250
M204 P1250 T1250
G1 X91.520 Y92.633 F9000.000
M201 X800 Y800
M204 P800 T800
G1 F900.000
G1 X88.480 Y92.633 E3.82285
G1 X86.960 Y90.000 E3.92576
G1 X88.480 Y87.367 E4.02867
G1 X91.520 Y87.367 E4.13157
G1 X93.040 Y90.000 E4.23448
G1 X91.550 Y92.581 E4.33536
M201 X1250 Y1250
M204 P1250 T1250
G1 F7200.000
G1 X88.480 Y92.633 E2.63371
G1 F7200.000
G1 X87.272 Y90.541 E1.29536
G1 E1.13536 F4200.00000
G92 E0
G1 Z1.900 F9000.000
G1 X89.124 Y91.967 F9000.000
G1 Z1.700 F9000.000
G1 E3.20000 F4200.00000
M201 X1000 Y1000
M204 P1000 T1000
M106 S255

G1 F1800.000
G1 X88.795 Y91.637 E3.22394
G1 X87.932 Y90.143 E3.31263
G1 X89.756 Y91.967 E3.44521
G1 X90.388 Y91.967 E3.47767
G1 X87.938 Y89.517 E3.65571
G1 X88.169 Y89.117 E3.67947
G1 X91.019 Y91.967 E3.88661
G1 X91.205 Y91.967 E3.89616
G1 X91.368 Y91.684 E3.91293
G1 X88.400 Y88.716 E4.12863
G1 X88.632 Y88.316 E4.15240
G1 X91.600 Y91.284 E4.36810
G1 X91.831 Y90.883 E4.39186
G1 X88.981 Y88.033 E4.59900
G1 X89.612 Y88.033 E4.63146
G1 X92.062 Y90.483 E4.80950
G1 X92.246 Y90.165 E4.82838
G1 X92.068 Y89.857 E4.84661
G1 X90.244 Y88.033 E4.97919
G1 X90.876 Y88.033 E5.01166
G1 X91.205 Y88.363 E5.03562
M106 S255

M201 X1250 Y1250
M204 P1250 T1250
G1 Z1.900 F9000.000
G1 E1.83562 F4200.00000
G92 E0
G1 Z2.100 F9000.000
G1 X91.285 Y92.226 F9000.000
G1 Z1.900 F9000.000
G1 E3.20000 F4200.00000
M201 X800 Y800
