; generated by Slic3r 1.3.1-dev (Build 2d100c4) on 2020-06-04 at 13:21:11

; external perimeters extrusion width = 0.44mm (2.86mm^3/s)
; perimeters extrusion width = 0.56mm (4.14mm^3/s)
; infill extrusion width = 0.50mm (3.66mm^3/s)
; solid infill extrusion width = 0.56mm (3.10mm^3/s)
; top infill extrusion width = 0.56mm (3.10mm^3/s)

M107
G92 E0
;D3D:START:START
T0
M104 S215 T0

G21
G90
M107
T0
G28
G29
M109 T0 S215 T0
G0 F3000
M107
T0
G92 E0
G0 X0 Y149 Z0.1 F3600
G1 Y49 E6.5 F1200
G0 Z1
G92 E0
; Filament gcode

G21 ; set units to millimeters
G90 ; use absolute coordinates
M82 ; use absolute distances for extrusion
G92 E0
G1 Z0.300 F7800.000
G1 E-2.00000 F2400.00000
G92 E0
G1 X73.752 Y72.838 F7800.000
G1 E2.00000 F2400.00000
G1 F1191.542
G1 X76.248 Y72.838 E2.08269
G1 X77.496 Y75.000 E2.16539
G1 X76.248 Y77.162 E2.24808
G1 X73.752 Y77.162 E2.33077
G1 X72.504 Y75.000 E2.41347
G1 X73.722 Y72.890 E2.49417
G1 X73.599 Y72.573 F7800.000
G1 F1191.542
G1 X76.401 Y72.573 E2.58702
G1 X77.803 Y75.000 E2.67988
G1 X76.401 Y77.427 E2.77273
G1 X73.599 Y77.427 E2.86559
G1 X72.197 Y75.000 E2.95844
G1 X73.569 Y72.625 E3.04931
G1 X73.445 Y72.307 F7800.000
G1 F1800.000
G1 X76.555 Y72.307 E3.15232
G1 X78.109 Y75.000 E3.25534
G1 X76.555 Y77.693 E3.35835
G1 X73.445 Y77.693 E3.46137
G1 X71.891 Y75.000 E3.56438
G1 X73.415 Y72.359 E3.66541
G1 X73.802 Y73.207 F7800.000
G1 F1191.542
G1 X74.009 Y73.001 E3.67569
G1 X74.408 Y73.001 E3.68971
G1 X73.257 Y74.151 E3.74692
G1 X72.712 Y75.094 E3.78523
G1 X74.806 Y73.001 E3.88937
G1 X75.205 Y73.001 E3.90339
G1 X72.852 Y75.354 E4.02042
G1 X72.998 Y75.607 E4.03068
G1 X75.604 Y73.001 E4.16028
G1 X76.002 Y73.001 E4.17430
G1 X73.144 Y75.859 E4.31648
G1 X73.290 Y76.112 E4.32674
G1 X76.272 Y73.130 E4.47508
G1 X76.418 Y73.382 E4.48534
G1 X73.436 Y76.365 E4.63368
G1 X73.582 Y76.618 E4.64394
G1 X76.564 Y73.635 E4.79228
G1 X76.710 Y73.888 E4.80254
G1 X73.728 Y76.870 E4.95088
G1 X73.802 Y76.999 E4.95611
G1 X73.998 Y76.999 E4.96299
G1 X76.856 Y74.141 E5.10516
G1 X77.002 Y74.393 E5.11542
G1 X74.396 Y76.999 E5.24502
G1 X74.795 Y76.999 E5.25905
G1 X77.148 Y74.646 E5.37607
G1 X77.293 Y74.897 E5.38624
G1 X75.194 Y76.999 E5.49072
G1 X75.592 Y76.999 E5.50474
G1 X76.743 Y75.849 E5.56196
G1 X76.198 Y76.792 E5.60027
G1 X75.991 Y76.999 E5.61056
M106 S255
G1 Z0.500 F7800.000
G1 E3.61056 F2400.00000
G92 E0
G1 X73.741 Y72.819 F7800.000
G1 E2.00000 F2400.00000
G1 F600.000
G1 X76.259 Y72.819 E2.10827
G1 X77.518 Y75.000 E2.21654
G1 X76.259 Y77.181 E2.32481
G1 X73.741 Y77.181 E2.43308
G1 X72.482 Y75.000 E2.54135
G1 X73.711 Y72.871 E2.64704
G1 X73.477 Y72.362 F7800.000
G1 F1800.000
G1 X76.523 Y72.362 E2.74761
G1 X78.046 Y75.000 E2.84818
G1 X76.523 Y77.638 E2.94875
G1 X73.477 Y77.638 E3.04932
G1 X71.954 Y75.000 E3.14989
G1 X73.447 Y72.414 E3.24848
G1 E1.24848 F2400.00000
G92 E0
G1 X76.162 Y73.538 F7800.000
G1 E2.00000 F2400.00000
G1 F600.000
G1 X75.759 Y73.135 E2.02509
G1 X75.010 Y73.135 E2.05815
G1 X77.105 Y75.231 E2.18879
G1 X76.831 Y75.706 E2.21299
G1 X74.260 Y73.135 E2.37326
G1 X73.838 Y73.135 E2.39184
G1 X73.718 Y73.343 E2.40244
G1 X76.556 Y76.181 E2.57937
G1 X76.282 Y76.657 E2.60357
G1 X73.444 Y73.819 E2.78050
G1 X73.169 Y74.294 E2.80470
G1 X75.740 Y76.865 E2.96497
G1 X74.990 Y76.865 E2.99803
G1 X72.895 Y74.769 E3.12867
G1 X72.878 Y74.799 E3.13018
G1 X73.838 Y76.462 E3.21485
G1 X74.240 Y76.865 E3.23992
G1 Z0.700 F7800.000
G1 E1.23992 F2400.00000
G92 E0
G1 X73.741 Y72.819 F7800.000
G1 E2.00000 F2400.00000
G1 F600.000
G1 X76.259 Y72.819 E2.10827
G1 X77.518 Y75.000 E2.21654
G1 X76.259 Y77.181 E2.32481
G1 X73.741 Y77.181 E2.43308
G1 X72.482 Y75.000 E2.54135
G1 X73.711 Y72.871 E2.64704
G1 X73.477 Y72.362 F7800.000
G1 F1800.000
G1 X76.523 Y72.362 E2.74761
G1 X78.046 Y75.000 E2.84818
G1 X76.523 Y77.638 E2.94875
G1 X73.477 Y77.638 E3.04932
G1 X71.954 Y75.000 E3.14989
G1 X73.447 Y72.414 E3.24848
G1 X74.241 Y73.135 F7800.000
G1 F600.000
G1 X73.838 Y73.538 E3.27357
G1 X72.878 Y75.201 E3.35824
G1 X72.895 Y75.231 E3.35975
G1 X74.990 Y73.135 E3.49039
G1 X75.740 Y73.135 E3.52345
G1 X73.169 Y75.706 E3.68372
G1 X73.444 Y76.181 E3.70792
G1 X76.282 Y73.343 E3.88485
G1 X76.556 Y73.819 E3.90905
G1 X73.718 Y76.657 E4.08598
G1 X73.838 Y76.865 E4.09658
G1 X74.260 Y76.865 E4.11516
G1 X76.831 Y74.294 E4.27543
G1 X77.105 Y74.769 E4.29963
G1 X75.010 Y76.865 E4.43027
G1 X75.759 Y76.865 F7800.000
G1 F600.000
G1 X76.162 Y76.463 E4.45535
G1 Z0.900 F7800.000
G1 E2.45535 F2400.00000
G92 E0
G1 X73.741 Y72.819 F7800.000
G1 E2.00000 F2400.00000
G1 F600.000
G1 X76.259 Y72.819 E2.10827
G1 X77.518 Y75.000 E2.21654
G1 X76.259 Y77.181 E2.32481
G1 X73.741 Y77.181 E2.43308
G1 X72.482 Y75.000 E2.54135
G1 X73.711 Y72.871 E2.64704
G1 X73.477 Y72.362 F7800.000
G1 F1800.000
G1 X76.523 Y72.362 E2.74761
G1 X78.046 Y75.000 E2.84818
G1 X76.523 Y77.638 E2.94875
G1 X73.477 Y77.638 E3.04932
G1 X71.954 Y75.000 E3.14989
G1 X73.447 Y72.414 E3.24848
G1 E1.24848 F2400.00000
G92 E0
G1 X76.162 Y73.538 F7800.000
G1 E2.00000 F2400.00000
G1 F600.000
G1 X75.759 Y73.135 E2.02509
G1 X75.010 Y73.135 E2.05815
G1 X77.105 Y75.231 E2.18879
G1 X76.831 Y75.706 E2.21299
G1 X74.260 Y73.135 E2.37326
G1 X73.838 Y73.135 E2.39184
G1 X73.718 Y73.343 E2.40244
G1 X76.556 Y76.181 E2.57937
G1 X76.282 Y76.657 E2.60357
G1 X73.444 Y73.819 E2.78050
G1 X73.169 Y74.294 E2.80470
G1 X75.740 Y76.865 E2.96497
G1 X74.990 Y76.865 E2.99803
G1 X72.895 Y74.769 E3.12867
G1 X72.878 Y74.799 E3.13018
G1 X73.838 Y76.462 E3.21485
G1 X74.240 Y76.865 E3.23992
G1 Z1.100 F7800.000
G1 E1.23992 F2400.00000
G92 E0
G1 X73.741 Y72.819 F7800.000
G1 E2.00000 F2400.00000
G1 F600.000
G1 X76.259 Y72.819 E2.10827
G1 X77.518 Y75.000 E2.21654
G1 X76.259 Y77.181 E2.32481
G1 X73.741 Y77.181 E2.43308
G1 X72.482 Y75.000 E2.54135
G1 X73.711 Y72.871 E2.64704
G1 X73.477 Y72.362 F7800.000
G1 F1800.000
G1 X76.523 Y72.362 E2.74761
G1 X78.046 Y75.000 E2.84818
G1 X76.523 Y77.638 E2.94875
G1 X73.477 Y77.638 E3.04932
G1 X71.954 Y75.000 E3.14989
G1 X73.447 Y72.414 E3.24848
G1 E1.24848 F2400.00000
G92 E0
G1 X73.950 Y76.050 F7800.000
G1 E2.00000 F2400.00000
G1 F600.000
G1 X74.212 Y76.504 E2.01992
G1 X76.167 Y76.504 E2.09425
G1 X77.145 Y74.811 E2.16858
G1 X76.429 Y73.571 E2.22299
G1 X73.571 Y76.429 E2.37664
G1 Z1.300 F7800.000
G1 E0.37664 F2400.00000
G92 E0
G1 X73.741 Y72.819 F7800.000
G1 E2.00000 F2400.00000
G1 F600.000
G1 X76.259 Y72.819 E2.10827
G1 X77.518 Y75.000 E2.21654
G1 X76.259 Y77.181 E2.32481
G1 X73.741 Y77.181 E2.43308
G1 X72.482 Y75.000 E2.54135
G1 X73.711 Y72.871 E2.64704
G1 X73.477 Y72.362 F7800.000
G1 F1800.000
G1 X76.523 Y72.362 E2.74761
G1 X78.046 Y75.000 E2.84818
G1 X76.523 Y77.638 E2.94875
G1 X73.477 Y77.638 E3.04932
G1 X71.954 Y75.000 E3.14989
G1 X73.447 Y72.414 E3.24848
G1 E1.24848 F2400.00000
G92 E0
G1 X76.050 Y76.050 F7800.000
G1 E2.00000 F2400.00000
G1 F600.000
G1 X76.766 Y74.811 E2.05441
G1 X75.788 Y73.117 E2.12875
G1 X73.833 Y73.117 E2.20308
G1 X73.571 Y73.571 E2.22299
G1 X76.429 Y76.429 E2.37664
G1 Z1.500 F7800.000
G1 E0.37664 F2400.00000
G92 E0
G1 X73.741 Y72.819 F7800.000
G1 E2.00000 F2400.00000
G1 F600.000
G1 X76.259 Y72.819 E2.10827
G1 X77.518 Y75.000 E2.21654
G1 X76.259 Y77.181 E2.32481
G1 X73.741 Y77.181 E2.43308
G1 X72.482 Y75.000 E2.54135
G1 X73.711 Y72.871 E2.64704
G1 X73.477 Y72.362 F7800.000
G1 F1800.000
G1 X76.523 Y72.362 E2.74761
G1 X78.046 Y75.000 E2.84818
G1 X76.523 Y77.638 E2.94875
G1 X73.477 Y77.638 E3.04932
G1 X71.954 Y75.000 E3.14989
G1 X73.447 Y72.414 E3.24848
G1 E1.24848 F2400.00000
G92 E0
G1 X73.950 Y76.050 F7800.000
G1 E2.00000 F2400.00000
G1 F600.000
G1 X74.212 Y76.504 E2.01992
G1 X76.167 Y76.504 E2.09425
G1 X77.145 Y74.811 E2.16858
G1 X76.429 Y73.571 E2.22299
G1 X73.571 Y76.429 E2.37664
G1 Z1.700 F7800.000
G1 E0.37664 F2400.00000
G92 E0
G1 X73.741 Y72.819 F7800.000
G1 E2.00000 F2400.00000
G1 F600.000
G1 X76.259 Y72.819 E2.10827
G1 X77.518 Y75.000 E2.21654
G1 X76.259 Y77.181 E2.32481
G1 X73.741 Y77.181 E2.43308
G1 X72.482 Y75.000 E2.54135
G1 X73.711 Y72.871 E2.64704
G1 X73.477 Y72.362 F7800.000
G1 F600.000
G1 X76.523 Y72.362 E2.74761
G1 X78.046 Y75.000 E2.84818
G1 X76.523 Y77.638 E2.94875
G1 X73.477 Y77.638 E3.04932
G1 X71.954 Y75.000 E3.14989
G1 X73.447 Y72.414 E3.24848
G1 E1.24848 F2400.00000
G92 E0
G1 X76.168 Y73.491 F7800.000
G1 E2.00000 F2400.00000
M106 S255

G1 F2400.000
G1 X75.792 Y73.115 E2.03114
G1 X75.122 Y73.115 E2.07029
G1 X77.082 Y75.075 E2.23241
G1 X77.148 Y75.188 E2.24008
G1 X76.920 Y75.582 E2.26668
G1 X74.453 Y73.115 E2.47078
G1 X73.832 Y73.115 E2.50711
G1 X73.814 Y73.145 E2.50917
G1 X76.676 Y76.006 E2.74584
G1 X76.431 Y76.431 E2.77450
G1 X73.569 Y73.569 E3.01117
G1 X73.324 Y73.994 E3.03983
G1 X76.186 Y76.855 E3.27650
G1 X76.168 Y76.885 E3.27856
G1 X75.547 Y76.885 E3.31489
G1 X73.080 Y74.418 E3.51899
G1 X72.852 Y74.812 E3.54559
G1 X72.918 Y74.925 E3.55325
G1 X74.878 Y76.885 E3.71538
G1 X74.208 Y76.885 E3.75453
G1 X73.832 Y76.509 E3.78566
M106 S255

G1 Z1.900 F7800.000
G1 E1.78566 F2400.00000
G92 E0
G1 X73.741 Y72.819 F7800.000
G1 E2.00000 F2400.00000
G1 F600.000
G1 X76.259 Y72.819 E2.10827
G1 X77.518 Y75.000 E2.21654
G1 X76.259 Y77.181 E2.32481
G1 X73.741 Y77.181 E2.43308
G1 X72.482 Y75.000 E2.54135
G1 X73.711 Y72.871 E2.64704
G1 X73.477 Y72.362 F7800.000
G1 F1800.000
G1 X76.523 Y72.362 E2.74761
G1 X78.046 Y75.000 E2.84818
G1 X76.523 Y77.638 E2.94875
G1 X73.477 Y77.638 E3.04932
G1 X71.954 Y75.000 E3.14989
G1 X73.447 Y72.414 E3.24848
G1 X74.241 Y73.135 F7800.000
G1 F600.000
G1 X73.838 Y73.538 E3.27357
G1 X72.878 Y75.201 E3.35824
G1 X72.895 Y75.231 E3.35975
G1 X74.990 Y73.135 E3.49039
G1 X75.740 Y73.135 E3.52345
G1 X73.169 Y75.706 E3.68372
G1 X73.444 Y76.181 E3.70792
G1 X76.282 Y73.343 E3.88485
G1 X76.556 Y73.819 E3.90905
G1 X73.718 Y76.657 E4.08598
G1 X73.838 Y76.865 E4.09658
G1 X74.260 Y76.865 E4.11516
G1 X76.831 Y74.294 E4.27543
G1 X77.105 Y74.769 E4.29963
G1 X75.010 Y76.865 E4.43027
G1 X75.759 Y76.865 F7800.000
G1 F600.000
G1 X76.162 Y76.463 E4.45535
G1 Z2.100 F7800.000
G1 E2.45535 F2400.00000
G92 E0
G1 X73.741 Y72.819 F7800.000
G1 E2.00000 F2400.00000
G1 F600.000
G1 X76.259 Y72.819 E2.10827
G1 X77.518 Y75.000 E2.21654
G1 X76.259 Y77.181 E2.32481
G1 X73.741 Y77.181 E2.43308
G1 X72.482 Y75.000 E2.54135
G1 X73.711 Y72.871 E2.64704
G1 X73.477 Y72.362 F7800.000
G1 F1800.000
G1 X76.523 Y72.362 E2.74761
G1 X78.046 Y75.000 E2.84818
G1 X76.523 Y77.638 E2.94875
G1 X73.477 Y77.638 E3.04932
G1 X71.954 Y75.000 E3.14989
G1 X73.447 Y72.414 E3.24848
G1 E1.24848 F2400.00000
G92 E0
G1 X76.162 Y73.538 F7800.000
G1 E2.00000 F2400.00000
G1 F600.000
G1 X75.759 Y73.135 E2.02509
G1 X75.010 Y73.135 E2.05815
G1 X77.105 Y75.231 E2.18879
G1 X76.831 Y75.706 E2.21299
G1 X74.260 Y73.135 E2.37326
G1 X73.838 Y73.135 E2.39184
G1 X73.718 Y73.343 E2.40244
G1 X76.556 Y76.181 E2.57937
G1 X76.282 Y76.657 E2.60357
G1 X73.444 Y73.819 E2.78050
G1 X73.169 Y74.294 E2.80470
G1 X75.740 Y76.865 E2.96497
G1 X74.990 Y76.865 E2.99803
G1 X72.895 Y74.769 E3.12867
G1 X72.878 Y74.799 E3.13018
G1 X73.838 Y76.462 E3.21485
G1 X74.240 Y76.865 E3.23992
G1 Z2.300 F7800.000
G1 E1.23992 F2400.00000
G92 E0
G1 X73.741 Y72.819 F7800.000
G1 E2.00000 F2400.00000
G1 F600.000
G1 X76.259 Y72.819 E2.10827
G1 X77.518 Y75.000 E2.21654
G1 X76.259 Y77.181 E2.32481
G1 X73.741 Y77.181 E2.43308
G1 X72.482 Y75.000 E2.54135
G1 X73.711 Y72.871 E2.64704
G1 X73.477 Y72.362 F7800.000
G1 F1800.000
G1 X76.523 Y72.362 E2.74761
G1 X78.046 Y75.000 E2.84818
G1 X76.523 Y77.638 E2.94875
G1 X73.477 Y77.638 E3.04932
G1 X71.954 Y75.000 E3.14989
G1 X73.447 Y72.414 E3.24848
G1 X74.241 Y73.135 F7800.000
G1 F600.000
G1 X73.838 Y73.538 E3.27357
G1 X72.878 Y75.201 E3.35824
G1 X72.895 Y75.231 E3.35975
G1 X74.990 Y73.135 E3.49039
G1 X75.740 Y73.135 E3.52345
G1 X73.169 Y75.706 E3.68372
G1 X73.444 Y76.181 E3.70792
G1 X76.282 Y73.343 E3.88485
G1 X76.556 Y73.819 E3.90905
G1 X73.718 Y76.657 E4.08598
G1 X73.838 Y76.865 E4.09658
G1 X74.260 Y76.865 E4.11516
G1 X76.831 Y74.294 E4.27543
G1 X77.105 Y74.769 E4.29963
G1 X75.010 Y76.865 E4.43027
G1 X75.759 Y76.865 F7800.000
G1 F600.000
G1 X76.162 Y76.463 E4.45535
G1 Z2.500 F7800.000
G1 E2.45535 F2400.00000
G92 E0
G1 X73.741 Y72.819 F7800.000
G1 E2.00000 F2400.00000
G1 F600.000
G1 X76.259 Y72.819 E2.10827
G1 X77.518 Y75.000 E2.21654
G1 X76.259 Y77.181 E2.32481
G1 X73.741 Y77.181 E2.43308
G1 X72.482 Y75.000 E2.54135
G1 X73.711 Y72.871 E2.64704
G1 X73.477 Y72.362 F7800.000
G1 F1800.000
G1 X76.523 Y72.362 E2.74761
G1 X78.046 Y75.000 E2.84818
G1 X76.523 Y77.638 E2.94875
G1 X73.477 Y77.638 E3.04932
G1 X71.954 Y75.000 E3.14989
G1 X73.447 Y72.414 E3.24848
G1 E1.24848 F2400.00000
G92 E0
G1 X76.162 Y73.538 F7800.000
G1 E2.00000 F2400.00000
G1 F600.000
G1 X75.759 Y73.135 E2.02509
G1 X75.010 Y73.135 E2.05815
G1 X77.105 Y75.231 E2.18879
G1 X76.831 Y75.706 E2.21299
G1 X74.260 Y73.135 E2.37326
G1 X73.838 Y73.135 E2.39184
G1 X73.718 Y73.343 E2.40244
G1 X76.556 Y76.181 E2.57937
G1 X76.282 Y76.657 E2.60357
G1 X73.444 Y73.819 E2.78050
G1 X73.169 Y74.294 E2.80470
G1 X75.740 Y76.865 E2.96497
G1 X74.990 Y76.865 E2.99803
G1 X72.895 Y74.769 E3.12867
G1 X72.878 Y74.799 E3.13018
G1 X73.838 Y76.462 E3.21485
G1 X74.240 Y76.865 E3.23992
G1 Z2.700 F7800.000
G1 E1.23992 F2400.00000
G92 E0
G1 X73.741 Y72.819 F7800.000
G1 E2.00000 F2400.00000
G1 F600.000
G1 X76.259 Y72.819 E2.10827
G1 X77.518 Y75.000 E2.21654
G1 X76.259 Y77.181 E2.32481
G1 X73.741 Y77.181 E2.43308
G1 X72.482 Y75.000 E2.54135
G1 X73.711 Y72.871 E2.64704
G1 X73.477 Y72.362 F7800.000
G1 F1800.000
G1 X76.523 Y72.362 E2.74761
G1 X78.046 Y75.000 E2.84818
G1 X76.523 Y77.638 E2.94875
G1 X73.477 Y77.638 E3.04932
G1 X71.954 Y75.000 E3.14989
G1 X73.447 Y72.414 E3.24848
G1 X74.241 Y73.135 F7800.000
G1 F600.000
G1 X73.838 Y73.538 E3.27357
G1 X72.878 Y75.201 E3.35824
G1 X72.895 Y75.231 E3.35975
G1 X74.990 Y73.135 E3.49039
G1 X75.740 Y73.135 E3.52345
G1 X73.169 Y75.706 E3.68372
G1 X73.444 Y76.181 E3.70792
G1 X76.282 Y73.343 E3.88485
G1 X76.556 Y73.819 E3.90905
G1 X73.718 Y76.657 E4.08598
G1 X73.838 Y76.865 E4.09658
G1 X74.260 Y76.865 E4.11516
G1 X76.831 Y74.294 E4.27543
G1 X77.105 Y74.769 E4.29963
G1 X75.010 Y76.865 E4.43027
G1 X75.759 Y76.865 F7800.000
G1 F600.000
G1 X76.162 Y76.463 E4.45535
G1 Z2.900 F7800.000
G1 E2.45535 F2400.00000
G92 E0
G1 X74.506 Y74.222 F7800.000
G1 E2.00000 F2400.00000
G1 F600.000
G1 X74.608 Y74.166 E2.00498
G1 X74.827 Y74.095 E2.01491
G1 X74.942 Y74.080 E2.01988
G1 X75.173 Y74.095 E2.02982
G1 X75.285 Y74.124 E2.03479
G1 X75.494 Y74.222 E2.04473
G1 X75.587 Y74.290 E2.04970
G1 X75.746 Y74.458 E2.05963
G1 X75.857 Y74.661 E2.06957
G1 X75.893 Y74.771 E2.07454
G1 X75.922 Y75.000 E2.08447
G1 X75.914 Y75.115 E2.08945
G1 X75.857 Y75.339 E2.09938
G1 X75.746 Y75.542 E2.10931
G1 X75.587 Y75.710 E2.11925
G1 X75.494 Y75.778 E2.12422
G1 X75.392 Y75.834 E2.12920
G1 X75.173 Y75.905 E2.13913
G1 X75.058 Y75.920 E2.14411
G1 X74.827 Y75.905 E2.15404
G1 X74.608 Y75.834 E2.16397
G1 X74.506 Y75.778 E2.16895
G1 X74.413 Y75.710 E2.17392
G1 X74.254 Y75.542 E2.18386
G1 X74.143 Y75.339 E2.19379
G1 X74.107 Y75.229 E2.19876
G1 X74.086 Y75.115 E2.20374
G1 X74.086 Y74.884 E2.21367
G1 X74.107 Y74.771 E2.21865
G1 X74.192 Y74.556 E2.22858
G1 X74.328 Y74.369 E2.23851
G1 X74.458 Y74.257 E2.24587
G1 X74.261 Y73.835 F7800.000
G1 F600.000
G1 X74.574 Y73.688 E2.25729
G1 X74.741 Y73.645 E2.26301
G1 X74.913 Y73.623 E2.26873
G1 X75.259 Y73.645 E2.28015
G1 X75.587 Y73.752 E2.29157
G1 X75.739 Y73.835 E2.29729
G1 X75.879 Y73.937 E2.30301
G1 X76.116 Y74.189 E2.31442
G1 X76.283 Y74.492 E2.32584
G1 X76.369 Y74.827 E2.33726
G1 X76.380 Y75.000 E2.34298
G1 X76.336 Y75.343 E2.35440
G1 X76.283 Y75.508 E2.36012
G1 X76.116 Y75.811 E2.37154
G1 X75.879 Y76.063 E2.38295
G1 X75.739 Y76.165 E2.38867
G1 X75.426 Y76.312 E2.40009
G1 X75.259 Y76.355 E2.40581
G1 X75.087 Y76.377 E2.41153
G1 X74.741 Y76.355 E2.42295
G1 X74.574 Y76.312 E2.42867
G1 X74.261 Y76.165 E2.44009
G1 X74.121 Y76.063 E2.44581
G1 X73.884 Y75.811 E2.45723
G1 X73.717 Y75.508 E2.46864
G1 X73.664 Y75.343 E2.47436
G1 X73.620 Y75.000 E2.48578
G1 X73.631 Y74.827 E2.49150
G1 X73.664 Y74.657 E2.49722
G1 X73.791 Y74.335 E2.50864
G1 X73.994 Y74.056 E2.52006
G1 X74.212 Y73.870 E2.52950
