; generated by Slic3r 1.3.1-dev (Build 2d100c4) on 2020-05-22 at 13:21:33

; external perimeters extrusion width = 0.44mm (2.86mm^3/s)
; perimeters extrusion width = 0.56mm (4.14mm^3/s)
; infill extrusion width = 0.50mm (3.66mm^3/s)
; solid infill extrusion width = 0.56mm (3.10mm^3/s)
; top infill extrusion width = 0.56mm (3.10mm^3/s)

M107
G92 E0
;D3D:START:START
T0
M104 S215 T0

G21
G90
M107
T0
G28
G29
M109 T0 S215 T0
G0 F3000
M107
T0
G92 E0
G0 X0 Y149 Z0.1 F3600
G1 Y49 E6.5 F1200
G0 Z1
G92 E0
; Filament gcode

G21 ; set units to millimeters
G90 ; use absolute coordinates
M82 ; use absolute distances for extrusion
G92 E0
G1 Z0.300 F7800.000
G1 E-2.00000 F2400.00000
G92 E0
G1 X72.765 Y72.636 F7800.000
G1 E2.00000 F2400.00000
G1 F1800.000
G1 X73.097 Y72.362 E2.01426
G1 X73.257 Y72.253 E2.02067
G1 X73.803 Y71.976 E2.04095
G1 X74.191 Y71.850 E2.05448
G1 X74.603 Y71.771 E2.06838
G1 X75.204 Y71.754 E2.08830
G1 X75.798 Y71.846 E2.10822
G1 X76.208 Y71.979 E2.12248
G1 X76.385 Y72.056 E2.12889
G1 X76.912 Y72.369 E2.14917
G1 X77.364 Y72.765 E2.16909
G1 X77.741 Y73.248 E2.18938
G1 X78.021 Y73.792 E2.20966
G1 X78.150 Y74.191 E2.22355
G1 X78.229 Y74.603 E2.23745
G1 X78.246 Y75.204 E2.25737
G1 X78.154 Y75.798 E2.27729
G1 X78.021 Y76.208 E2.29155
G1 X77.944 Y76.385 E2.29796
G1 X77.631 Y76.912 E2.31824
G1 X77.235 Y77.364 E2.33816
G1 X76.752 Y77.741 E2.35845
G1 X76.208 Y78.021 E2.37873
G1 X75.620 Y78.193 E2.39902
G1 X75.204 Y78.246 E2.41291
G1 X74.796 Y78.246 E2.42644
G1 X74.202 Y78.154 E2.44637
G1 X73.792 Y78.021 E2.46062
G1 X73.615 Y77.944 E2.46703
G1 X73.088 Y77.631 E2.48732
G1 X72.636 Y77.235 E2.50724
G1 X72.362 Y76.903 E2.52150
G1 X72.253 Y76.743 E2.52790
G1 X71.976 Y76.197 E2.54819
G1 X71.850 Y75.809 E2.56172
G1 X71.771 Y75.397 E2.57561
G1 X71.754 Y74.796 E2.59553
G1 X71.846 Y74.202 E2.61546
G1 X71.979 Y73.792 E2.62971
G1 X72.056 Y73.615 E2.63612
G1 X72.369 Y73.088 E2.65641
G1 X72.723 Y72.679 E2.67435
G1 X72.586 Y72.439 F7800.000
G1 F1800.000
G1 X72.937 Y72.149 E2.68943
G1 X73.114 Y72.029 E2.69653
G1 X73.299 Y71.920 E2.70363
G1 X73.705 Y71.729 E2.71850
G1 X74.125 Y71.592 E2.73314
G1 X74.566 Y71.508 E2.74800
G1 X74.772 Y71.488 E2.75487
G1 X75.221 Y71.488 E2.76974
G1 X75.666 Y71.545 E2.78460
G1 X75.869 Y71.590 E2.79148
G1 X76.302 Y71.731 E2.80656
G1 X76.498 Y71.816 E2.81366
G1 X76.689 Y71.913 E2.82076
G1 X77.068 Y72.153 E2.83563
G1 X77.414 Y72.439 E2.85049
G1 X77.561 Y72.586 E2.85737
G1 X77.851 Y72.937 E2.87245
G1 X77.968 Y73.109 E2.87933
G1 X78.187 Y73.508 E2.89442
G1 X78.269 Y73.698 E2.90129
G1 X78.408 Y74.125 E2.91616
G1 X78.492 Y74.566 E2.93102
G1 X78.512 Y74.772 E2.93790
G1 X78.512 Y75.221 E2.95276
G1 X78.455 Y75.666 E2.96762
G1 X78.410 Y75.869 E2.97450
G1 X78.269 Y76.302 E2.98959
G1 X78.184 Y76.498 E2.99669
G1 X78.087 Y76.689 E3.00379
G1 X77.847 Y77.068 E3.01865
G1 X77.561 Y77.414 E3.03351
G1 X77.414 Y77.561 E3.04039
G1 X77.063 Y77.851 E3.05548
G1 X76.891 Y77.968 E3.06235
G1 X76.492 Y78.187 E3.07744
G1 X76.302 Y78.269 E3.08431
G1 X75.869 Y78.410 E3.09940
G1 X75.666 Y78.455 E3.10628
G1 X75.221 Y78.512 E3.12114
G1 X74.779 Y78.512 E3.13578
G1 X74.334 Y78.455 E3.15064
G1 X74.131 Y78.410 E3.15752
G1 X73.698 Y78.269 E3.17261
G1 X73.502 Y78.184 E3.17971
G1 X73.311 Y78.087 E3.18681
G1 X72.932 Y77.847 E3.20167
G1 X72.586 Y77.561 E3.21653
G1 X72.439 Y77.414 E3.22341
G1 X72.149 Y77.063 E3.23850
G1 X72.029 Y76.886 E3.24560
G1 X71.920 Y76.701 E3.25270
G1 X71.729 Y76.295 E3.26756
G1 X71.592 Y75.875 E3.28220
G1 X71.508 Y75.434 E3.29706
G1 X71.488 Y75.228 E3.30394
G1 X71.488 Y74.779 E3.31880
G1 X71.545 Y74.334 E3.33366
G1 X71.590 Y74.131 E3.34054
G1 X71.731 Y73.698 E3.35563
G1 X71.816 Y73.502 E3.36273
G1 X71.913 Y73.311 E3.36983
G1 X72.153 Y72.932 E3.38469
G1 X72.544 Y72.482 E3.40443
G1 X72.407 Y72.243 F7800.000
G1 F1800.000
G1 X72.777 Y71.936 E3.42034
G1 X72.972 Y71.804 E3.42814
G1 X73.174 Y71.685 E3.43593
G1 X73.607 Y71.481 E3.45176
G1 X74.059 Y71.334 E3.46750
G1 X74.528 Y71.245 E3.48334
G1 X74.760 Y71.223 E3.49104
G1 X75.238 Y71.223 E3.50687
G1 X75.712 Y71.283 E3.52271
G1 X75.939 Y71.333 E3.53041
G1 X76.396 Y71.482 E3.54633
G1 X76.612 Y71.575 E3.55412
G1 X76.821 Y71.682 E3.56191
G1 X77.225 Y71.938 E3.57774
G1 X77.593 Y72.243 E3.59358
G1 X77.757 Y72.407 E3.60128
G1 X78.064 Y72.777 E3.61720
G1 X78.194 Y72.970 E3.62491
G1 X78.426 Y73.391 E3.64082
G1 X78.518 Y73.604 E3.64853
G1 X78.666 Y74.059 E3.66436
G1 X78.755 Y74.528 E3.68019
G1 X78.777 Y74.760 E3.68790
G1 X78.777 Y75.238 E3.70373
G1 X78.717 Y75.712 E3.71956
G1 X78.667 Y75.939 E3.72727
G1 X78.518 Y76.396 E3.74319
G1 X78.425 Y76.612 E3.75098
G1 X78.318 Y76.821 E3.75877
G1 X78.062 Y77.225 E3.77460
G1 X77.757 Y77.593 E3.79043
G1 X77.593 Y77.757 E3.79814
G1 X77.223 Y78.064 E3.81406
G1 X77.030 Y78.194 E3.82176
G1 X76.609 Y78.426 E3.83768
G1 X76.396 Y78.518 E3.84539
G1 X75.939 Y78.667 E3.86130
G1 X75.712 Y78.717 E3.86901
G1 X75.238 Y78.777 E3.88484
G1 X74.762 Y78.777 E3.90059
G1 X74.288 Y78.717 E3.91642
G1 X74.061 Y78.667 E3.92412
G1 X73.604 Y78.518 E3.94004
G1 X73.388 Y78.425 E3.94783
G1 X73.179 Y78.318 E3.95562
G1 X72.775 Y78.062 E3.97146
G1 X72.407 Y77.757 E3.98729
G1 X72.243 Y77.593 E3.99499
G1 X71.936 Y77.223 E4.01091
G1 X71.804 Y77.028 E4.01870
G1 X71.685 Y76.826 E4.02650
G1 X71.481 Y76.393 E4.04233
G1 X71.334 Y75.941 E4.05807
G1 X71.245 Y75.472 E4.07391
G1 X71.223 Y75.240 E4.08161
G1 X71.223 Y74.762 E4.09744
G1 X71.283 Y74.288 E4.11327
G1 X71.333 Y74.061 E4.12098
G1 X71.482 Y73.604 E4.13690
G1 X71.575 Y73.388 E4.14469
G1 X71.682 Y73.179 E4.15248
G1 X71.938 Y72.775 E4.16831
G1 X72.365 Y72.285 E4.18984
G1 X73.055 Y72.723 F7800.000
G1 F1800.000
G1 X72.847 Y72.932 E4.19982
G1 X72.481 Y73.348 E4.21857
G1 X72.190 Y73.839 E4.23789
G1 X72.106 Y74.056 E4.24578
G1 X74.060 Y72.102 E4.33933
G1 X74.361 Y72.004 E4.35003
G1 X74.584 Y71.962 E4.35773
G1 X71.958 Y74.588 E4.48345
G1 X71.920 Y75.010 E4.49779
G1 X75.004 Y71.925 E4.64545
G1 X75.385 Y71.928 E4.65834
G1 X71.930 Y75.383 E4.82371
G1 X71.980 Y75.717 E4.83515
G1 X75.718 Y71.979 E5.01412
G1 X76.015 Y72.066 E5.02458
G1 X72.061 Y76.020 E5.21386
G1 X72.168 Y76.296 E5.22389
G1 X76.303 Y72.162 E5.42180
G1 X76.550 Y72.298 E5.43136
G1 X72.298 Y76.551 E5.63492
G1 X72.436 Y76.796 E5.64445
G1 X76.791 Y72.441 E5.85290
G1 X77.006 Y72.610 E5.86215
G1 X72.606 Y77.010 E6.07275
G1 X72.724 Y77.152 E6.07901
G1 X72.790 Y77.210 E6.08197
G1 X77.210 Y72.790 E6.29357
G1 X77.390 Y72.994 E6.30277
G1 X72.994 Y77.389 E6.51317
G1 X73.209 Y77.559 E6.52242
G1 X77.558 Y73.209 E6.73060
G1 X77.706 Y73.445 E6.74002
G1 X73.450 Y77.702 E6.94378
G1 X73.697 Y77.838 E6.95334
G1 X77.834 Y73.701 E7.15135
G1 X77.935 Y73.984 E7.16152
G1 X73.985 Y77.934 E7.35059
G1 X74.281 Y78.021 E7.36105
G1 X78.016 Y74.286 E7.53985
G1 X78.070 Y74.617 E7.55118
G1 X74.615 Y78.072 E7.71657
G1 X74.986 Y78.084 E7.72916
G1 X78.084 Y74.986 E7.87742
G1 X78.042 Y75.412 E7.89188
G1 X75.412 Y78.042 E8.01780
G1 X75.943 Y77.894 E8.03648
G1 X77.894 Y75.943 E8.12988
G1 X77.810 Y76.161 E8.13779
G1 X77.519 Y76.652 E8.15711
G1 X77.156 Y77.066 E8.17573
G1 X76.948 Y77.274 E8.18570
M106 S255
G1 Z0.500 F7800.000
G1 E6.18570 F2400.00000
G92 E0
G1 X72.752 Y72.622 F7800.000
G1 E2.00000 F2400.00000
G1 F1068.879
G1 X73.238 Y72.243 E2.02648
G1 X73.785 Y71.961 E2.05296
G1 X74.186 Y71.831 E2.07108
G1 X74.600 Y71.752 E2.08921
G1 X75.205 Y71.735 E2.11523
G1 X75.803 Y71.828 E2.14125
G1 X76.214 Y71.961 E2.15983
G1 X76.393 Y72.039 E2.16822
G1 X76.567 Y72.127 E2.17660
G1 X76.923 Y72.353 E2.19472
G1 X77.378 Y72.752 E2.22074
G1 X77.757 Y73.238 E2.24722
G1 X78.039 Y73.785 E2.27370
G1 X78.169 Y74.186 E2.29183
G1 X78.248 Y74.600 E2.30995
G1 X78.265 Y75.205 E2.33597
G1 X78.172 Y75.803 E2.36199
G1 X78.039 Y76.214 E2.38058
G1 X77.961 Y76.393 E2.38896
G1 X77.873 Y76.567 E2.39734
G1 X77.647 Y76.923 E2.41546
G1 X77.248 Y77.378 E2.44148
G1 X76.762 Y77.757 E2.46796
G1 X76.214 Y78.039 E2.49445
G1 X75.814 Y78.169 E2.51257
G1 X75.400 Y78.248 E2.53069
G1 X74.795 Y78.265 E2.55671
G1 X74.197 Y78.172 E2.58274
G1 X73.785 Y78.039 E2.60132
G1 X73.607 Y77.961 E2.60970
G1 X73.433 Y77.873 E2.61808
G1 X73.077 Y77.647 E2.63620
G1 X72.622 Y77.248 E2.66223
G1 X72.243 Y76.762 E2.68871
G1 X71.961 Y76.214 E2.71519
G1 X71.788 Y75.624 E2.74167
G1 X71.735 Y75.205 E2.75979
G1 X71.735 Y74.795 E2.77746
G1 X71.828 Y74.197 E2.80348
G1 X71.961 Y73.785 E2.82206
G1 X72.039 Y73.607 E2.83044
G1 X72.127 Y73.433 E2.83882
G1 X72.353 Y73.077 E2.85695
G1 X72.710 Y72.664 E2.88040
G1 X72.444 Y72.283 F7800.000
G1 F1800.000
G1 X72.810 Y71.981 E2.89609
G1 X72.999 Y71.853 E2.90360
G1 X73.415 Y71.624 E2.91929
G1 X73.624 Y71.533 E2.92680
G1 X74.072 Y71.388 E2.94238
G1 X74.536 Y71.299 E2.95795
G1 X74.762 Y71.278 E2.96546
G1 X75.234 Y71.278 E2.98104
G1 X75.702 Y71.337 E2.99662
G1 X75.924 Y71.387 E3.00413
G1 X76.376 Y71.533 E3.01982
G1 X76.588 Y71.625 E3.02744
G1 X76.794 Y71.730 E3.03506
G1 X77.192 Y71.983 E3.05064
G1 X77.556 Y72.283 E3.06622
G1 X77.717 Y72.444 E3.07373
G1 X78.019 Y72.810 E3.08942
G1 X78.147 Y72.999 E3.09693
G1 X78.376 Y73.415 E3.11262
G1 X78.467 Y73.624 E3.12013
G1 X78.612 Y74.072 E3.13571
G1 X78.701 Y74.536 E3.15129
G1 X78.722 Y74.762 E3.15880
G1 X78.722 Y75.234 E3.17438
G1 X78.663 Y75.702 E3.18995
G1 X78.613 Y75.924 E3.19746
G1 X78.467 Y76.376 E3.21315
G1 X78.375 Y76.588 E3.22078
G1 X78.270 Y76.794 E3.22840
G1 X78.017 Y77.192 E3.24398
G1 X77.717 Y77.556 E3.25956
G1 X77.556 Y77.717 E3.26706
G1 X77.190 Y78.019 E3.28276
G1 X77.001 Y78.147 E3.29027
G1 X76.585 Y78.376 E3.30596
G1 X76.376 Y78.467 E3.31347
G1 X75.928 Y78.612 E3.32904
G1 X75.464 Y78.701 E3.34462
G1 X75.238 Y78.722 E3.35213
G1 X74.766 Y78.722 E3.36771
G1 X74.298 Y78.663 E3.38329
G1 X74.076 Y78.613 E3.39080
G1 X73.624 Y78.467 E3.40649
G1 X73.412 Y78.375 E3.41411
G1 X73.206 Y78.270 E3.42173
G1 X72.808 Y78.017 E3.43731
G1 X72.444 Y77.717 E3.45289
G1 X72.283 Y77.556 E3.46040
G1 X71.981 Y77.190 E3.47609
G1 X71.853 Y77.001 E3.48360
G1 X71.624 Y76.585 E3.49929
G1 X71.533 Y76.376 E3.50680
G1 X71.387 Y75.924 E3.52249
G1 X71.337 Y75.702 E3.53000
G1 X71.278 Y75.234 E3.54558
G1 X71.278 Y74.766 E3.56104
G1 X71.337 Y74.298 E3.57662
G1 X71.387 Y74.076 E3.58413
G1 X71.533 Y73.624 E3.59982
G1 X71.625 Y73.412 E3.60745
G1 X71.730 Y73.206 E3.61507
G1 X71.983 Y72.808 E3.63065
G1 X72.402 Y72.326 E3.65173
G1 E1.65173 F2400.00000
G92 E0
G1 X76.800 Y72.908 F7800.000
G1 E2.00000 F2400.00000
G1 F1068.879
G1 X77.202 Y73.311 E2.02603
G1 X77.913 Y74.799 F7800.000
G1 F1068.879
G1 X75.192 Y72.079 E2.20210
G1 X74.972 Y72.051 E2.21225
G1 X74.624 Y72.051 E2.22816
G1 X74.419 Y72.084 E2.23768
G1 X77.922 Y75.587 E2.46440
G1 X77.906 Y75.719 E2.47046
G1 X77.762 Y76.206 E2.49370
G1 X73.801 Y72.245 E2.75004
G1 X73.628 Y72.307 E2.75846
G1 X73.283 Y72.505 E2.77666
G1 X77.494 Y76.716 E3.04918
G1 X77.433 Y76.813 E3.05445
G1 X77.143 Y77.143 E3.07454
G1 X72.857 Y72.857 E3.35196
G1 X72.567 Y73.187 E3.37205
G1 X72.506 Y73.284 E3.37731
G1 X76.717 Y77.495 E3.64984
G1 X76.372 Y77.693 E3.66804
G1 X76.199 Y77.755 E3.67646
G1 X72.238 Y73.794 E3.93280
G1 X72.094 Y74.281 E3.95604
G1 X72.078 Y74.413 E3.96210
G1 X75.581 Y77.916 E4.18882
G1 X75.376 Y77.949 E4.19834
G1 X75.028 Y77.949 E4.21425
G1 X74.808 Y77.921 E4.22440
G1 X72.079 Y75.192 E4.40104
G1 X72.094 Y75.316 E4.40679
G1 X72.243 Y75.821 E4.43084
G1 X72.479 Y76.282 E4.45455
G1 X72.798 Y76.689 E4.47822
G1 X73.200 Y77.092 E4.50425
G1 Z0.700 F7800.000
G1 E2.50425 F2400.00000
G92 E0
G1 X72.752 Y72.622 F7800.000
G1 E2.00000 F2400.00000
G1 F1097.896
G1 X73.238 Y72.243 E2.02648
G1 X73.785 Y71.961 E2.05296
G1 X74.186 Y71.831 E2.07108
G1 X74.600 Y71.752 E2.08921
G1 X75.205 Y71.735 E2.11523
G1 X75.803 Y71.828 E2.14125
G1 X76.214 Y71.961 E2.15983
G1 X76.393 Y72.039 E2.16822
G1 X76.567 Y72.127 E2.17660
G1 X76.923 Y72.353 E2.19472
G1 X77.378 Y72.752 E2.22074
G1 X77.757 Y73.238 E2.24722
G1 X78.039 Y73.785 E2.27370
G1 X78.169 Y74.186 E2.29183
G1 X78.248 Y74.600 E2.30995
G1 X78.265 Y75.205 E2.33597
G1 X78.172 Y75.803 E2.36199
G1 X78.039 Y76.214 E2.38058
G1 X77.961 Y76.393 E2.38896
G1 X77.873 Y76.567 E2.39734
G1 X77.647 Y76.923 E2.41546
G1 X77.248 Y77.378 E2.44148
G1 X76.762 Y77.757 E2.46796
G1 X76.214 Y78.039 E2.49445
G1 X75.624 Y78.212 E2.52093
G1 X75.205 Y78.265 E2.53905
G1 X74.795 Y78.265 E2.55671
G1 X74.197 Y78.172 E2.58274
G1 X73.785 Y78.039 E2.60132
G1 X73.607 Y77.961 E2.60970
G1 X73.433 Y77.873 E2.61808
G1 X73.077 Y77.647 E2.63620
G1 X72.622 Y77.248 E2.66223
G1 X72.346 Y76.915 E2.68081
G1 X72.237 Y76.754 E2.68919
G1 X72.138 Y76.586 E2.69757
G1 X71.958 Y76.204 E2.71569
G1 X71.831 Y75.814 E2.73336
G1 X71.752 Y75.400 E2.75148
G1 X71.735 Y74.795 E2.77750
G1 X71.828 Y74.197 E2.80353
G1 X71.961 Y73.785 E2.82211
G1 X72.039 Y73.607 E2.83049
G1 X72.127 Y73.433 E2.83887
G1 X72.353 Y73.077 E2.85699
G1 X72.710 Y72.664 E2.88044
G1 X72.444 Y72.283 F7800.000
G1 F1800.000
G1 X72.810 Y71.981 E2.89614
G1 X72.999 Y71.853 E2.90364
G1 X73.415 Y71.624 E2.91934
G1 X73.624 Y71.533 E2.92685
G1 X74.072 Y71.388 E2.94242
G1 X74.536 Y71.299 E2.95800
G1 X74.762 Y71.278 E2.96551
G1 X75.234 Y71.278 E2.98109
G1 X75.702 Y71.337 E2.99667
G1 X75.924 Y71.387 E3.00418
G1 X76.376 Y71.533 E3.01987
G1 X76.588 Y71.625 E3.02749
G1 X76.794 Y71.730 E3.03511
G1 X77.192 Y71.983 E3.05069
G1 X77.556 Y72.283 E3.06627
G1 X77.717 Y72.444 E3.07378
G1 X78.019 Y72.810 E3.08947
G1 X78.147 Y72.999 E3.09698
G1 X78.376 Y73.415 E3.11267
G1 X78.467 Y73.624 E3.12018
G1 X78.612 Y74.072 E3.13576
G1 X78.701 Y74.536 E3.15134
G1 X78.722 Y74.762 E3.15884
G1 X78.722 Y75.234 E3.17442
G1 X78.663 Y75.702 E3.19000
G1 X78.613 Y75.924 E3.19751
G1 X78.467 Y76.376 E3.21320
G1 X78.375 Y76.588 E3.22082
G1 X78.270 Y76.794 E3.22845
G1 X78.017 Y77.192 E3.24403
G1 X77.717 Y77.556 E3.25960
G1 X77.556 Y77.717 E3.26711
G1 X77.190 Y78.019 E3.28281
G1 X77.001 Y78.147 E3.29031
G1 X76.585 Y78.376 E3.30601
G1 X76.376 Y78.467 E3.31351
G1 X75.924 Y78.613 E3.32921
G1 X75.702 Y78.663 E3.33672
G1 X75.234 Y78.722 E3.35229
G1 X74.766 Y78.722 E3.36776
G1 X74.298 Y78.663 E3.38334
G1 X74.076 Y78.613 E3.39084
G1 X73.624 Y78.467 E3.40654
G1 X73.412 Y78.375 E3.41416
G1 X73.206 Y78.270 E3.42178
G1 X72.808 Y78.017 E3.43736
G1 X72.444 Y77.717 E3.45294
G1 X72.283 Y77.556 E3.46045
G1 X71.981 Y77.190 E3.47614
G1 X71.851 Y76.999 E3.48376
G1 X71.733 Y76.800 E3.49138
G1 X71.532 Y76.373 E3.50696
G1 X71.388 Y75.928 E3.52243
G1 X71.299 Y75.464 E3.53801
G1 X71.278 Y75.238 E3.54551
G1 X71.278 Y74.766 E3.56109
G1 X71.337 Y74.298 E3.57667
G1 X71.387 Y74.076 E3.58418
G1 X71.533 Y73.624 E3.59987
G1 X71.625 Y73.412 E3.60749
G1 X71.730 Y73.206 E3.61512
G1 X71.983 Y72.808 E3.63069
G1 X72.402 Y72.326 E3.65178
G1 X73.311 Y72.798 F7800.000
G1 F1097.896
G1 X72.907 Y73.202 E3.67792
G1 X72.567 Y73.589 E3.70149
G1 X72.376 Y73.890 E3.71783
G1 X72.247 Y74.163 E3.73161
G1 X72.094 Y74.683 E3.75645
G1 X72.079 Y74.808 E3.76219
G1 X74.799 Y72.087 E3.93827
G1 X75.026 Y72.051 E3.94879
G1 X75.374 Y72.051 E3.96470
G1 X75.587 Y72.078 E3.97454
G1 X72.075 Y75.590 E4.20182
G1 X72.132 Y75.886 E4.21561
G1 X72.236 Y76.207 E4.23107
G1 X76.206 Y72.238 E4.48796
G1 X76.512 Y72.376 E4.50333
G1 X76.716 Y72.506 E4.51440
G1 X72.502 Y76.720 E4.78715
G1 X72.559 Y76.805 E4.79185
G1 X72.857 Y77.143 E4.81246
G1 X77.143 Y72.857 E5.08988
G1 X77.495 Y73.283 E5.11518
G1 X73.284 Y77.494 E5.38771
G1 X73.488 Y77.624 E5.39878
G1 X73.794 Y77.762 E5.41415
G1 X77.755 Y73.801 E5.67049
G1 X77.867 Y74.114 E5.68570
G1 X77.916 Y74.419 E5.69981
G1 X74.413 Y77.922 E5.92654
G1 X74.626 Y77.949 E5.93638
G1 X74.972 Y77.949 E5.95220
G1 X75.192 Y77.921 E5.96235
G1 X77.921 Y75.192 E6.13900
G1 X77.906 Y75.316 E6.14474
G1 X77.753 Y75.837 E6.16958
G1 X77.624 Y76.110 E6.18336
G1 X77.433 Y76.411 E6.19970
G1 X77.093 Y76.798 E6.22327
G1 X76.689 Y77.202 E6.24941
G1 Z0.900 F7800.000
G1 E4.24941 F2400.00000
G92 E0
G1 X72.752 Y72.622 F7800.000
G1 E2.00000 F2400.00000
G1 F1069.589
G1 X73.085 Y72.346 E2.01858
G1 X73.246 Y72.237 E2.02696
G1 X73.414 Y72.138 E2.03534
G1 X73.796 Y71.958 E2.05347
G1 X74.186 Y71.831 E2.07113
G1 X74.600 Y71.752 E2.08926
G1 X75.205 Y71.735 E2.11528
G1 X75.803 Y71.828 E2.14130
G1 X76.214 Y71.961 E2.15988
G1 X76.393 Y72.039 E2.16826
G1 X76.567 Y72.127 E2.17664
