; generated by Slic3r 1.3.0 on 2020-07-29 at 17:51:58

; external perimeters extrusion width = 0.44mm (2.86mm^3/s)
; perimeters extrusion width = 0.56mm (4.14mm^3/s)
; infill extrusion width = 0.50mm (3.66mm^3/s)
; solid infill extrusion width = 0.56mm (3.10mm^3/s)
; top infill extrusion width = 0.56mm (3.10mm^3/s)

M107
;D3D:START:START
T0
M104 S215 T0

G21
G90
M107
T0
G28
G29
M109 T0 S215 T0
G0 F3000
M107
T0
G92 E0
G0 X0 Y149 Z0.1 F3600
G1 Y49 E6.5 F1200
G0 Z1
G92 E0
; Filament gcode

G21 ; set units to millimeters
G90 ; use absolute coordinates
M82 ; use absolute distances for extrusion
G92 E0
G1 Z0.300 F7800.000
G1 E-2.00000 F2400.00000
G92 E0
G1 X68.685 Y65.769 F7800.000
G1 E2.00000 F2400.00000
G1 F1800
G1 X68.685 Y96.846 E3.02957
G1 X68.098 Y96.676 E3.04982
G1 X66.778 Y96.201 E3.09631
G1 X65.490 Y95.643 E3.14279
G1 X64.240 Y95.006 E3.18928
G1 X63.032 Y94.292 E3.23576
G1 X61.872 Y93.503 E3.28224
G1 X60.763 Y92.643 E3.32873
G1 X59.711 Y91.715 E3.37521
G1 X58.719 Y90.723 E3.42170
G1 X57.791 Y89.671 E3.46818
G1 X56.931 Y88.562 E3.51467
G1 X56.142 Y87.402 E3.56115
G1 X55.428 Y86.194 E3.60763
G1 X54.791 Y84.944 E3.65412
G1 X54.233 Y83.656 E3.70060
G1 X53.758 Y82.336 E3.74709
G1 X53.367 Y80.988 E3.79357
G1 X53.061 Y79.619 E3.84005
G1 X52.835 Y78.163 E3.88887
G1 X52.709 Y76.836 E3.93302
G1 X52.665 Y75.434 E3.97951
G1 X52.709 Y74.032 E4.02599
G1 X52.835 Y72.705 E4.07014
G1 X53.061 Y71.249 E4.11896
G1 X53.367 Y69.880 E4.16544
G1 X53.758 Y68.532 E4.21192
G1 X54.233 Y67.212 E4.25841
G1 X54.791 Y65.924 E4.30489
G1 X55.428 Y64.674 E4.35138
G1 X56.142 Y63.466 E4.39786
G1 X56.931 Y62.306 E4.44435
G1 X57.791 Y61.197 E4.49083
G1 X58.719 Y60.145 E4.53732
G1 X59.711 Y59.153 E4.58380
G1 X60.763 Y58.225 E4.63029
G1 X61.872 Y57.365 E4.67677
G1 X63.032 Y56.576 E4.72325
G1 X64.240 Y55.862 E4.76974
G1 X65.490 Y55.225 E4.81622
G1 X66.778 Y54.667 E4.86271
G1 X68.098 Y54.192 E4.90919
G1 X69.446 Y53.801 E4.95568
G1 X70.815 Y53.495 E5.00216
G1 X72.201 Y53.275 E5.04865
G1 X73.598 Y53.143 E5.09513
G1 X75.000 Y53.099 E5.14161
G1 X76.332 Y53.141 E5.18577
G1 X77.800 Y53.275 E5.23459
G1 X79.185 Y53.495 E5.28106
G1 X80.554 Y53.801 E5.32755
G1 X81.902 Y54.192 E5.37403
G1 X83.222 Y54.667 E5.42052
G1 X84.510 Y55.225 E5.46700
G1 X85.760 Y55.862 E5.51349
G1 X86.968 Y56.576 E5.55997
G1 X88.128 Y57.365 E5.60646
G1 X89.237 Y58.225 E5.65294
G1 X90.289 Y59.153 E5.69942
G1 X91.281 Y60.145 E5.74591
G1 X92.209 Y61.197 E5.79239
G1 X93.069 Y62.306 E5.83888
G1 X93.858 Y63.466 E5.88536
G1 X94.572 Y64.674 E5.93185
G1 X95.209 Y65.924 E5.97833
G1 X95.767 Y67.212 E6.02482
G1 X96.242 Y68.532 E6.07130
G1 X96.633 Y69.880 E6.11778
G1 X96.939 Y71.249 E6.16427
G1 X97.159 Y72.635 E6.21075
G1 X97.291 Y74.032 E6.25724
G1 X97.335 Y75.434 E6.30372
G1 X97.291 Y76.836 E6.35021
G1 X97.159 Y78.233 E6.39669
G1 X96.939 Y79.619 E6.44318
G1 X96.633 Y80.988 E6.48966
G1 X96.242 Y82.336 E6.53614
G1 X95.767 Y83.656 E6.58263
G1 X95.209 Y84.944 E6.62911
G1 X94.572 Y86.194 E6.67560
G1 X93.858 Y87.402 E6.72208
G1 X93.069 Y88.562 E6.76857
G1 X92.209 Y89.671 E6.81505
G1 X91.281 Y90.723 E6.86154
G1 X90.289 Y91.715 E6.90802
G1 X89.237 Y92.643 E6.95451
G1 X88.128 Y93.503 E7.00099
G1 X86.968 Y94.292 E7.04747
G1 X85.760 Y95.006 E7.09396
G1 X84.510 Y95.643 E7.14044
G1 X83.222 Y96.201 E7.18693
G1 X81.902 Y96.676 E7.23341
G1 X81.315 Y96.846 E7.25366
G1 X81.315 Y65.769 E8.28323
G1 X68.745 Y65.769 E8.69967
G1 E6.69967 F2400.00000
G92 E0
G1 X59.998 Y59.241 F7800.000
G1 E2.00000 F2400.00000
G1 F1800
G1 X58.807 Y60.432 E2.05582
G1 X57.892 Y61.470 E2.10169
G1 X57.027 Y62.588 E2.14855
G1 X62.154 Y57.461 E2.38890
G1 X63.316 Y56.674 E2.43542
G1 X56.240 Y63.750 E2.76713
G1 X55.696 Y64.670 E2.80255
G1 X64.236 Y56.130 E3.20288
G1 X65.042 Y55.701 E3.23314
G1 X55.267 Y65.476 E3.69137
G1 X54.890 Y66.228 E3.71927
G1 X65.794 Y55.324 E4.23043
G1 X66.457 Y55.037 E4.25436
G1 X54.603 Y66.891 E4.81003
G1 X54.332 Y67.538 E4.83327
G1 X67.104 Y54.766 E5.43194
G1 X67.691 Y54.555 E5.45263
G1 X54.121 Y68.125 E6.08874
G1 X53.910 Y68.712 E6.10943
G1 X68.278 Y54.344 E6.78299
G1 X68.808 Y54.189 E6.80129
G1 X53.755 Y69.242 E7.50694
G1 X53.601 Y69.772 E7.52523
G1 X69.338 Y54.035 E8.26292
G1 X69.846 Y53.903 E8.28032
G1 X53.469 Y70.280 E9.04802
G1 X53.361 Y70.764 E9.06446
G1 X70.330 Y53.795 E9.85992
G1 X70.814 Y53.687 E9.87636
G1 X53.253 Y71.248 E10.69959
G1 X53.171 Y71.705 E10.71499
G1 X71.273 Y53.604 E11.56353
G1 X71.719 Y53.533 E11.57851
G1 X53.102 Y72.150 E12.45123
G1 X53.033 Y72.595 E12.46615
G1 X72.166 Y53.463 E13.36304
G1 X72.593 Y53.411 E13.37730
G1 X52.977 Y73.027 E14.29682
G1 X52.938 Y73.442 E14.31064
G1 X73.008 Y53.372 E15.25146
G1 X73.423 Y53.333 E15.26528
G1 X52.899 Y73.857 E16.22739
G1 X52.868 Y74.264 E16.24093
G1 X73.830 Y53.302 E17.22361
G1 X74.218 Y53.289 E17.23648
G1 X52.855 Y74.652 E18.23791
G1 X52.843 Y75.040 E18.25078
G1 X74.606 Y53.277 E19.27098
G1 X74.994 Y53.265 E19.28385
G1 X52.831 Y75.428 E20.32281
G1 X52.836 Y75.799 E20.33511
G1 X75.365 Y53.270 E21.39124
G1 X75.730 Y53.281 E21.40332
G1 X52.847 Y76.164 E22.47599
G1 X52.859 Y76.528 E22.48808
G1 X76.094 Y53.293 E23.57729
G1 X76.456 Y53.306 E23.58931
G1 X52.870 Y76.893 E24.69497
G1 X52.901 Y77.238 E24.70646
G1 X76.801 Y53.338 E25.82682
G1 X77.145 Y53.369 E25.83828
G1 X52.933 Y77.581 E26.97326
G1 X52.966 Y77.925 E26.98469
G1 X77.489 Y53.401 E28.13430
G1 X77.834 Y53.432 E28.14576
G1 X53.000 Y78.266 E29.30990
G1 X53.050 Y78.591 E29.32081
G1 X78.160 Y53.482 E30.49789
G1 X78.485 Y53.533 E30.50878
G1 X53.101 Y78.917 E31.69869
G1 X53.152 Y79.242 E31.70961
G1 X78.809 Y53.584 E32.91237
G1 X79.134 Y53.636 E32.92326
G1 X53.202 Y79.567 E34.13886
G1 X53.265 Y79.880 E34.14944
G1 X79.446 Y53.699 E35.37676
G1 X79.754 Y53.768 E35.38719
G1 X53.334 Y80.188 E36.62569
G1 X53.402 Y80.495 E36.63613
G1 X80.061 Y53.836 E37.88581
G1 X80.368 Y53.905 E37.89624
G1 X68.666 Y65.607 E38.44479
G1 X69.042 Y65.607 E38.45725
G1 X80.671 Y53.978 E39.00238
G1 X80.962 Y54.062 E39.01243
G1 X69.418 Y65.607 E39.55359
G1 X69.794 Y65.607 E39.56605
G1 X81.253 Y54.147 E40.10325
G1 X81.545 Y54.232 E40.11330
G1 X70.169 Y65.607 E40.64653
G1 X70.545 Y65.607 E40.65899
G1 X81.836 Y54.316 E41.18825
G1 X82.117 Y54.411 E41.19808
G1 X70.921 Y65.607 E41.72289
G1 X71.297 Y65.607 E41.73535
G1 X82.393 Y54.511 E42.25549
G1 X82.669 Y54.610 E42.26523
G1 X71.673 Y65.607 E42.78071
G1 X72.049 Y65.607 E42.79317
G1 X82.946 Y54.710 E43.30398
G1 X83.222 Y54.809 E43.31372
G1 X72.425 Y65.607 E43.81987
G1 X72.800 Y65.607 E43.83233
G1 X83.485 Y54.923 E44.33318
G1 X83.747 Y55.036 E44.34265
G1 X73.176 Y65.607 E44.83818
G1 X73.552 Y65.607 E44.85063
G1 X84.009 Y55.150 E45.34084
G1 X84.272 Y55.263 E45.35031
G1 X73.928 Y65.607 E45.83519
G1 X74.304 Y65.607 E45.84765
G1 X84.532 Y55.378 E46.32713
G1 X84.781 Y55.505 E46.33639
G1 X74.680 Y65.607 E46.80992
G1 X75.055 Y65.607 E46.82238
G1 X85.030 Y55.632 E47.28996
G1 X85.279 Y55.759 E47.29923
G1 X75.431 Y65.607 E47.76086
G1 X75.807 Y65.607 E47.77332
G1 X85.528 Y55.886 E48.22901
G1 X85.775 Y56.015 E48.23824
G1 X76.183 Y65.607 E48.68789
G1 X76.559 Y65.607 E48.70034
G1 X86.011 Y56.154 E49.14344
G1 X86.247 Y56.294 E49.15254
G1 X76.935 Y65.607 E49.58908
G1 X77.310 Y65.607 E49.60154
G1 X86.483 Y56.434 E50.03154
G1 X86.720 Y56.573 E50.04064
G1 X77.686 Y65.607 E50.46409
G1 X78.062 Y65.607 E50.47655
G1 X86.954 Y56.715 E50.89339
G1 X87.178 Y56.867 E50.90236
G1 X78.438 Y65.607 E51.31207
G1 X78.814 Y65.607 E51.32453
G1 X87.402 Y57.019 E51.72711
G1 X87.626 Y57.171 E51.73607
G1 X79.190 Y65.607 E52.13153
G1 X79.566 Y65.607 E52.14399
G1 X87.849 Y57.323 E52.53231
G1 X88.073 Y57.475 E52.54128
G1 X79.941 Y65.607 E52.92247
G1 X80.317 Y65.607 E52.93493
G1 X88.285 Y57.639 E53.30844
G1 X88.497 Y57.803 E53.31732
G1 X80.693 Y65.607 E53.68312
G1 X81.069 Y65.607 E53.69558
G1 X88.708 Y57.967 E54.05369
G1 X88.920 Y58.132 E54.06257
G1 X81.445 Y65.607 E54.41298
G1 X81.477 Y65.607 E54.41406
G1 X81.477 Y65.950 E54.42544
G1 X89.132 Y58.296 E54.78425
G1 X89.333 Y58.470 E54.79308
G1 X81.477 Y66.326 E55.16136
G1 X81.477 Y66.702 E55.17382
G1 X89.533 Y58.646 E55.55146
G1 X89.733 Y58.822 E55.56029
G1 X81.477 Y67.078 E55.94729
G1 X81.477 Y67.453 E55.95975
G1 X89.933 Y58.998 E56.35612
G1 X90.132 Y59.174 E56.36494
G1 X81.477 Y67.829 E56.77067
G1 X81.477 Y68.205 E56.78313
G1 X90.325 Y59.357 E57.19789
G1 X90.513 Y59.545 E57.20670
G1 X81.477 Y68.581 E57.63027
G1 X81.477 Y68.957 E57.64272
G1 X90.701 Y59.733 E58.07510
G1 X90.889 Y59.921 E58.08391
G1 X81.477 Y69.333 E58.52509
G1 X81.477 Y69.708 E58.53755
G1 X91.077 Y60.109 E58.98755
G1 X91.191 Y60.223 E58.99291
G1 X91.260 Y60.302 E58.99636
G1 X81.477 Y70.084 E59.45495
G1 X81.477 Y70.460 E59.46741
G1 X91.436 Y60.501 E59.93425
G1 X91.612 Y60.701 E59.94308
G1 X81.477 Y70.836 E60.41817
G1 X81.477 Y71.212 E60.43063
G1 X91.788 Y60.901 E60.91398
G1 X91.964 Y61.101 E60.92281
G1 X81.477 Y71.588 E61.41441
G1 X81.477 Y71.963 E61.42687
G1 X92.138 Y61.303 E61.92663
G1 X92.302 Y61.514 E61.93551
G1 X81.477 Y72.339 E62.44296
G1 X81.477 Y72.715 E62.45542
G1 X92.467 Y61.726 E62.97057
G1 X92.631 Y61.937 E62.97945
G1 X81.477 Y73.091 E63.50230
G1 X81.477 Y73.467 E63.51475
G1 X92.795 Y62.149 E64.04530
G1 X92.959 Y62.361 E64.05418
G1 X81.477 Y73.843 E64.59242
G1 X81.477 Y74.219 E64.60487
G1 X93.111 Y62.585 E65.15024
G1 X93.263 Y62.808 E65.15921
G1 X81.477 Y74.594 E65.71170
G1 X81.477 Y74.970 E65.72416
G1 X93.415 Y63.032 E66.28378
G1 X93.567 Y63.256 E66.29275
G1 X81.477 Y75.346 E66.85950
G1 X81.477 Y75.722 E66.87196
G1 X93.719 Y63.480 E67.44584
G1 X93.861 Y63.714 E67.45491
G1 X81.477 Y76.098 E68.03541
G1 X81.477 Y76.474 E68.04787
G1 X94.000 Y63.951 E68.63491
G1 X94.140 Y64.187 E68.64400
G1 X81.477 Y76.849 E69.23759
G1 X81.477 Y77.225 E69.25005
G1 X94.280 Y64.423 E69.85018
G1 X94.419 Y64.659 E69.85928
G1 X81.477 Y77.601 E70.46596
G1 X81.477 Y77.977 E70.47842
G1 X94.548 Y64.906 E71.09115
G1 X94.675 Y65.155 E71.10041
G1 X81.477 Y78.353 E71.71909
G1 X81.477 Y78.729 E71.73155
G1 X94.802 Y65.404 E72.35617
G1 X94.929 Y65.653 E72.36544
G1 X81.477 Y79.105 E72.99601
G1 X81.477 Y79.480 E73.00846
G1 X95.056 Y65.902 E73.64498
G1 X95.171 Y66.163 E73.65443
G1 X81.477 Y79.856 E74.29635
G1 X81.477 Y80.232 E74.30880
G1 X95.284 Y66.425 E74.95605
G1 X95.398 Y66.687 E74.96552
G1 X81.477 Y80.608 E75.61808
G1 X81.477 Y80.984 E75.63054
G1 X95.512 Y66.949 E76.28843
G1 X95.625 Y67.212 E76.29791
G1 X81.477 Y81.360 E76.96110
G1 X81.477 Y81.735 E76.97356
G1 X95.724 Y67.488 E77.64142
G1 X95.824 Y67.765 E77.65115
G1 X81.477 Y82.111 E78.32367
G1 X81.477 Y82.487 E78.33613
G1 X95.923 Y68.041 E79.01331
G1 X96.023 Y68.318 E79.02305
G1 X81.477 Y82.863 E79.70490
G1 X81.477 Y83.239 E79.71736
G1 X96.118 Y68.598 E80.40366
G1 X96.202 Y68.890 E80.41371
G1 X81.477 Y83.615 E81.10398
G1 X81.477 Y83.990 E81.11644
G1 X96.287 Y69.181 E81.81068
G1 X96.372 Y69.472 E81.82073
G1 X81.477 Y84.366 E82.51893
G1 X81.477 Y84.742 E82.53139
G1 X96.456 Y69.763 E83.23356
G1 X96.529 Y70.066 E83.24388
G1 X81.477 Y85.118 E83.94947
G1 X81.477 Y85.494 E83.96193
G1 X96.598 Y70.373 E84.67074
G1 X96.667 Y70.680 E84.68117
G1 X81.477 Y85.870 E85.39320
G1 X81.477 Y86.246 E85.40566
G1 X96.735 Y70.988 E86.12090
G1 X96.798 Y71.300 E86.13148
G1 X81.477 Y86.621 E86.84968
G1 X81.477 Y86.997 E86.86214
G1 X96.850 Y71.625 E87.58275
G1 X96.901 Y71.949 E87.59364
G1 X81.477 Y87.373 E88.31666
G1 X81.477 Y87.749 E88.32912
G1 X96.952 Y72.274 E89.05455
G1 X97.002 Y72.600 E89.06549
G1 X81.477 Y88.125 E89.79324
G1 X81.477 Y88.501 E89.80570
G1 X97.034 Y72.944 E90.53496
G1 X97.067 Y73.287 E90.54640
G1 X81.477 Y88.876 E91.27719
G1 X81.477 Y89.252 E91.28965
G1 X97.099 Y73.630 E92.02196
G1 X97.130 Y73.976 E92.03344
G1 X81.477 Y89.628 E92.76719
G1 X81.477 Y90.004 E92.77965
G1 X97.141 Y74.340 E93.51394
G1 X97.153 Y74.704 E93.52602
G1 X81.477 Y90.380 E94.26084
G1 X81.477 Y90.756 E94.27330
G1 X97.164 Y75.069 E95.00866
G1 X97.169 Y75.440 E95.02096
G1 X81.477 Y91.131 E95.75655
G1 X81.477 Y91.507 E95.76901
G1 X97.157 Y75.828 E96.50402
G1 X97.145 Y76.216 E96.51689
G1 X81.477 Y91.883 E97.25133
G1 X81.477 Y92.259 E97.26379
G1 X97.132 Y76.604 E97.99766
G1 X97.101 Y77.011 E98.01120
G1 X81.477 Y92.635 E98.74360
G1 X81.477 Y93.011 E98.75606
G1 X97.062 Y77.426 E99.48662
G1 X97.023 Y77.841 E99.50044
G1 X81.477 Y93.387 E100.22916
G1 X81.477 Y93.762 E100.24162
G1 X96.971 Y78.268 E100.96793
G1 X96.901 Y78.715 E100.98292
G1 X81.477 Y94.138 E101.70592
G1 X81.477 Y94.514 E101.71837
G1 X96.830 Y79.162 E102.43806
G1 X96.747 Y79.620 E102.45350
G1 X81.477 Y94.890 E103.16931
G1 X81.477 Y95.266 E103.18177
G1 X96.639 Y80.104 E103.89251
G1 X96.531 Y80.588 E103.90895
G1 X81.477 Y95.642 E104.61461
G1 X81.477 Y96.017 E104.62707
G1 X96.399 Y81.096 E105.32654
G1 X96.245 Y81.626 E105.34483
G1 X81.477 Y96.393 E106.03708
G1 X81.477 Y96.596 E106.04380
G1 X81.722 Y96.524 E106.05225
G1 X96.090 Y82.156 E106.72580
G1 X95.879 Y82.743 E106.74649
G1 X82.309 Y96.313 E107.38259
G1 X82.897 Y96.101 E107.40328
G1 X95.667 Y83.331 E108.00194
G1 X95.397 Y83.977 E108.02518
G1 X83.543 Y95.831 E108.58084
G1 X84.206 Y95.544 E108.60477
G1 X95.110 Y84.640 E109.11592
G1 X94.733 Y85.392 E109.14382
G1 X84.958 Y95.167 E109.60203
G1 X85.764 Y94.738 E109.63229
G1 X94.304 Y86.198 E110.03261
G1 X93.760 Y87.118 E110.06803
G1 X86.684 Y94.194 E110.39972
G1 X87.846 Y93.407 E110.44625
G1 X92.973 Y88.280 E110.68657
G1 X92.108 Y89.398 E110.73342
G1 X91.192 Y90.437 E110.77932
G1 X90.003 Y91.626 E110.83507
G1 E108.83507 F2400.00000
G92 E0
G1 X68.164 Y96.552 F7800.000
G1 E2.00000 F2400.00000
G1 F1800
G1 X68.523 Y96.193 E2.01680
G1 X68.523 Y95.818 E2.02926
G1 X67.883 Y96.457 E2.05922
G1 X67.607 Y96.357 E2.06896
G1 X68.523 Y95.442 E2.11188
G1 X68.523 Y95.066 E2.12434
G1 X67.331 Y96.258 E2.18021
G1 X67.054 Y96.158 E2.18994
G1 X68.523 Y94.690 E2.25877
G1 X68.523 Y94.314 E2.27123
G1 X66.778 Y96.059 E2.35301
G1 X66.515 Y95.946 E2.36249
G1 X68.523 Y93.938 E2.45659
G1 X68.523 Y93.562 E2.46904
G1 X66.253 Y95.832 E2.57543
G1 X65.991 Y95.718 E2.58491
G1 X68.523 Y93.187 E2.70359
G1 X68.523 Y92.811 E2.71605
G1 X65.729 Y95.605 E2.84703
G1 X65.468 Y95.490 E2.85648
G1 X68.523 Y92.435 E2.99968
G1 X68.523 Y92.059 E3.01214
G1 X65.219 Y95.363 E3.16701
G1 X64.970 Y95.236 E3.17627
G1 X68.523 Y91.683 E3.34281
G1 X68.523 Y91.307 E3.35527
G1 X64.721 Y95.109 E3.53348
G1 X64.472 Y94.982 E3.54275
G1 X68.523 Y90.932 E3.73263
G1 X68.523 Y90.556 E3.74509
G1 X64.225 Y94.853 E3.94655
G1 X63.989 Y94.714 E3.95564
G1 X68.523 Y90.180 E4.16817
G1 X68.523 Y89.804 E4.18063
G1 X63.753 Y94.574 E4.40423
G1 X63.517 Y94.434 E4.41332
G1 X68.523 Y89.428 E4.64799
G1 X68.523 Y89.052 E4.66045
G1 X63.280 Y94.295 E4.90619
G1 X63.046 Y94.153 E4.91527
G1 X68.523 Y88.677 E5.17202
G1 X68.523 Y88.301 E5.18447
G1 X62.822 Y94.001 E5.45171
G1 X62.598 Y93.849 E5.46068
G1 X68.523 Y87.925 E5.73840
G1 X68.523 Y87.549 E5.75086
G1 X62.374 Y93.697 E6.03907
G1 X62.151 Y93.545 E6.04804
G1 X68.523 Y87.173 E6.34675
G1 X68.523 Y86.797 E6.35921
G1 X61.927 Y93.393 E6.66840
G1 X61.715 Y93.229 E6.67728
G1 X68.523 Y86.421 E6.99640
G1 X68.523 Y86.046 E7.00886
G1 X61.503 Y93.065 E7.33790
G1 X61.292 Y92.901 E7.34678
G1 X68.523 Y85.670 E7.68574
G1 X68.523 Y85.294 E7.69820
G1 X61.080 Y92.736 E8.04709
G1 X60.869 Y92.572 E8.05597
G1 X68.523 Y84.918 E8.41477
G1 X68.523 Y84.542 E8.42723
G1 X60.667 Y92.398 E8.79551
G1 X60.467 Y92.222 E8.80433
G1 X68.523 Y84.166 E9.18197
G1 X68.523 Y83.791 E9.19443
G1 X60.267 Y92.046 E9.58143
G1 X60.067 Y91.870 E9.59026
G1 X68.523 Y83.415 E9.98662
G1 X68.523 Y83.039 E9.99908
G1 X59.868 Y91.694 E10.40481
G1 X59.675 Y91.511 E10.41362
G1 X68.523 Y82.663 E10.82838
G1 X68.523 Y82.287 E10.84084
G1 X59.487 Y91.323 E11.26440
G1 X59.299 Y91.135 E11.27321
G1 X68.523 Y81.911 E11.70559
G1 X68.523 Y81.535 E11.71804
G1 X59.111 Y90.947 E12.15923
G1 X58.923 Y90.759 E12.16804
G1 X68.523 Y81.160 E12.61803
G1 X68.523 Y80.784 E12.63049
G1 X58.740 Y90.566 E13.08907
G1 X58.564 Y90.367 E13.09790
G1 X68.523 Y80.408 E13.56474
G1 X68.523 Y80.032 E13.57720
G1 X58.388 Y90.167 E14.05229
G1 X58.212 Y89.967 E14.06112
G1 X68.523 Y79.656 E14.54447
G1 X68.523 Y79.280 E14.55692
G1 X58.036 Y89.767 E15.04853
G1 X57.862 Y89.566 E15.05736
