; generated by Slic3r 1.3.1-dev (Build 2d100c4) on 2020-08-25 at 09:17:56

; external perimeters extrusion width = 0.44mm (2.86mm^3/s)
; perimeters extrusion width = 0.56mm (4.14mm^3/s)
; infill extrusion width = 0.50mm (3.66mm^3/s)
; solid infill extrusion width = 0.56mm (3.10mm^3/s)
; top infill extrusion width = 0.56mm (3.10mm^3/s)

M107
G92 E0
;D3D:START:START
T0
M104 S215 T0

G21
G90
M107
T0
G28
G29
M109 T0 S215 T0
G0 F3000
M107
T0
G92 E0
G0 X0 Y149 Z0.1 F3600
G1 Y49 E6.5 F1200
G0 Z1
G92 E0
; Filament gcode

G21 ; set units to millimeters
G90 ; use absolute coordinates
M82 ; use absolute distances for extrusion
G92 E0
G1 Z0.300 F7800.000
G1 E-2.00000 F2400.00000
G92 E0
G1 X50.942 Y99.285 F7800.000
G1 E2.00000 F2400.00000
G1 F1800.000
G1 X51.329 Y99.118 E2.01397
G1 X51.620 Y99.043 E2.02390
G1 X51.917 Y99.006 E2.03382
G1 X52.338 Y99.019 E2.04779
G1 X52.761 Y99.113 E2.06213
G1 X53.148 Y99.281 E2.07610
G1 X53.400 Y99.441 E2.08602
G1 X53.631 Y99.632 E2.09595
G1 X53.910 Y99.949 E2.10992
G1 X54.130 Y100.321 E2.12426
G1 X54.277 Y100.728 E2.13860
G1 X54.345 Y101.156 E2.15293
G1 X54.331 Y101.588 E2.16727
G1 X54.237 Y102.011 E2.18161
G1 X54.069 Y102.398 E2.19558
G1 X53.909 Y102.650 E2.20550
G1 X53.718 Y102.881 E2.21543
G1 X53.401 Y103.160 E2.22940
G1 X53.029 Y103.380 E2.24374
G1 X52.622 Y103.527 E2.25808
G1 X52.194 Y103.595 E2.27241
G1 X51.762 Y103.581 E2.28675
G1 X51.339 Y103.487 E2.30109
G1 X50.942 Y103.315 E2.31543
G1 X50.584 Y103.072 E2.32976
G1 X50.278 Y102.766 E2.34410
G1 X50.035 Y102.408 E2.35844
G1 X49.868 Y102.021 E2.37241
G1 X49.793 Y101.730 E2.38234
G1 X49.756 Y101.433 E2.39226
G1 X49.769 Y101.012 E2.40623
G1 X49.863 Y100.589 E2.42057
G1 X50.035 Y100.192 E2.43490
G1 X50.278 Y99.834 E2.44924
G1 X50.584 Y99.528 E2.46358
G1 X50.893 Y99.319 E2.47593
G1 X51.071 Y99.519 F7800.000
G1 F1800.000
G1 X51.416 Y99.370 E2.48838
G1 X51.669 Y99.304 E2.49706
G1 X51.929 Y99.272 E2.50573
G1 X52.305 Y99.283 E2.51818
G1 X52.678 Y99.367 E2.53085
G1 X53.023 Y99.516 E2.54330
G1 X53.244 Y99.657 E2.55198
G1 X53.446 Y99.823 E2.56066
G1 X53.694 Y100.105 E2.57311
G1 X53.889 Y100.435 E2.58578
G1 X54.019 Y100.795 E2.59845
G1 X54.078 Y101.172 E2.61112
G1 X54.067 Y101.555 E2.62380
G1 X53.983 Y101.928 E2.63647
G1 X53.834 Y102.273 E2.64892
G1 X53.693 Y102.494 E2.65760
G1 X53.527 Y102.696 E2.66628
G1 X53.245 Y102.944 E2.67873
G1 X52.915 Y103.139 E2.69140
G1 X52.555 Y103.269 E2.70407
G1 X52.178 Y103.328 E2.71674
G1 X51.795 Y103.317 E2.72942
G1 X51.422 Y103.233 E2.74209
G1 X51.071 Y103.081 E2.75477
G1 X50.754 Y102.866 E2.76744
G1 X50.484 Y102.596 E2.78011
G1 X50.269 Y102.279 E2.79279
G1 X50.120 Y101.934 E2.80524
G1 X50.054 Y101.681 E2.81392
G1 X50.022 Y101.421 E2.82259
G1 X50.033 Y101.045 E2.83504
G1 X50.117 Y100.672 E2.84771
G1 X50.269 Y100.321 E2.86039
G1 X50.484 Y100.004 E2.87306
G1 X50.754 Y99.734 E2.88574
G1 X51.021 Y99.553 E2.89642
G1 X51.199 Y99.753 F7800.000
G1 F1800.000
G1 X51.502 Y99.622 E2.90735
G1 X51.719 Y99.566 E2.91478
G1 X51.942 Y99.538 E2.92221
G1 X52.271 Y99.548 E2.93313
G1 X52.596 Y99.621 E2.94414
G1 X52.898 Y99.752 E2.95507
G1 X53.088 Y99.872 E2.96250
G1 X53.260 Y100.015 E2.96993
G1 X53.478 Y100.262 E2.98085
G1 X53.648 Y100.548 E2.99186
G1 X53.760 Y100.861 E3.00287
G1 X53.812 Y101.189 E3.01388
G1 X53.802 Y101.521 E3.02489
G1 X53.729 Y101.846 E3.03590
G1 X53.598 Y102.148 E3.04683
G1 X53.478 Y102.338 E3.05426
G1 X53.335 Y102.510 E3.06169
G1 X53.088 Y102.728 E3.07261
G1 X52.802 Y102.898 E3.08362
G1 X52.489 Y103.010 E3.09463
G1 X52.161 Y103.062 E3.10564
G1 X51.829 Y103.052 E3.11665
G1 X51.504 Y102.979 E3.12766
G1 X51.199 Y102.847 E3.13867
G1 X50.924 Y102.660 E3.14968
G1 X50.689 Y102.426 E3.16069
G1 X50.503 Y102.151 E3.17170
G1 X50.372 Y101.848 E3.18263
G1 X50.316 Y101.631 E3.19006
G1 X50.288 Y101.408 E3.19749
G1 X50.298 Y101.079 E3.20841
G1 X50.371 Y100.754 E3.21942
G1 X50.503 Y100.449 E3.23043
G1 X50.689 Y100.174 E3.24145
G1 X50.924 Y99.939 E3.25245
G1 X51.150 Y99.786 E3.26148
G1 E1.26148 F2400.00000
G92 E0
G1 X52.194 Y50.995 F7800.000
G1 E2.00000 F2400.00000
G1 F1800.000
G1 X51.762 Y50.981 E2.01434
G1 X51.339 Y50.887 E2.02868
G1 X50.952 Y50.719 E2.04265
G1 X50.700 Y50.559 E2.05257
G1 X50.469 Y50.368 E2.06250
G1 X50.190 Y50.051 E2.07647
G1 X49.969 Y49.679 E2.09081
G1 X49.823 Y49.272 E2.10515
G1 X49.755 Y48.844 E2.11948
G1 X49.769 Y48.412 E2.13382
G1 X49.863 Y47.989 E2.14816
G1 X50.035 Y47.592 E2.16250
G1 X50.278 Y47.234 E2.17683
G1 X50.584 Y46.928 E2.19117
G1 X50.942 Y46.685 E2.20551
G1 X51.329 Y46.518 E2.21948
G1 X51.620 Y46.443 E2.22941
G1 X51.917 Y46.406 E2.23933
G1 X52.338 Y46.419 E2.25330
G1 X52.760 Y46.513 E2.26764
G1 X53.158 Y46.685 E2.28197
G1 X53.516 Y46.928 E2.29631
G1 X53.822 Y47.234 E2.31065
G1 X54.065 Y47.592 E2.32499
G1 X54.232 Y47.979 E2.33896
G1 X54.307 Y48.270 E2.34889
G1 X54.344 Y48.567 E2.35881
G1 X54.331 Y48.988 E2.37278
G1 X54.237 Y49.411 E2.38712
G1 X54.069 Y49.798 E2.40109
G1 X53.909 Y50.050 E2.41101
G1 X53.718 Y50.281 E2.42093
G1 X53.401 Y50.560 E2.43491
G1 X53.029 Y50.780 E2.44925
G1 X52.622 Y50.927 E2.46358
G1 X52.254 Y50.985 E2.47593
G1 X52.178 Y50.728 F7800.000
G1 F1800.000
G1 X51.795 Y50.717 E2.48860
G1 X51.422 Y50.633 E2.50128
G1 X51.077 Y50.484 E2.51373
G1 X50.856 Y50.343 E2.52241
G1 X50.654 Y50.177 E2.53108
G1 X50.406 Y49.895 E2.54353
G1 X50.211 Y49.565 E2.55621
G1 X50.081 Y49.205 E2.56888
G1 X50.022 Y48.828 E2.58155
G1 X50.033 Y48.445 E2.59422
G1 X50.117 Y48.072 E2.60690
G1 X50.269 Y47.721 E2.61957
G1 X50.484 Y47.404 E2.63225
G1 X50.754 Y47.134 E2.64492
G1 X51.071 Y46.919 E2.65760
G1 X51.416 Y46.770 E2.67004
G1 X51.669 Y46.704 E2.67872
G1 X51.929 Y46.672 E2.68740
G1 X52.305 Y46.683 E2.69984
G1 X52.678 Y46.767 E2.71252
G1 X53.029 Y46.919 E2.72519
G1 X53.346 Y47.134 E2.73787
G1 X53.616 Y47.404 E2.75054
G1 X53.831 Y47.721 E2.76322
G1 X53.980 Y48.066 E2.77566
G1 X54.046 Y48.319 E2.78434
G1 X54.078 Y48.579 E2.79302
G1 X54.067 Y48.955 E2.80546
G1 X53.983 Y49.328 E2.81814
G1 X53.834 Y49.673 E2.83059
G1 X53.693 Y49.894 E2.83927
G1 X53.527 Y50.096 E2.84794
G1 X53.245 Y50.344 E2.86039
G1 X52.915 Y50.539 E2.87307
G1 X52.555 Y50.669 E2.88574
G1 X52.237 Y50.719 E2.89642
G1 X52.161 Y50.462 F7800.000
G1 F1800.000
G1 X51.829 Y50.452 E2.90743
G1 X51.504 Y50.379 E2.91844
G1 X51.202 Y50.248 E2.92937
G1 X51.012 Y50.128 E2.93680
G1 X50.840 Y49.985 E2.94423
G1 X50.622 Y49.738 E2.95515
G1 X50.452 Y49.452 E2.96617
G1 X50.340 Y49.139 E2.97717
G1 X50.288 Y48.811 E2.98818
G1 X50.298 Y48.479 E2.99919
G1 X50.371 Y48.154 E3.01020
G1 X50.503 Y47.849 E3.02122
G1 X50.689 Y47.574 E3.03223
G1 X50.924 Y47.340 E3.04324
G1 X51.199 Y47.153 E3.05425
G1 X51.502 Y47.022 E3.06517
G1 X51.719 Y46.966 E3.07260
G1 X51.942 Y46.938 E3.08003
G1 X52.271 Y46.948 E3.09095
G1 X52.596 Y47.021 E3.10196
G1 X52.901 Y47.153 E3.11298
G1 X53.176 Y47.340 E3.12399
G1 X53.410 Y47.574 E3.13500
G1 X53.597 Y47.849 E3.14601
G1 X53.728 Y48.152 E3.15693
G1 X53.784 Y48.369 E3.16436
G1 X53.812 Y48.592 E3.17179
G1 X53.802 Y48.921 E3.18271
G1 X53.729 Y49.246 E3.19373
G1 X53.598 Y49.548 E3.20465
G1 X53.478 Y49.738 E3.21208
G1 X53.335 Y49.910 E3.21951
G1 X53.088 Y50.128 E3.23044
G1 X52.802 Y50.298 E3.24145
G1 X52.489 Y50.410 E3.25246
G1 X52.220 Y50.453 E3.26148
G1 E1.26148 F2400.00000
G92 E0
G1 X123.054 Y0.696 F7800.000
G1 E2.00000 F2400.00000
G1 F1800.000
G1 X123.054 Y149.304 E6.92330
G1 X63.761 Y149.304 E8.88764
G1 X61.439 Y149.231 E8.96460
G1 X59.137 Y149.013 E9.04120
G1 X56.854 Y148.652 E9.11779
G1 X54.597 Y148.147 E9.19439
G1 X52.377 Y147.502 E9.27099
G1 X50.202 Y146.719 E9.34759
G1 X48.080 Y145.801 E9.42418
G1 X46.020 Y144.751 E9.50078
G1 X44.030 Y143.574 E9.57737
G1 X42.118 Y142.275 E9.65397
G1 X40.291 Y140.857 E9.73057
G1 X38.556 Y139.329 E9.80717
G1 X36.921 Y137.694 E9.88376
G1 X35.393 Y135.959 E9.96036
G1 X33.975 Y134.132 E10.03696
G1 X32.676 Y132.220 E10.11355
G1 X31.499 Y130.230 E10.19015
G1 X30.449 Y128.170 E10.26675
G1 X29.531 Y126.048 E10.34334
G1 X28.748 Y123.873 E10.41994
G1 X28.103 Y121.653 E10.49654
G1 X27.598 Y119.396 E10.57314
G1 X27.237 Y117.113 E10.64973
G1 X27.019 Y114.811 E10.72633
G1 X26.946 Y112.489 E10.80329
G1 X26.946 Y37.511 E13.28728
G1 X27.019 Y35.189 E13.36424
G1 X27.237 Y32.887 E13.44084
G1 X27.598 Y30.604 E13.51743
G1 X28.103 Y28.347 E13.59403
G1 X28.748 Y26.127 E13.67063
G1 X29.531 Y23.952 E13.74722
G1 X30.449 Y21.830 E13.82382
G1 X31.499 Y19.770 E13.90042
G1 X32.676 Y17.780 E13.97701
G1 X33.975 Y15.868 E14.05361
G1 X35.393 Y14.041 E14.13021
G1 X36.921 Y12.306 E14.20681
G1 X38.556 Y10.671 E14.28340
G1 X40.291 Y9.143 E14.36000
G1 X42.118 Y7.725 E14.43660
G1 X44.030 Y6.426 E14.51319
G1 X46.020 Y5.249 E14.58979
G1 X48.080 Y4.199 E14.66639
G1 X50.202 Y3.281 E14.74298
G1 X52.377 Y2.498 E14.81958
G1 X54.597 Y1.853 E14.89618
G1 X56.854 Y1.348 E14.97277
G1 X59.137 Y0.987 E15.04937
G1 X61.439 Y0.769 E15.12597
G1 X63.761 Y0.696 E15.20293
G1 X122.994 Y0.696 E17.16528
G1 X123.319 Y0.431 F7800.000
G1 F1800.000
G1 X123.319 Y149.569 E22.10618
G1 X63.757 Y149.569 E24.07946
G1 X61.422 Y149.496 E24.15683
G1 X59.104 Y149.277 E24.23399
G1 X56.804 Y148.913 E24.31114
G1 X54.531 Y148.405 E24.38829
G1 X52.295 Y147.755 E24.46543
G1 X50.104 Y146.966 E24.54259
G1 X47.967 Y146.041 E24.61974
G1 X45.892 Y144.984 E24.69689
G1 X43.887 Y143.799 E24.77404
G1 X41.961 Y142.490 E24.85118
G1 X40.121 Y141.062 E24.92834
G1 X38.374 Y139.522 E25.00549
G1 X36.728 Y137.876 E25.08264
G1 X35.188 Y136.129 E25.15978
G1 X33.760 Y134.289 E25.23694
G1 X32.451 Y132.363 E25.31409
G1 X31.266 Y130.358 E25.39124
G1 X30.209 Y128.283 E25.46839
G1 X29.284 Y126.146 E25.54553
G1 X28.495 Y123.955 E25.62269
G1 X27.845 Y121.719 E25.69984
G1 X27.337 Y119.446 E25.77699
G1 X26.973 Y117.146 E25.85414
G1 X26.754 Y114.828 E25.93129
G1 X26.681 Y112.493 E26.00866
G1 X26.681 Y37.507 E28.49293
G1 X26.754 Y35.172 E28.57030
G1 X26.973 Y32.854 E28.64745
G1 X27.337 Y30.554 E28.72460
G1 X27.845 Y28.281 E28.80175
G1 X28.495 Y26.045 E28.87890
G1 X29.284 Y23.854 E28.95605
G1 X30.209 Y21.717 E29.03320
G1 X31.266 Y19.642 E29.11035
G1 X32.451 Y17.637 E29.18750
G1 X33.760 Y15.711 E29.26465
G1 X35.188 Y13.871 E29.34180
G1 X36.728 Y12.124 E29.41895
G1 X38.374 Y10.478 E29.49610
G1 X40.121 Y8.938 E29.57325
G1 X41.961 Y7.510 E29.65040
G1 X43.887 Y6.201 E29.72755
G1 X45.892 Y5.016 E29.80470
G1 X47.967 Y3.959 E29.88185
G1 X50.104 Y3.034 E29.95900
G1 X52.295 Y2.245 E30.03615
G1 X54.531 Y1.595 E30.11330
G1 X56.804 Y1.087 E30.19045
G1 X59.104 Y0.723 E30.26760
G1 X61.422 Y0.504 E30.34475
G1 X63.757 Y0.431 E30.42213
G1 X123.259 Y0.431 E32.39342
G1 X123.585 Y0.165 F7800.000
G1 F1800.000
G1 X123.585 Y149.835 E37.35192
G1 X63.753 Y149.835 E39.33414
G1 X61.406 Y149.761 E39.41192
G1 X59.071 Y149.541 E39.48963
G1 X56.754 Y149.174 E39.56733
G1 X54.465 Y148.662 E39.64503
G1 X52.213 Y148.008 E39.72274
G1 X50.006 Y147.213 E39.80044
G1 X47.854 Y146.282 E39.87814
G1 X45.764 Y145.217 E39.95585
G1 X43.745 Y144.023 E40.03355
G1 X41.805 Y142.705 E40.11125
G1 X39.952 Y141.267 E40.18896
G1 X38.193 Y139.716 E40.26666
G1 X36.534 Y138.057 E40.34436
G1 X34.983 Y136.298 E40.42206
G1 X33.545 Y134.445 E40.49977
G1 X32.227 Y132.505 E40.57747
G1 X31.033 Y130.486 E40.65517
G1 X29.968 Y128.396 E40.73288
G1 X29.037 Y126.244 E40.81058
G1 X28.242 Y124.037 E40.88829
G1 X27.588 Y121.785 E40.96599
G1 X27.076 Y119.496 E41.04369
G1 X26.709 Y117.179 E41.12139
G1 X26.489 Y114.844 E41.19910
G1 X26.415 Y112.497 E41.27689
G1 X26.415 Y37.503 E43.76143
G1 X26.489 Y35.156 E43.83922
G1 X26.709 Y32.821 E43.91692
G1 X27.076 Y30.504 E43.99462
G1 X27.588 Y28.215 E44.07233
G1 X28.242 Y25.963 E44.15003
G1 X29.037 Y23.756 E44.22774
G1 X29.968 Y21.604 E44.30544
G1 X31.033 Y19.514 E44.38314
G1 X32.227 Y17.495 E44.46084
G1 X33.545 Y15.555 E44.53855
G1 X34.983 Y13.702 E44.61625
G1 X36.534 Y11.943 E44.69395
G1 X38.193 Y10.284 E44.77166
G1 X39.952 Y8.733 E44.84936
G1 X41.805 Y7.295 E44.92706
G1 X43.745 Y5.977 E45.00477
G1 X45.764 Y4.783 E45.08247
G1 X47.854 Y3.718 E45.16017
G1 X50.006 Y2.787 E45.23787
G1 X52.213 Y1.992 E45.31558
G1 X54.465 Y1.338 E45.39328
G1 X56.754 Y0.826 E45.47098
G1 X59.071 Y0.459 E45.54869
G1 X61.406 Y0.239 E45.62639
G1 X63.753 Y0.165 E45.70418
G1 X123.525 Y0.165 E47.68441
G1 E45.68441 F2400.00000
G92 E0
G1 X54.279 Y49.846 F7800.000
G1 E2.00000 F2400.00000
G1 F1800.000
G1 X103.267 Y0.859 E4.29743
G1 X102.891 Y0.859 E4.30990
G1 X54.455 Y49.295 E6.58146
G1 X54.493 Y49.125 E6.58723
G1 X54.500 Y48.873 E6.59559
G1 X102.515 Y0.859 E8.84737
G1 X102.139 Y0.859 E8.85984
G1 X54.488 Y48.509 E11.09455
G1 X54.431 Y48.190 E11.10528
G1 X101.763 Y0.859 E13.32505
G1 X101.387 Y0.859 E13.33752
G1 X54.341 Y47.904 E15.54387
G1 X54.228 Y47.642 E15.55335
G1 X101.011 Y0.859 E17.74739
G1 X100.635 Y0.859 E17.75986
G1 X54.086 Y47.407 E19.94288
G1 X53.934 Y47.183 E19.95186
G1 X100.259 Y0.859 E22.12438
G1 X99.883 Y0.859 E22.13685
G1 X53.749 Y46.992 E24.30045
G1 X53.557 Y46.809 E24.30927
G1 X99.507 Y0.859 E26.46424
G1 X99.131 Y0.859 E26.47671
G1 X53.333 Y46.656 E28.62454
G1 X53.096 Y46.517 E28.63365
G1 X98.755 Y0.859 E30.77495
G1 X98.379 Y0.859 E30.78742
G1 X52.834 Y46.403 E32.92339
G1 X52.740 Y46.363 E32.92679
G1 X52.542 Y46.319 E32.93349
G1 X98.003 Y0.859 E35.06549
G1 X97.627 Y0.859 E35.07796
G1 X52.229 Y46.256 E37.20702
G1 X51.864 Y46.245 E37.21912
G1 X97.251 Y0.859 E39.34765
G1 X96.875 Y0.859 E39.36012
G1 X51.442 Y46.291 E41.49083
G1 X51.140 Y46.369 E41.50118
G1 X50.873 Y46.484 E41.51083
G1 X96.499 Y0.859 E43.65060
G1 X96.123 Y0.859 E43.66307
G1 X27.109 Y69.872 E46.89969
G1 X27.109 Y69.496 E46.91216
G1 X95.746 Y0.859 E50.13116
G1 X95.370 Y0.859 E50.14363
G1 X27.109 Y69.120 E53.34499
G1 X27.109 Y68.744 E53.35746
G1 X94.994 Y0.859 E56.54118
G1 X94.618 Y0.859 E56.55365
G1 X27.109 Y68.368 E59.71975
G1 X27.109 Y67.992 E59.73221
G1 X94.242 Y0.859 E62.88067
G1 X93.866 Y0.859 E62.89314
G1 X27.109 Y67.616 E66.02397
G1 X27.109 Y67.240 E66.03643
G1 X93.490 Y0.859 E69.14962
G1 X93.114 Y0.859 E69.16209
G1 X27.109 Y66.864 E72.25765
G1 X27.109 Y66.488 E72.27012
G1 X92.738 Y0.859 E75.34804
G1 X92.362 Y0.859 E75.36051
G1 X27.109 Y66.112 E78.42079
G1 X27.109 Y65.736 E78.43326
G1 X91.986 Y0.859 E81.47592
G1 X91.610 Y0.859 E81.48839
G1 X27.109 Y65.360 E84.51340
G1 X27.109 Y64.984 E84.52587
G1 X91.234 Y0.859 E87.53326
G1 X90.858 Y0.859 E87.54573
G1 X27.109 Y64.608 E90.53548
G1 X27.109 Y64.232 E90.54795
G1 X90.482 Y0.859 E93.52006
G1 X90.106 Y0.859 E93.53253
G1 X27.109 Y63.856 E96.48701
G1 X27.109 Y63.480 E96.49948
G1 X89.730 Y0.859 E99.43633
G1 X89.354 Y0.859 E99.44880
G1 X27.109 Y63.104 E102.36801
G1 X27.109 Y62.728 E102.38048
G1 X88.978 Y0.859 E105.28206
G1 X88.602 Y0.859 E105.29453
G1 X27.109 Y62.352 E108.17847
G1 X27.109 Y61.976 E108.19094
G1 X88.226 Y0.859 E111.05725
G1 X87.850 Y0.859 E111.06972
G1 X27.109 Y61.600 E113.91840
G1 X27.109 Y61.224 E113.93087
G1 X87.474 Y0.859 E116.76191
G1 X87.098 Y0.859 E116.77438
G1 X27.109 Y60.848 E119.58778
G1 X27.109 Y60.472 E119.60025
G1 X86.722 Y0.859 E122.39603
G1 X86.346 Y0.859 E122.40850
G1 X27.109 Y60.096 E125.18663
G1 X27.109 Y59.720 E125.19910
G1 X85.970 Y0.859 E127.95961
G1 X85.594 Y0.859 E127.97208
G1 X27.109 Y59.344 E130.71495
G1 X27.109 Y58.968 E130.72742
G1 X85.218 Y0.859 E133.45265
G1 X84.842 Y0.859 E133.46512
G1 X27.109 Y58.592 E136.17272
G1 X27.109 Y58.216 E136.18519
G1 X84.466 Y0.859 E138.87516
G1 X84.090 Y0.859 E138.88763
G1 X27.109 Y57.840 E141.55996
G1 X27.109 Y57.464 E141.57243
G1 X83.714 Y0.859 E144.22713
G1 X83.338 Y0.859 E144.23960
G1 X27.109 Y57.088 E146.87667
G1 X27.109 Y56.712 E146.88914
G1 X82.962 Y0.859 E149.50857
G1 X82.586 Y0.859 E149.52104
G1 X27.109 Y56.336 E152.12283
G1 X27.109 Y55.960 E152.13530
G1 X82.210 Y0.859 E154.71947
G1 X81.834 Y0.859 E154.73193
G1 X27.109 Y55.584 E157.29846
G1 X27.109 Y55.208 E157.31093
G1 X81.458 Y0.859 E159.85983
G1 X81.082 Y0.859 E159.87229
G1 X27.109 Y54.832 E162.40355
G1 X27.109 Y54.456 E162.41602
G1 X80.706 Y0.859 E164.92965
G1 X80.330 Y0.859 E164.94212
G1 X27.109 Y54.080 E167.43811
G1 X27.109 Y53.704 E167.45058
G1 X79.954 Y0.859 E169.92894
G1 X79.578 Y0.859 E169.94141
G1 X27.109 Y53.328 E172.40213
G1 X27.109 Y52.952 E172.41460
G1 X79.202 Y0.859 E174.85769
G1 X78.826 Y0.859 E174.87016
