; generated by Slic3r 1.3.1-dev (Build 2d100c4) on 2020-07-30 at 14:58:20

; external perimeters extrusion width = 0.44mm (2.86mm^3/s)
; perimeters extrusion width = 0.56mm (4.14mm^3/s)
; infill extrusion width = 0.50mm (3.66mm^3/s)
; solid infill extrusion width = 0.56mm (3.10mm^3/s)
; top infill extrusion width = 0.56mm (3.10mm^3/s)

M107
G92 E0
;D3D:START:START
T0
M104 S215 T0

G21
G90
M107
T0
G28
G29
M109 T0 S215 T0
G0 F3000
M107
T0
G92 E0
G0 X0 Y149 Z0.1 F3600
G1 Y49 E6.5 F1200
G0 Z1
G92 E0
; Filament gcode

G21 ; set units to millimeters
G90 ; use absolute coordinates
M82 ; use absolute distances for extrusion
G92 E0
G1 Z0.300 F7800.000
G1 E-2.00000 F2400.00000
G92 E0
G1 X50.227 Y68.299 F7800.000
G1 E2.00000 F2400.00000
G1 F1800.000
G1 X50.227 Y83.309 E2.49727
G1 X49.780 Y83.309 E2.51207
G1 X49.341 Y82.836 E2.53345
G1 X48.793 Y82.107 E2.56367
G1 X48.208 Y81.107 E2.60206
G1 X47.755 Y80.052 E2.64006
G1 X47.454 Y79.071 E2.67407
G1 X47.251 Y78.041 E2.70887
G1 X47.193 Y77.582 E2.72417
G1 X47.117 Y76.434 E2.76231
G1 X47.117 Y66.691 E3.08507
G1 X102.883 Y66.691 E4.93257
G1 X102.883 Y76.432 E5.25528
G1 X102.784 Y77.816 E5.30124
G1 X102.588 Y78.883 E5.33720
G1 X102.493 Y79.253 E5.34985
G1 X102.188 Y80.209 E5.38308
G1 X101.792 Y81.107 E5.41560
G1 X101.255 Y82.035 E5.45114
G1 X100.658 Y82.837 E5.48424
G1 X100.220 Y83.309 E5.50558
G1 X99.773 Y83.309 E5.52038
G1 X99.773 Y68.299 E6.01765
G1 X50.287 Y68.299 E7.65712
G1 X50.492 Y68.564 F7800.000
G1 F1800.000
G1 X50.492 Y83.574 E8.15440
G1 X49.664 Y83.574 E8.18183
G1 X49.137 Y83.006 E8.20751
G1 X48.572 Y82.254 E8.23869
G1 X47.970 Y81.227 E8.27812
G1 X47.506 Y80.144 E8.31715
G1 X47.196 Y79.136 E8.35209
G1 X46.989 Y78.083 E8.38765
G1 X46.929 Y77.608 E8.40351
G1 X46.851 Y76.442 E8.44220
G1 X46.851 Y66.426 E8.77405
G1 X103.149 Y66.426 E10.63916
G1 X103.149 Y76.441 E10.97098
G1 X103.048 Y77.849 E11.01773
G1 X102.848 Y78.940 E11.05449
G1 X102.749 Y79.327 E11.06770
G1 X102.437 Y80.303 E11.10166
G1 X102.030 Y81.227 E11.13512
G1 X101.477 Y82.182 E11.17165
G1 X100.863 Y83.007 E11.20574
G1 X100.336 Y83.574 E11.23140
G1 X99.508 Y83.574 E11.25883
G1 X99.508 Y68.564 E11.75610
G1 X50.552 Y68.564 E13.37797
G1 X50.758 Y68.830 F7800.000
G1 F1800.000
G1 X50.758 Y83.840 E13.87525
G1 X49.548 Y83.840 E13.91532
G1 X48.933 Y83.177 E13.94530
G1 X48.350 Y82.401 E13.97744
G1 X47.733 Y81.346 E14.01793
G1 X47.256 Y80.236 E14.05797
G1 X46.938 Y79.201 E14.09384
G1 X46.726 Y78.125 E14.13016
G1 X46.664 Y77.633 E14.14659
G1 X46.586 Y76.451 E14.18583
G1 X46.586 Y66.160 E14.52677
G1 X103.414 Y66.160 E16.40948
G1 X103.414 Y76.451 E16.75041
G1 X103.312 Y77.883 E16.79797
G1 X103.108 Y78.997 E16.83551
G1 X103.004 Y79.400 E16.84928
G1 X102.686 Y80.397 E16.88397
G1 X102.267 Y81.348 E16.91838
G1 X101.700 Y82.328 E16.95590
G1 X101.067 Y83.177 E16.99098
G1 X100.452 Y83.840 E17.02094
G1 X99.242 Y83.840 E17.06101
G1 X99.242 Y68.830 E17.55829
G1 X50.818 Y68.830 E19.16256
G1 X50.064 Y68.035 F7800.000
G1 F1800.000
G1 X50.064 Y68.411 E19.17503
G1 X47.279 Y71.196 E19.30564
G1 X47.279 Y71.572 E19.31811
G1 X50.064 Y68.787 E19.44872
G1 X50.064 Y69.163 E19.46119
G1 X47.279 Y71.948 E19.59180
G1 X47.279 Y72.324 E19.60427
G1 X50.064 Y69.539 E19.73489
G1 X50.064 Y69.915 E19.74736
G1 X47.279 Y72.700 E19.87797
G1 X47.279 Y73.076 E19.89044
G1 X50.064 Y70.291 E20.02105
G1 X50.064 Y70.667 E20.03352
G1 X47.279 Y73.452 E20.16413
G1 X47.279 Y73.828 E20.17660
G1 X50.064 Y71.043 E20.30722
G1 X50.064 Y71.419 E20.31969
G1 X47.279 Y74.204 E20.45030
G1 X47.279 Y74.580 E20.46277
G1 X50.064 Y71.795 E20.59338
G1 X50.064 Y72.171 E20.60585
G1 X47.279 Y74.956 E20.73646
G1 X47.279 Y75.332 E20.74893
G1 X50.064 Y72.547 E20.87955
G1 X50.064 Y72.923 E20.89202
G1 X47.279 Y75.708 E21.02263
G1 X47.279 Y76.084 E21.03510
G1 X50.064 Y73.299 E21.16571
G1 X50.064 Y73.675 E21.17818
G1 X47.279 Y76.460 E21.30879
G1 X47.298 Y76.817 E21.32064
G1 X50.064 Y74.051 E21.45035
G1 X50.064 Y74.427 E21.46282
G1 X47.322 Y77.170 E21.59143
G1 X47.345 Y77.522 E21.60315
G1 X50.064 Y74.803 E21.73065
G1 X50.064 Y75.179 E21.74312
G1 X47.380 Y77.863 E21.86900
G1 X47.428 Y78.192 E21.88000
G1 X50.064 Y75.555 E22.00364
G1 X50.064 Y75.931 E22.01611
G1 X47.490 Y78.506 E22.13685
G1 X47.552 Y78.820 E22.14747
G1 X50.064 Y76.307 E22.26531
G1 X50.064 Y76.683 E22.27778
G1 X47.615 Y79.132 E22.39262
G1 X47.704 Y79.420 E22.40260
G1 X50.064 Y77.059 E22.51330
G1 X50.064 Y77.435 E22.52577
G1 X47.792 Y79.707 E22.63233
G1 X47.880 Y79.995 E22.64231
G1 X50.064 Y77.811 E22.74473
G1 X50.064 Y78.187 E22.75720
G1 X47.988 Y80.264 E22.85459
G1 X48.100 Y80.527 E22.86409
G1 X50.064 Y78.563 E22.95619
G1 X50.064 Y78.939 E22.96865
G1 X48.213 Y80.790 E23.05546
G1 X48.326 Y81.053 E23.06495
G1 X50.064 Y79.315 E23.14646
G1 X50.064 Y79.691 E23.15893
G1 X48.462 Y81.294 E23.23410
G1 X48.600 Y81.531 E23.24321
G1 X50.064 Y80.067 E23.31186
G1 X50.064 Y80.443 E23.32433
G1 X48.739 Y81.768 E23.38647
G1 X48.878 Y82.005 E23.39559
G1 X50.064 Y80.819 E23.45122
G1 X50.064 Y81.195 E23.46369
G1 X49.034 Y82.226 E23.51201
G1 X49.195 Y82.440 E23.52091
G1 X50.064 Y81.571 E23.56168
G1 X50.064 Y81.947 E23.57414
G1 X49.356 Y82.655 E23.60734
G1 X49.527 Y82.861 E23.61620
G1 X50.064 Y82.323 E23.64140
G1 X50.064 Y82.699 E23.65387
G1 X49.708 Y83.055 E23.67058
G1 E21.67058 F2400.00000
G92 E0
G1 X47.280 Y67.060 F7800.000
G1 E2.00000 F2400.00000
G1 F1800.000
G1 X47.486 Y66.854 E2.00969
G1 X47.862 Y66.854 E2.02216
G1 X47.279 Y67.436 E2.04950
G1 X47.279 Y67.812 E2.06196
G1 X48.238 Y66.854 E2.10693
G1 X48.614 Y66.854 E2.11940
G1 X47.279 Y68.188 E2.18201
G1 X47.279 Y68.564 E2.19448
G1 X48.990 Y66.854 E2.27471
G1 X49.366 Y66.854 E2.28718
G1 X47.279 Y68.940 E2.38505
G1 X47.279 Y69.316 E2.39752
G1 X49.742 Y66.854 E2.51302
G1 X50.118 Y66.854 E2.52549
G1 X47.279 Y69.692 E2.65863
G1 X47.279 Y70.068 E2.67109
G1 X50.494 Y66.854 E2.82186
G1 X50.870 Y66.854 E2.83433
G1 X47.279 Y70.444 E3.00273
G1 X47.279 Y70.820 E3.01520
G1 X49.858 Y68.242 E3.13613
G1 X49.858 Y68.136 E3.13962
G1 X49.963 Y68.136 E3.14312
G1 X51.246 Y66.854 E3.20328
G1 X51.622 Y66.854 E3.21575
G1 X50.339 Y68.136 E3.27592
G1 X50.715 Y68.136 E3.28838
G1 X51.998 Y66.854 E3.34855
G1 X52.374 Y66.854 E3.36102
G1 X51.091 Y68.136 E3.42118
G1 X51.467 Y68.136 E3.43365
G1 X52.750 Y66.854 E3.49382
G1 X53.126 Y66.854 E3.50628
G1 X51.843 Y68.136 E3.56645
G1 X52.219 Y68.136 E3.57892
G1 X53.502 Y66.854 E3.63908
G1 X53.878 Y66.854 E3.65155
G1 X52.595 Y68.136 E3.71171
G1 X52.971 Y68.136 E3.72418
G1 X54.254 Y66.854 E3.78435
G1 X54.630 Y66.854 E3.79682
G1 X53.347 Y68.136 E3.85698
G1 X53.723 Y68.136 E3.86945
G1 X55.006 Y66.854 E3.92961
G1 X55.382 Y66.854 E3.94208
G1 X54.099 Y68.136 E4.00225
G1 X54.475 Y68.136 E4.01472
G1 X55.758 Y66.854 E4.07488
G1 X56.134 Y66.854 E4.08735
G1 X54.851 Y68.136 E4.14751
G1 X55.227 Y68.136 E4.15998
G1 X56.510 Y66.854 E4.22015
G1 X56.886 Y66.854 E4.23262
G1 X55.603 Y68.136 E4.29278
G1 X55.979 Y68.136 E4.30525
G1 X57.262 Y66.854 E4.36541
G1 X57.638 Y66.854 E4.37788
G1 X56.355 Y68.136 E4.43805
G1 X56.731 Y68.136 E4.45052
G1 X58.014 Y66.854 E4.51068
G1 X58.390 Y66.854 E4.52315
G1 X57.107 Y68.136 E4.58331
G1 X57.483 Y68.136 E4.59578
G1 X58.766 Y66.854 E4.65595
G1 X59.142 Y66.854 E4.66842
G1 X57.859 Y68.136 E4.72858
G1 X58.235 Y68.136 E4.74105
G1 X59.518 Y66.854 E4.80121
G1 X59.894 Y66.854 E4.81368
G1 X58.611 Y68.136 E4.87385
G1 X58.987 Y68.136 E4.88632
G1 X60.270 Y66.854 E4.94648
G1 X60.646 Y66.854 E4.95895
G1 X59.363 Y68.136 E5.01911
G1 X59.739 Y68.136 E5.03158
G1 X61.022 Y66.854 E5.09175
G1 X61.398 Y66.854 E5.10421
G1 X60.115 Y68.136 E5.16438
G1 X60.491 Y68.136 E5.17685
G1 X61.774 Y66.854 E5.23701
G1 X62.150 Y66.854 E5.24948
G1 X60.867 Y68.136 E5.30965
G1 X61.243 Y68.136 E5.32211
G1 X62.526 Y66.854 E5.38228
G1 X62.902 Y66.854 E5.39475
G1 X61.619 Y68.136 E5.45491
G1 X61.995 Y68.136 E5.46738
G1 X63.278 Y66.854 E5.52755
G1 X63.654 Y66.854 E5.54001
G1 X62.371 Y68.136 E5.60018
G1 X62.747 Y68.136 E5.61265
G1 X64.030 Y66.854 E5.67281
G1 X64.406 Y66.854 E5.68528
G1 X63.123 Y68.136 E5.74545
G1 X63.499 Y68.136 E5.75791
G1 X64.782 Y66.854 E5.81808
G1 X65.158 Y66.854 E5.83055
G1 X63.875 Y68.136 E5.89071
G1 X64.251 Y68.136 E5.90318
G1 X65.534 Y66.854 E5.96335
G1 X65.910 Y66.854 E5.97581
G1 X64.627 Y68.136 E6.03598
G1 X65.003 Y68.136 E6.04845
G1 X66.286 Y66.854 E6.10861
G1 X66.662 Y66.854 E6.12108
G1 X65.379 Y68.136 E6.18124
G1 X65.755 Y68.136 E6.19371
G1 X67.038 Y66.854 E6.25388
G1 X67.414 Y66.854 E6.26635
G1 X66.131 Y68.136 E6.32651
G1 X66.507 Y68.136 E6.33898
G1 X67.790 Y66.854 E6.39914
G1 X68.166 Y66.854 E6.41161
G1 X66.883 Y68.136 E6.47178
G1 X67.259 Y68.136 E6.48425
G1 X68.542 Y66.854 E6.54441
G1 X68.918 Y66.854 E6.55688
G1 X67.635 Y68.136 E6.61704
G1 X68.011 Y68.136 E6.62951
G1 X69.294 Y66.854 E6.68968
G1 X69.670 Y66.854 E6.70215
G1 X68.387 Y68.136 E6.76231
G1 X68.763 Y68.136 E6.77478
G1 X70.046 Y66.854 E6.83494
G1 X70.422 Y66.854 E6.84741
G1 X69.139 Y68.136 E6.90758
G1 X69.515 Y68.136 E6.92005
G1 X70.798 Y66.854 E6.98021
G1 X71.174 Y66.854 E6.99268
G1 X69.891 Y68.136 E7.05284
G1 X70.267 Y68.136 E7.06531
G1 X71.550 Y66.854 E7.12548
G1 X71.926 Y66.854 E7.13795
G1 X70.643 Y68.136 E7.19811
G1 X71.019 Y68.136 E7.21058
G1 X72.302 Y66.854 E7.27074
G1 X72.678 Y66.854 E7.28321
G1 X71.395 Y68.136 E7.34338
G1 X71.771 Y68.136 E7.35584
G1 X73.054 Y66.854 E7.41601
G1 X73.430 Y66.854 E7.42848
G1 X72.147 Y68.136 E7.48864
G1 X72.523 Y68.136 E7.50111
G1 X73.806 Y66.854 E7.56128
G1 X74.182 Y66.854 E7.57374
G1 X72.899 Y68.136 E7.63391
G1 X73.275 Y68.136 E7.64638
G1 X74.558 Y66.854 E7.70654
G1 X74.934 Y66.854 E7.71901
G1 X73.651 Y68.136 E7.77918
G1 X74.027 Y68.136 E7.79164
G1 X75.310 Y66.854 E7.85181
G1 X75.686 Y66.854 E7.86428
G1 X74.403 Y68.136 E7.92444
G1 X74.779 Y68.136 E7.93691
G1 X76.062 Y66.854 E7.99708
G1 X76.438 Y66.854 E8.00954
G1 X75.155 Y68.136 E8.06971
G1 X75.531 Y68.136 E8.08218
G1 X76.814 Y66.854 E8.14234
G1 X77.190 Y66.854 E8.15481
G1 X75.907 Y68.136 E8.21498
G1 X76.283 Y68.136 E8.22744
G1 X77.566 Y66.854 E8.28761
G1 X77.942 Y66.854 E8.30008
G1 X76.659 Y68.136 E8.36024
G1 X77.035 Y68.136 E8.37271
G1 X78.318 Y66.854 E8.43287
G1 X78.694 Y66.854 E8.44534
G1 X77.411 Y68.136 E8.50551
G1 X77.787 Y68.136 E8.51798
G1 X79.070 Y66.854 E8.57814
G1 X79.446 Y66.854 E8.59061
G1 X78.163 Y68.136 E8.65077
G1 X78.539 Y68.136 E8.66324
G1 X79.822 Y66.854 E8.72341
G1 X80.198 Y66.854 E8.73588
G1 X78.915 Y68.136 E8.79604
G1 X79.291 Y68.136 E8.80851
G1 X80.574 Y66.854 E8.86867
G1 X80.950 Y66.854 E8.88114
G1 X79.667 Y68.136 E8.94131
G1 X80.043 Y68.136 E8.95378
G1 X81.326 Y66.854 E9.01394
G1 X81.702 Y66.854 E9.02641
G1 X80.419 Y68.136 E9.08657
G1 X80.795 Y68.136 E9.09904
G1 X82.078 Y66.854 E9.15921
G1 X82.454 Y66.854 E9.17168
G1 X81.171 Y68.136 E9.23184
G1 X81.547 Y68.136 E9.24431
G1 X82.830 Y66.854 E9.30447
G1 X83.206 Y66.854 E9.31694
G1 X81.923 Y68.136 E9.37711
G1 X82.299 Y68.136 E9.38958
G1 X83.582 Y66.854 E9.44974
G1 X83.958 Y66.854 E9.46221
G1 X82.675 Y68.136 E9.52237
G1 X83.051 Y68.136 E9.53484
G1 X84.334 Y66.854 E9.59501
G1 X84.710 Y66.854 E9.60748
G1 X83.427 Y68.136 E9.66764
G1 X83.803 Y68.136 E9.68011
G1 X85.086 Y66.854 E9.74027
G1 X85.462 Y66.854 E9.75274
G1 X84.179 Y68.136 E9.81291
G1 X84.555 Y68.136 E9.82538
G1 X85.838 Y66.854 E9.88554
G1 X86.214 Y66.854 E9.89801
G1 X84.931 Y68.136 E9.95817
G1 X85.307 Y68.136 E9.97064
G1 X86.590 Y66.854 E10.03081
G1 X86.966 Y66.854 E10.04327
G1 X85.683 Y68.136 E10.10344
G1 X86.059 Y68.136 E10.11591
G1 X87.342 Y66.854 E10.17607
G1 X87.718 Y66.854 E10.18854
G1 X86.435 Y68.136 E10.24871
G1 X86.811 Y68.136 E10.26117
G1 X88.094 Y66.854 E10.32134
G1 X88.470 Y66.854 E10.33381
G1 X87.187 Y68.136 E10.39397
G1 X87.563 Y68.136 E10.40644
G1 X88.846 Y66.854 E10.46661
G1 X89.222 Y66.854 E10.47907
G1 X87.939 Y68.136 E10.53924
G1 X88.315 Y68.136 E10.55171
G1 X89.598 Y66.854 E10.61187
G1 X89.974 Y66.854 E10.62434
G1 X88.691 Y68.136 E10.68451
G1 X89.067 Y68.136 E10.69697
G1 X90.350 Y66.854 E10.75714
G1 X90.726 Y66.854 E10.76961
G1 X89.443 Y68.136 E10.82977
G1 X89.819 Y68.136 E10.84224
G1 X91.102 Y66.854 E10.90240
G1 X91.478 Y66.854 E10.91487
G1 X90.195 Y68.136 E10.97504
G1 X90.571 Y68.136 E10.98751
G1 X91.854 Y66.854 E11.04767
G1 X92.230 Y66.854 E11.06014
G1 X90.947 Y68.136 E11.12030
G1 X91.323 Y68.136 E11.13277
G1 X92.606 Y66.854 E11.19294
G1 X92.982 Y66.854 E11.20541
G1 X91.699 Y68.136 E11.26557
G1 X92.075 Y68.136 E11.27804
G1 X93.358 Y66.854 E11.33820
G1 X93.734 Y66.854 E11.35067
G1 X92.451 Y68.136 E11.41084
G1 X92.827 Y68.136 E11.42331
G1 X94.110 Y66.854 E11.48347
G1 X94.486 Y66.854 E11.49594
G1 X93.203 Y68.136 E11.55610
G1 X93.579 Y68.136 E11.56857
G1 X94.862 Y66.854 E11.62874
G1 X95.238 Y66.854 E11.64121
G1 X93.955 Y68.136 E11.70137
G1 X94.331 Y68.136 E11.71384
G1 X95.614 Y66.854 E11.77400
G1 X95.990 Y66.854 E11.78647
G1 X94.707 Y68.136 E11.84664
G1 X95.083 Y68.136 E11.85911
G1 X96.366 Y66.854 E11.91927
G1 X96.742 Y66.854 E11.93174
G1 X95.459 Y68.136 E11.99190
G1 X95.835 Y68.136 E12.00437
G1 X97.118 Y66.854 E12.06454
G1 X97.494 Y66.854 E12.07700
G1 X96.211 Y68.136 E12.13717
G1 X96.587 Y68.136 E12.14964
G1 X97.870 Y66.854 E12.20980
G1 X98.246 Y66.854 E12.22227
G1 X96.963 Y68.136 E12.28244
G1 X97.339 Y68.136 E12.29490
G1 X98.622 Y66.854 E12.35507
G1 X98.998 Y66.854 E12.36754
G1 X97.715 Y68.136 E12.42770
G1 X98.091 Y68.136 E12.44017
G1 X99.374 Y66.854 E12.50034
G1 X99.750 Y66.854 E12.51280
G1 X98.467 Y68.136 E12.57297
G1 X98.843 Y68.136 E12.58544
G1 X100.126 Y66.854 E12.64560
G1 X100.502 Y66.854 E12.65807
G1 X99.219 Y68.136 E12.71824
G1 X99.595 Y68.136 E12.73070
G1 X100.878 Y66.854 E12.79087
G1 X101.254 Y66.854 E12.80334
G1 X99.936 Y68.172 E12.86515
G1 X99.936 Y68.548 E12.87762
G1 X101.630 Y66.854 E12.95707
G1 X102.006 Y66.854 E12.96954
G1 X99.936 Y68.924 E13.06662
G1 X99.936 Y69.300 E13.07909
G1 X102.382 Y66.854 E13.19380
G1 X102.721 Y66.854 E13.20504
G1 X102.721 Y66.890 E13.20627
G1 X99.936 Y69.676 E13.33688
G1 X99.936 Y70.052 E13.34935
G1 X102.721 Y67.266 E13.47997
G1 X102.721 Y67.642 E13.49243
G1 X99.936 Y70.428 E13.62305
G1 X99.936 Y70.804 E13.63552
G1 X102.721 Y68.018 E13.76613
G1 X102.721 Y68.394 E13.77860
G1 X99.936 Y71.180 E13.90921
G1 X99.936 Y71.556 E13.92168
G1 X102.721 Y68.770 E14.05230
G1 X102.721 Y69.146 E14.06476
G1 X99.936 Y71.932 E14.19538
G1 X99.936 Y72.308 E14.20785
G1 X102.721 Y69.522 E14.33846
G1 X102.721 Y69.898 E14.35093
G1 X99.936 Y72.684 E14.48154
G1 X99.936 Y73.060 E14.49401
G1 X102.721 Y70.274 E14.62463
G1 X102.721 Y70.650 E14.63709
G1 X99.936 Y73.436 E14.76771
G1 X99.936 Y73.812 E14.78018
G1 X102.721 Y71.026 E14.91079
G1 X102.721 Y71.402 E14.92326
G1 X99.936 Y74.188 E15.05387
G1 X99.936 Y74.564 E15.06634
G1 X102.721 Y71.778 E15.19695
G1 X102.721 Y72.154 E15.20942
G1 X99.936 Y74.940 E15.34004
G1 X99.936 Y75.316 E15.35251
G1 X102.721 Y72.530 E15.48312
G1 X102.721 Y72.906 E15.49559
G1 X99.936 Y75.692 E15.62620
G1 X99.936 Y76.068 E15.63867
G1 X102.721 Y73.282 E15.76928
G1 X102.721 Y73.658 E15.78175
G1 X99.936 Y76.444 E15.91237
G1 X99.936 Y76.820 E15.92484
G1 X102.721 Y74.034 E16.05545
G1 X102.721 Y74.410 E16.06792
G1 X99.936 Y77.196 E16.19853
G1 X99.936 Y77.572 E16.21100
G1 X102.721 Y74.786 E16.34161
G1 X102.721 Y75.162 E16.35408
G1 X99.936 Y77.948 E16.48470
G1 X99.936 Y78.324 E16.49716
G1 X102.721 Y75.538 E16.62778
G1 X102.721 Y75.914 E16.64025
G1 X99.936 Y78.700 E16.77086
G1 X99.936 Y79.076 E16.78333
G1 X102.721 Y76.290 E16.91394
G1 X102.694 Y76.693 E16.92733
G1 X99.936 Y79.452 E17.05669
G1 X99.936 Y79.828 E17.06916
G1 X102.665 Y77.098 E17.19716
G1 X102.636 Y77.503 E17.21062
G1 X99.936 Y80.204 E17.33727
G1 X99.936 Y80.580 E17.34973
G1 X102.576 Y77.939 E17.47355
G1 X102.491 Y78.400 E17.48907
G1 X99.936 Y80.956 E17.60893
G1 X99.936 Y81.332 E17.62140
G1 X102.393 Y78.874 E17.73666
G1 X102.236 Y79.407 E17.75511
G1 X99.936 Y81.708 E17.86297
G1 X99.936 Y82.084 E17.87544
G1 X102.060 Y79.960 E17.97505
G1 X101.774 Y80.621 E17.99893
G1 X99.936 Y82.460 E18.08516
G1 X99.936 Y82.836 E18.09762
G1 X101.343 Y81.428 E18.16364
G1 X101.136 Y81.786 E18.17736
G1 X100.557 Y82.563 E18.20951
G1 X100.001 Y83.146 E18.23624
M106 S255
G1 Z0.500 F7800.000
G1 E16.23624 F2400.00000
