; generated by Slic3r 1.3.1-dev (Build 2d100c4) on 2020-06-09 at 16:37:39

; external perimeters extrusion width = 0.44mm (2.86mm^3/s)
; perimeters extrusion width = 0.56mm (4.14mm^3/s)
; infill extrusion width = 0.50mm (3.66mm^3/s)
; solid infill extrusion width = 0.56mm (3.10mm^3/s)
; top infill extrusion width = 0.56mm (3.10mm^3/s)

M107
G92 E0
;D3D:START:START
T0
M104 S215 T0

G21
G90
M107
T0
G28
G29
M109 T0 S215 T0
G0 F3000
M107
T0
G92 E0
G0 X0 Y149 Z0.1 F3600
G1 Y49 E6.5 F1200
G0 Z1
G92 E0
; Filament gcode

G21 ; set units to millimeters
G90 ; use absolute coordinates
M82 ; use absolute distances for extrusion
G92 E0
G1 Z0.300 F7800.000
G1 E-2.00000 F2400.00000
G92 E0
G1 X67.335 Y54.422 F7800.000
G1 E2.00000 F2400.00000
G1 F1800.000
G1 X82.665 Y54.422 E2.50788
G1 X82.665 Y105.914 E4.21377
G1 X67.335 Y105.914 E4.72165
G1 X67.335 Y54.482 E6.42556
G1 X67.296 Y54.024 F7800.000
G1 E4.42556 F2400.00000
G92 E0
G1 X69.093 Y53.094 F7800.000
G1 E2.00000 F2400.00000
G1 F1800.000
G1 X70.100 Y51.022 E2.07633
G1 X71.289 Y48.681 E2.16330
G1 X72.398 Y46.581 E2.24199
G1 X73.405 Y44.738 E2.31157
G1 X75.000 Y41.950 E2.41799
G1 X75.711 Y43.167 E2.46469
G1 X76.917 Y45.320 E2.54644
G1 X78.713 Y48.685 E2.67281
G1 X79.900 Y51.022 E2.75966
G1 X80.907 Y53.094 E2.83599
G1 X69.153 Y53.094 E3.22540
G1 X68.675 Y53.360 F7800.000
G1 F1800.000
G1 X69.863 Y50.904 E3.31579
G1 X71.053 Y48.559 E3.40289
G1 X72.164 Y46.455 E3.48171
G1 X73.172 Y44.609 E3.55142
G1 X74.323 Y42.574 E3.62887
G1 X75.001 Y41.425 E3.67306
G1 X75.941 Y43.035 E3.73483
G1 X77.150 Y45.192 E3.81676
G1 X78.948 Y48.562 E3.94330
G1 X80.137 Y50.904 E4.03030
G1 X81.325 Y53.360 E4.12069
G1 X68.735 Y53.360 E4.53777
G1 X68.258 Y53.626 F7800.000
G1 F1800.000
G1 X68.800 Y52.466 E4.58018
G1 X69.625 Y50.785 E4.64222
G1 X70.817 Y48.437 E4.72946
G1 X71.930 Y46.330 E4.80841
G1 X72.940 Y44.480 E4.87824
G1 X74.093 Y42.441 E4.95584
G1 X75.002 Y40.900 E5.01510
G1 X76.172 Y42.903 E5.09195
G1 X77.383 Y45.065 E5.17404
G1 X79.184 Y48.439 E5.30076
G1 X80.375 Y50.785 E5.38792
G1 X81.200 Y52.468 E5.45001
G1 X81.742 Y53.626 E5.49236
G1 X68.318 Y53.626 E5.93712
G1 X67.840 Y53.891 F7800.000
G1 F1800.000
G1 X68.561 Y52.351 E5.99345
G1 X69.387 Y50.666 E6.05563
G1 X70.581 Y48.315 E6.14299
G1 X71.696 Y46.204 E6.22208
G1 X72.708 Y44.351 E6.29204
G1 X73.863 Y42.308 E6.36978
G1 X74.995 Y40.389 E6.44361
G1 X76.402 Y42.771 E6.53529
G1 X77.616 Y44.937 E6.61755
G1 X79.419 Y48.317 E6.74445
G1 X80.613 Y50.666 E6.83175
G1 X81.440 Y52.353 E6.89398
G1 X82.160 Y53.891 E6.95026
G1 X67.900 Y53.891 E7.42269
G1 X67.422 Y54.157 F7800.000
G1 F1800.000
G1 X68.321 Y52.237 E7.49293
G1 X69.150 Y50.548 E7.55525
G1 X70.345 Y48.193 E7.64275
G1 X71.462 Y46.078 E7.72197
G1 X72.476 Y44.222 E7.79206
G1 X73.633 Y42.175 E7.86994
G1 X74.706 Y40.356 E7.93990
G1 X75.001 Y39.899 E7.95794
G1 X75.442 Y40.601 E7.98544
G1 X76.633 Y42.639 E8.06363
G1 X77.849 Y44.810 E8.14606
G1 X79.655 Y48.194 E8.27314
G1 X80.850 Y50.548 E8.36059
G1 X81.679 Y52.238 E8.42296
G1 X82.578 Y54.157 E8.49315
G1 X67.482 Y54.157 E8.99326
G1 E6.99326 F2400.00000
G92 E0
G1 X87.219 Y88.028 F7800.000
G1 E2.00000 F2400.00000
G1 F1800.000
G1 X87.558 Y87.868 E2.01241
G1 X87.915 Y87.752 E2.02483
G1 X88.403 Y87.675 E2.04121
G1 X88.778 Y87.675 E2.05362
G1 X89.149 Y87.722 E2.06604
G1 X89.643 Y87.865 E2.08306
G1 X90.118 Y88.107 E2.10072
G1 X90.539 Y88.434 E2.11839
G1 X90.892 Y88.834 E2.13606
G1 X91.163 Y89.293 E2.15372
G1 X91.344 Y89.795 E2.17139
G1 X91.427 Y90.321 E2.18905
G1 X91.411 Y90.854 E2.20671
G1 X91.294 Y91.375 E2.22438
G1 X91.083 Y91.864 E2.24205
G1 X90.783 Y92.305 E2.25971
G1 X90.406 Y92.682 E2.27737
G1 X89.981 Y92.971 E2.29440
G1 X89.642 Y93.130 E2.30681
G1 X89.285 Y93.246 E2.31923
G1 X88.797 Y93.323 E2.33560
G1 X88.422 Y93.323 E2.34802
G1 X88.050 Y93.276 E2.36044
G1 X87.557 Y93.133 E2.37746
G1 X87.082 Y92.891 E2.39512
G1 X86.661 Y92.564 E2.41279
G1 X86.308 Y92.164 E2.43045
G1 X86.037 Y91.705 E2.44812
G1 X85.856 Y91.204 E2.46578
G1 X85.773 Y90.677 E2.48344
G1 X85.789 Y90.144 E2.50111
G1 X85.906 Y89.624 E2.51878
G1 X86.117 Y89.134 E2.53644
G1 X86.417 Y88.693 E2.55411
G1 X86.794 Y88.316 E2.57177
G1 X87.170 Y88.061 E2.58681
G1 X87.351 Y88.259 F7800.000
G1 F1800.000
G1 X87.656 Y88.115 E2.59797
G1 X87.977 Y88.011 E2.60914
G1 X88.424 Y87.940 E2.62413
G1 X88.761 Y87.940 E2.63531
G1 X89.095 Y87.983 E2.64647
G1 X89.545 Y88.113 E2.66197
G1 X89.975 Y88.332 E2.67797
G1 X90.357 Y88.629 E2.69398
G1 X90.676 Y88.991 E2.70998
G1 X90.922 Y89.407 E2.72598
G1 X91.085 Y89.861 E2.74198
G1 X91.161 Y90.338 E2.75798
G1 X91.146 Y90.821 E2.77398
G1 X91.041 Y91.292 E2.78998
G1 X90.849 Y91.735 E2.80598
G1 X90.577 Y92.135 E2.82198
G1 X90.236 Y92.476 E2.83798
G1 X89.849 Y92.739 E2.85348
G1 X89.544 Y92.883 E2.86465
G1 X89.223 Y92.987 E2.87582
G1 X88.776 Y93.058 E2.89081
G1 X88.439 Y93.058 E2.90198
G1 X88.105 Y93.016 E2.91315
G1 X87.655 Y92.885 E2.92865
G1 X87.225 Y92.666 E2.94465
G1 X86.843 Y92.370 E2.96065
G1 X86.524 Y92.007 E2.97665
G1 X86.278 Y91.592 E2.99265
G1 X86.114 Y91.137 E3.00866
G1 X86.039 Y90.660 E3.02465
G1 X86.054 Y90.178 E3.04065
G1 X86.159 Y89.706 E3.05666
G1 X86.351 Y89.263 E3.07266
G1 X86.623 Y88.863 E3.08866
G1 X86.964 Y88.522 E3.10466
G1 X87.302 Y88.293 E3.11817
G1 X87.483 Y88.490 F7800.000
G1 F1800.000
G1 X87.754 Y88.363 E3.12810
G1 X88.039 Y88.270 E3.13802
G1 X88.445 Y88.206 E3.15162
G1 X88.744 Y88.206 E3.16155
G1 X89.041 Y88.244 E3.17147
G1 X89.446 Y88.361 E3.18545
G1 X89.832 Y88.558 E3.19978
G1 X90.174 Y88.823 E3.21412
G1 X90.460 Y89.148 E3.22846
G1 X90.680 Y89.520 E3.24280
G1 X90.827 Y89.927 E3.25713
G1 X90.895 Y90.355 E3.27147
G1 X90.881 Y90.787 E3.28581
G1 X90.787 Y91.210 E3.30015
G1 X90.615 Y91.607 E3.31448
G1 X90.372 Y91.965 E3.32882
G1 X90.066 Y92.271 E3.34316
G1 X89.717 Y92.508 E3.35713
G1 X89.446 Y92.635 E3.36705
G1 X89.161 Y92.728 E3.37698
G1 X88.755 Y92.792 E3.39058
G1 X88.456 Y92.792 E3.40051
G1 X88.159 Y92.755 E3.41043
G1 X87.754 Y92.637 E3.42440
G1 X87.368 Y92.441 E3.43874
G1 X87.026 Y92.175 E3.45308
G1 X86.740 Y91.851 E3.46742
G1 X86.520 Y91.478 E3.48175
G1 X86.373 Y91.071 E3.49609
G1 X86.305 Y90.644 E3.51043
G1 X86.319 Y90.211 E3.52476
G1 X86.413 Y89.789 E3.53910
G1 X86.585 Y89.391 E3.55344
G1 X86.828 Y89.033 E3.56778
G1 X87.134 Y88.727 E3.58212
G1 X87.434 Y88.524 E3.59410
G1 X87.615 Y88.722 F7800.000
G1 F1800.000
G1 X87.852 Y88.610 E3.60278
G1 X88.101 Y88.529 E3.61146
G1 X88.466 Y88.472 E3.62368
G1 X88.728 Y88.472 E3.63236
G1 X88.987 Y88.505 E3.64103
G1 X89.348 Y88.609 E3.65348
G1 X89.689 Y88.783 E3.66615
G1 X89.991 Y89.017 E3.67883
G1 X90.244 Y89.304 E3.69150
G1 X90.439 Y89.634 E3.70418
G1 X90.569 Y89.994 E3.71685
G1 X90.628 Y90.371 E3.72952
G1 X90.617 Y90.754 E3.74220
G1 X90.533 Y91.127 E3.75487
G1 X90.381 Y91.478 E3.76755
G1 X90.166 Y91.795 E3.78022
G1 X89.896 Y92.065 E3.79289
G1 X89.585 Y92.276 E3.80534
G1 X89.348 Y92.388 E3.81402
G1 X89.099 Y92.469 E3.82270
G1 X88.734 Y92.527 E3.83492
G1 X88.472 Y92.527 E3.84360
G1 X88.213 Y92.494 E3.85227
G1 X87.852 Y92.389 E3.86472
G1 X87.511 Y92.215 E3.87739
G1 X87.209 Y91.981 E3.89007
G1 X86.956 Y91.694 E3.90274
G1 X86.761 Y91.365 E3.91542
G1 X86.631 Y91.005 E3.92809
G1 X86.572 Y90.627 E3.94076
G1 X86.583 Y90.244 E3.95344
G1 X86.667 Y89.871 E3.96611
G1 X86.819 Y89.520 E3.97879
G1 X87.034 Y89.204 E3.99146
G1 X87.304 Y88.933 E4.00413
G1 X87.566 Y88.756 E4.01459
G1 X87.747 Y88.953 F7800.000
G1 F1800.000
G1 X87.950 Y88.858 E4.02202
G1 X88.163 Y88.788 E4.02946
G1 X88.487 Y88.737 E4.04029
G1 X88.711 Y88.737 E4.04773
G1 X88.933 Y88.765 E4.05515
G1 X89.250 Y88.857 E4.06608
G1 X89.546 Y89.008 E4.07709
G1 X89.809 Y89.212 E4.08810
G1 X90.028 Y89.461 E4.09911
G1 X90.198 Y89.747 E4.11012
G1 X90.310 Y90.060 E4.12113
G1 X90.362 Y90.388 E4.13214
G1 X90.352 Y90.720 E4.14315
G1 X90.279 Y91.045 E4.15416
G1 X90.147 Y91.350 E4.16517
G1 X89.961 Y91.625 E4.17618
G1 X89.726 Y91.860 E4.18719
G1 X89.453 Y92.045 E4.19812
G1 X89.250 Y92.141 E4.20555
G1 X89.037 Y92.210 E4.21298
G1 X88.713 Y92.261 E4.22381
G1 X88.489 Y92.261 E4.23125
G1 X88.267 Y92.233 E4.23868
G1 X87.950 Y92.141 E4.24960
G1 X87.654 Y91.990 E4.26061
G1 X87.391 Y91.786 E4.27162
G1 X87.172 Y91.537 E4.28263
G1 X87.002 Y91.251 E4.29364
G1 X86.890 Y90.938 E4.30465
G1 X86.838 Y90.610 E4.31566
G1 X86.848 Y90.278 E4.32667
G1 X86.921 Y89.954 E4.33768
G1 X87.053 Y89.648 E4.34869
G1 X87.239 Y89.374 E4.35970
G1 X87.474 Y89.139 E4.37071
G1 X87.698 Y88.987 E4.37965
G1 X87.747 Y88.729 F7800.000
G1 E2.37965 F2400.00000
G92 E0
G1 X83.084 Y107.360 F7800.000
G1 E2.00000 F2400.00000
G1 F1800.000
G1 X82.733 Y107.566 E2.01348
G1 X82.100 Y107.900 E2.03720
G1 X81.453 Y108.202 E2.06084
G1 X80.791 Y108.473 E2.08456
G1 X80.113 Y108.713 E2.10839
G1 X79.422 Y108.922 E2.13228
G1 X78.717 Y109.099 E2.15638
G1 X77.998 Y109.245 E2.18068
G1 X77.266 Y109.359 E2.20522
G1 X76.520 Y109.440 E2.23008
G1 X75.759 Y109.489 E2.25536
G1 X75.005 Y109.503 E2.28035
G1 X74.241 Y109.489 E2.30564
G1 X73.480 Y109.440 E2.33092
G1 X72.734 Y109.359 E2.35578
G1 X72.002 Y109.245 E2.38032
G1 X71.283 Y109.099 E2.40462
G1 X70.578 Y108.922 E2.42871
G1 X69.886 Y108.713 E2.45264
G1 X69.209 Y108.473 E2.47646
G1 X68.547 Y108.202 E2.50015
G1 X67.898 Y107.899 E2.52387
G1 X66.916 Y107.360 E2.56099
G1 X66.948 Y107.242 E2.56502
G1 X83.052 Y107.242 E3.09852
G1 X83.068 Y107.302 E3.10057
G1 E1.10057 F2400.00000
G92 E0
G1 X63.583 Y92.305 F7800.000
G1 E2.00000 F2400.00000
G1 F1800.000
G1 X63.206 Y92.682 E2.01766
G1 X62.781 Y92.971 E2.03469
G1 X62.442 Y93.130 E2.04710
G1 X62.085 Y93.246 E2.05952
G1 X61.597 Y93.323 E2.07589
G1 X61.222 Y93.323 E2.08831
G1 X60.850 Y93.276 E2.10073
G1 X60.357 Y93.133 E2.11775
G1 X59.882 Y92.891 E2.13541
G1 X59.461 Y92.564 E2.15308
G1 X59.108 Y92.164 E2.17074
G1 X58.837 Y91.705 E2.18841
G1 X58.656 Y91.204 E2.20607
G1 X58.573 Y90.677 E2.22373
G1 X58.589 Y90.144 E2.24140
G1 X58.706 Y89.624 E2.25907
G1 X58.917 Y89.134 E2.27673
G1 X59.217 Y88.693 E2.29440
G1 X59.594 Y88.316 E2.31206
G1 X60.019 Y88.028 E2.32908
G1 X60.358 Y87.868 E2.34150
G1 X60.715 Y87.752 E2.35391
G1 X61.203 Y87.675 E2.37029
G1 X61.578 Y87.675 E2.38271
G1 X61.949 Y87.722 E2.39512
G1 X62.443 Y87.865 E2.41214
G1 X62.918 Y88.107 E2.42981
G1 X63.339 Y88.434 E2.44747
G1 X63.692 Y88.834 E2.46514
G1 X63.963 Y89.293 E2.48280
G1 X64.144 Y89.795 E2.50047
G1 X64.227 Y90.321 E2.51813
G1 X64.211 Y90.854 E2.53579
G1 X64.094 Y91.375 E2.55346
G1 X63.883 Y91.864 E2.57113
G1 X63.617 Y92.255 E2.58681
G1 X63.377 Y92.135 F7800.000
G1 F1800.000
G1 X63.036 Y92.476 E2.60280
G1 X62.649 Y92.739 E2.61830
G1 X62.344 Y92.883 E2.62947
G1 X62.023 Y92.987 E2.64064
G1 X61.576 Y93.058 E2.65563
G1 X61.239 Y93.058 E2.66681
G1 X60.905 Y93.016 E2.67797
G1 X60.455 Y92.885 E2.69347
G1 X60.025 Y92.666 E2.70947
G1 X59.643 Y92.370 E2.72547
G1 X59.324 Y92.007 E2.74148
G1 X59.078 Y91.592 E2.75748
G1 X58.914 Y91.137 E2.77348
G1 X58.839 Y90.660 E2.78947
G1 X58.854 Y90.178 E2.80548
G1 X58.959 Y89.706 E2.82148
G1 X59.151 Y89.263 E2.83748
G1 X59.423 Y88.863 E2.85348
G1 X59.764 Y88.522 E2.86948
G1 X60.151 Y88.259 E2.88498
G1 X60.456 Y88.115 E2.89615
G1 X60.777 Y88.011 E2.90732
G1 X61.224 Y87.940 E2.92231
G1 X61.561 Y87.940 E2.93348
G1 X61.895 Y87.983 E2.94465
G1 X62.345 Y88.113 E2.96015
G1 X62.775 Y88.332 E2.97615
G1 X63.157 Y88.629 E2.99215
G1 X63.476 Y88.991 E3.00815
G1 X63.722 Y89.407 E3.02415
G1 X63.885 Y89.861 E3.04016
G1 X63.961 Y90.338 E3.05615
G1 X63.946 Y90.821 E3.07215
G1 X63.841 Y91.292 E3.08816
G1 X63.649 Y91.735 E3.10416
G1 X63.411 Y92.085 E3.11817
G1 X63.172 Y91.965 F7800.000
G1 F1800.000
G1 X62.866 Y92.271 E3.13251
G1 X62.517 Y92.508 E3.14648
G1 X62.246 Y92.635 E3.15641
G1 X61.961 Y92.728 E3.16633
G1 X61.555 Y92.792 E3.17994
G1 X61.256 Y92.792 E3.18986
G1 X60.959 Y92.755 E3.19978
G1 X60.554 Y92.637 E3.21376
G1 X60.168 Y92.441 E3.22809
G1 X59.826 Y92.175 E3.24243
G1 X59.540 Y91.851 E3.25677
G1 X59.320 Y91.478 E3.27111
G1 X59.173 Y91.071 E3.28544
G1 X59.105 Y90.644 E3.29978
G1 X59.119 Y90.211 E3.31412
G1 X59.213 Y89.789 E3.32846
G1 X59.385 Y89.391 E3.34279
G1 X59.628 Y89.033 E3.35713
G1 X59.934 Y88.727 E3.37147
G1 X60.283 Y88.490 E3.38544
G1 X60.554 Y88.363 E3.39536
G1 X60.839 Y88.270 E3.40529
G1 X61.245 Y88.206 E3.41889
G1 X61.544 Y88.206 E3.42882
G1 X61.841 Y88.244 E3.43874
G1 X62.246 Y88.361 E3.45272
G1 X62.632 Y88.558 E3.46705
G1 X62.974 Y88.823 E3.48139
G1 X63.260 Y89.148 E3.49573
G1 X63.480 Y89.520 E3.51006
G1 X63.627 Y89.927 E3.52440
G1 X63.695 Y90.355 E3.53874
G1 X63.681 Y90.787 E3.55307
G1 X63.587 Y91.210 E3.56742
G1 X63.415 Y91.607 E3.58175
G1 X63.205 Y91.915 E3.59410
G1 X62.966 Y91.795 F7800.000
G1 F1800.000
G1 X62.696 Y92.065 E3.60678
G1 X62.385 Y92.276 E3.61922
G1 X62.148 Y92.388 E3.62790
G1 X61.899 Y92.469 E3.63658
G1 X61.534 Y92.527 E3.64880
G1 X61.272 Y92.527 E3.65748
G1 X61.013 Y92.494 E3.66616
G1 X60.652 Y92.389 E3.67860
G1 X60.311 Y92.215 E3.69128
G1 X60.009 Y91.981 E3.70395
G1 X59.756 Y91.694 E3.71663
G1 X59.561 Y91.365 E3.72930
G1 X59.431 Y91.005 E3.74197
G1 X59.372 Y90.627 E3.75464
G1 X59.383 Y90.244 E3.76732
G1 X59.467 Y89.871 E3.77999
G1 X59.619 Y89.520 E3.79267
G1 X59.834 Y89.204 E3.80534
G1 X60.104 Y88.933 E3.81802
G1 X60.415 Y88.722 E3.83046
G1 X60.652 Y88.610 E3.83914
G1 X60.901 Y88.529 E3.84782
G1 X61.266 Y88.472 E3.86004
G1 X61.528 Y88.472 E3.86872
G1 X61.787 Y88.505 E3.87739
G1 X62.148 Y88.609 E3.88984
G1 X62.489 Y88.783 E3.90252
G1 X62.791 Y89.017 E3.91519
G1 X63.044 Y89.304 E3.92787
G1 X63.239 Y89.634 E3.94054
G1 X63.369 Y89.994 E3.95321
G1 X63.428 Y90.371 E3.96589
G1 X63.417 Y90.754 E3.97856
G1 X63.333 Y91.127 E3.99123
G1 X63.181 Y91.478 E4.00391
G1 X63.000 Y91.745 E4.01459
G1 X62.760 Y91.625 F7800.000
G1 F1800.000
G1 X62.526 Y91.860 E4.02560
G1 X62.253 Y92.045 E4.03653
G1 X62.050 Y92.141 E4.04396
G1 X61.837 Y92.210 E4.05139
G1 X61.513 Y92.261 E4.06223
G1 X61.289 Y92.261 E4.06966
G1 X61.067 Y92.233 E4.07709
G1 X60.750 Y92.141 E4.08801
G1 X60.454 Y91.990 E4.09902
G1 X60.191 Y91.786 E4.11003
G1 X59.972 Y91.537 E4.12104
G1 X59.802 Y91.251 E4.13205
G1 X59.690 Y90.938 E4.14306
G1 X59.638 Y90.610 E4.15407
G1 X59.648 Y90.278 E4.16508
G1 X59.721 Y89.954 E4.17609
G1 X59.853 Y89.648 E4.18711
G1 X60.039 Y89.374 E4.19812
G1 X60.274 Y89.139 E4.20912
G1 X60.547 Y88.953 E4.22005
G1 X60.750 Y88.858 E4.22748
G1 X60.963 Y88.788 E4.23491
G1 X61.287 Y88.737 E4.24575
G1 X61.511 Y88.737 E4.25318
G1 X61.733 Y88.765 E4.26061
G1 X62.050 Y88.857 E4.27153
G1 X62.346 Y89.008 E4.28254
G1 X62.609 Y89.212 E4.29355
G1 X62.828 Y89.461 E4.30456
G1 X62.998 Y89.747 E4.31557
G1 X63.110 Y90.060 E4.32658
G1 X63.162 Y90.388 E4.33759
G1 X63.152 Y90.720 E4.34860
G1 X63.079 Y91.045 E4.35962
G1 X62.947 Y91.350 E4.37063
G1 X62.794 Y91.575 E4.37965
G1 X62.876 Y91.936 F7800.000
G1 E2.37965 F2400.00000
G92 E0
G1 X58.718 Y92.027 F7800.000
G1 E2.00000 F2400.00000
G1 F1800.000
G1 X58.892 Y92.321 E2.01134
G1 X59.278 Y92.759 E2.03067
G1 X59.739 Y93.116 E2.05000
G1 X60.259 Y93.381 E2.06932
G1 X60.796 Y93.537 E2.08787
G1 X61.206 Y93.589 E2.10153
G1 X61.618 Y93.589 E2.11520
G1 X62.148 Y93.505 E2.13296
G1 X62.540 Y93.378 E2.14662
G1 X62.913 Y93.202 E2.16028
G1 X63.376 Y92.888 E2.17883
G1 X63.788 Y92.475 E2.19816
G1 X64.116 Y91.993 E2.21748
G1 X64.348 Y91.457 E2.23681
G1 X64.475 Y90.888 E2.25615
G1 X64.494 Y90.304 E2.27547
G1 X64.402 Y89.728 E2.29480
G1 X64.205 Y89.179 E2.31413
G1 X63.908 Y88.677 E2.33345
G1 X63.522 Y88.240 E2.35278
G1 X63.061 Y87.882 E2.37211
G1 X62.541 Y87.617 E2.39144
G1 X62.004 Y87.461 E2.40999
G1 X61.594 Y87.409 E2.42365
G1 X61.182 Y87.409 E2.43731
G1 X60.652 Y87.493 E2.45507
G1 X60.260 Y87.621 E2.46873
G1 X59.887 Y87.796 E2.48239
G1 X59.424 Y88.111 E2.50094
G1 X59.012 Y88.523 E2.52027
G1 X58.684 Y89.006 E2.53960
G1 X58.627 Y89.137 E2.54435
G1 X58.499 Y89.110 E2.54868
G1 X58.556 Y87.276 E2.60947
G1 X58.625 Y86.250 E2.64354
G1 X58.841 Y84.135 E2.71397
G1 X59.152 Y81.980 E2.78611
G1 X59.340 Y80.905 E2.82226
G1 X59.782 Y78.705 E2.89659
G1 X60.303 Y76.487 E2.97207
G1 X60.588 Y75.385 E3.00977
G1 X61.212 Y73.153 E3.08658
G1 X61.543 Y72.051 E3.12469
G1 X62.248 Y69.839 E3.20158
G1 X63.390 Y66.554 E3.31681
G1 X64.605 Y63.346 E3.43046
G1 X65.441 Y61.270 E3.50461
G1 X65.879 Y60.228 E3.54205
