; generated by Slic3r 1.3.0 on 2020-07-29 at 17:52:08

; external perimeters extrusion width = 0.44mm (2.86mm^3/s)
; perimeters extrusion width = 0.56mm (4.14mm^3/s)
; infill extrusion width = 0.50mm (3.66mm^3/s)
; solid infill extrusion width = 0.56mm (3.10mm^3/s)
; top infill extrusion width = 0.56mm (3.10mm^3/s)

M107
;D3D:START:START
T0
M104 S215 T0

G21
G90
M107
T0
G28
G29
M109 T0 S215 T0
G0 F3000
M107
T0
G92 E0
G0 X0 Y149 Z0.1 F3600
G1 Y49 E6.5 F1200
G0 Z1
G92 E0
; Filament gcode

G21 ; set units to millimeters
G90 ; use absolute coordinates
M82 ; use absolute distances for extrusion
G92 E0
G1 Z0.300 F7800.000
G1 E-2.00000 F2400.00000
G92 E0
G1 X66.585 Y66.140 F7800.000
G1 E2.00000 F2400.00000
G1 F1800
G1 X66.585 Y95.944 E2.98737
G1 X65.703 Y95.562 E3.01921
G1 X64.481 Y94.939 E3.06465
G1 X63.300 Y94.241 E3.11009
G1 X62.166 Y93.470 E3.15554
G1 X61.082 Y92.629 E3.20098
G1 X60.053 Y91.722 E3.24643
G1 X59.083 Y90.752 E3.29187
G1 X58.176 Y89.723 E3.33731
G1 X57.335 Y88.639 E3.38276
G1 X56.564 Y87.505 E3.42820
G1 X55.866 Y86.324 E3.47364
G1 X55.243 Y85.102 E3.51909
G1 X54.698 Y83.843 E3.56453
G1 X54.234 Y82.553 E3.60998
G1 X53.851 Y81.235 E3.65542
G1 X53.552 Y79.897 E3.70086
G1 X53.337 Y78.542 E3.74631
G1 X53.208 Y77.176 E3.79175
G1 X53.165 Y75.805 E3.83720
G1 X53.208 Y74.434 E3.88264
G1 X53.337 Y73.069 E3.92808
G1 X53.552 Y71.714 E3.97353
G1 X53.851 Y70.375 E4.01897
G1 X54.234 Y69.058 E4.06442
G1 X54.698 Y67.767 E4.10986
G1 X55.243 Y66.508 E4.15530
G1 X55.866 Y65.286 E4.20075
G1 X56.529 Y64.165 E4.24391
G1 X57.335 Y62.971 E4.29164
G1 X58.176 Y61.887 E4.33707
G1 X59.083 Y60.858 E4.38252
G1 X60.053 Y59.888 E4.42796
G1 X61.082 Y58.981 E4.47341
G1 X62.166 Y58.140 E4.51885
G1 X63.300 Y57.369 E4.56429
G1 X64.481 Y56.671 E4.60974
G1 X65.703 Y56.048 E4.65518
G1 X66.962 Y55.504 E4.70062
G1 X68.253 Y55.039 E4.74607
G1 X69.570 Y54.656 E4.79151
G1 X70.841 Y54.372 E4.83467
G1 X72.264 Y54.142 E4.88240
G1 X73.629 Y54.013 E4.92784
G1 X75.000 Y53.970 E4.97328
G1 X76.302 Y54.011 E5.01645
G1 X77.737 Y54.143 E5.06417
G1 X79.091 Y54.357 E5.10961
G1 X80.430 Y54.656 E5.15505
G1 X81.747 Y55.039 E5.20050
G1 X83.038 Y55.504 E5.24594
G1 X84.297 Y56.048 E5.29139
G1 X85.519 Y56.671 E5.33683
G1 X86.700 Y57.369 E5.38227
G1 X87.834 Y58.140 E5.42772
G1 X88.918 Y58.981 E5.47316
G1 X89.947 Y59.888 E5.51860
G1 X90.917 Y60.858 E5.56405
G1 X91.824 Y61.887 E5.60949
G1 X92.665 Y62.971 E5.65494
G1 X93.436 Y64.105 E5.70038
G1 X94.134 Y65.286 E5.74582
G1 X94.757 Y66.508 E5.79127
G1 X95.274 Y67.704 E5.83443
G1 X95.766 Y69.058 E5.88216
G1 X96.149 Y70.375 E5.92759
G1 X96.448 Y71.714 E5.97304
G1 X96.663 Y73.069 E6.01848
G1 X96.792 Y74.434 E6.06393
G1 X96.835 Y75.805 E6.10937
G1 X96.792 Y77.176 E6.15481
G1 X96.663 Y78.542 E6.20026
G1 X96.448 Y79.897 E6.24570
G1 X96.149 Y81.235 E6.29115
G1 X95.766 Y82.553 E6.33659
G1 X95.302 Y83.843 E6.38203
G1 X94.757 Y85.102 E6.42748
G1 X94.134 Y86.324 E6.47292
G1 X93.436 Y87.505 E6.51837
G1 X92.665 Y88.639 E6.56381
G1 X91.824 Y89.723 E6.60925
G1 X90.917 Y90.752 E6.65470
G1 X89.947 Y91.722 E6.70014
G1 X88.918 Y92.629 E6.74558
G1 X87.834 Y93.470 E6.79103
G1 X86.700 Y94.241 E6.83647
G1 X85.519 Y94.939 E6.88191
G1 X84.297 Y95.562 E6.92736
G1 X83.415 Y95.944 E6.95919
G1 X83.415 Y66.140 E7.94657
G1 X66.645 Y66.140 E8.50215
G1 X66.423 Y65.939 F7800.000
G1 F1800
G1 X53.532 Y78.830 E9.10731
G1 X53.584 Y79.155 E9.11823
G1 X66.423 Y66.315 E9.72098
G1 X66.423 Y66.692 E9.73348
G1 X53.635 Y79.480 E10.33381
G1 X53.686 Y79.804 E10.34473
G1 X66.423 Y67.068 E10.94265
G1 X66.423 Y67.445 E10.95515
G1 X53.748 Y80.120 E11.55020
G1 X53.816 Y80.427 E11.56067
G1 X66.423 Y67.821 E12.15249
G1 X66.423 Y68.197 E12.16499
G1 X53.885 Y80.735 E12.75358
G1 X53.954 Y81.043 E12.76405
G1 X66.423 Y68.574 E13.34942
G1 X66.423 Y68.950 E13.36191
G1 X54.027 Y81.346 E13.94386
G1 X54.111 Y81.638 E13.95395
G1 X66.423 Y69.327 E14.53192
G1 X66.423 Y69.703 E14.54441
G1 X54.196 Y81.930 E15.11841
G1 X54.281 Y82.221 E15.12849
G1 X66.423 Y70.079 E15.69851
G1 X66.423 Y70.456 E15.71100
G1 X54.366 Y82.513 E16.27704
G1 X54.462 Y82.793 E16.28687
G1 X66.423 Y70.832 E16.84838
G1 X66.423 Y71.209 E16.86087
G1 X54.562 Y83.070 E17.41770
G1 X54.661 Y83.346 E17.42747
G1 X66.423 Y71.585 E17.97962
G1 X66.423 Y71.961 E17.99211
G1 X54.761 Y83.623 E18.53959
G1 X54.863 Y83.897 E18.54930
G1 X66.423 Y72.338 E19.09198
G1 X66.423 Y72.714 E19.10447
G1 X54.977 Y84.160 E19.64181
G1 X55.091 Y84.423 E19.65131
G1 X66.423 Y73.091 E20.18331
G1 X66.423 Y73.467 E20.19581
G1 X55.204 Y84.685 E20.72247
G1 X55.318 Y84.948 E20.73198
G1 X66.423 Y73.843 E21.25330
G1 X66.423 Y74.220 E21.26580
G1 X55.438 Y85.205 E21.78150
G1 X55.565 Y85.454 E21.79079
G1 X66.423 Y74.596 E22.30054
G1 X66.423 Y74.973 E22.31303
G1 X55.692 Y85.703 E22.81681
G1 X55.819 Y85.953 E22.82610
G1 X66.423 Y75.349 E23.32391
G1 X66.423 Y75.725 E23.33641
G1 X55.946 Y86.202 E23.82825
G1 X56.081 Y86.444 E23.83744
G1 X66.423 Y76.102 E24.32295
G1 X66.423 Y76.478 E24.33545
G1 X56.221 Y86.680 E24.81440
G1 X56.361 Y86.917 E24.82352
G1 X66.423 Y76.855 E25.29590
G1 X66.423 Y77.231 E25.30840
G1 X56.500 Y87.153 E25.77421
G1 X56.640 Y87.390 E25.78333
G1 X66.423 Y77.607 E26.24258
G1 X66.423 Y77.984 E26.25508
G1 X56.789 Y87.618 E26.70737
G1 X56.941 Y87.842 E26.71636
G1 X66.423 Y78.360 E27.16150
G1 X66.423 Y78.737 E27.17399
G1 X57.093 Y88.066 E27.61198
G1 X57.245 Y88.290 E27.62098
G1 X66.423 Y79.113 E28.05181
G1 X66.423 Y79.489 E28.06431
G1 X57.398 Y88.514 E28.48800
G1 X57.558 Y88.730 E28.49693
G1 X66.423 Y79.866 E28.91308
G1 X66.423 Y80.242 E28.92558
G1 X57.723 Y88.942 E29.33401
G1 X57.887 Y89.154 E29.34292
G1 X66.423 Y80.619 E29.74363
G1 X66.423 Y80.995 E29.75613
G1 X58.052 Y89.366 E30.14912
G1 X58.216 Y89.578 E30.15803
G1 X66.423 Y81.371 E30.54330
G1 X66.423 Y81.748 E30.55580
G1 X58.388 Y89.783 E30.93300
G1 X58.564 Y89.983 E30.94186
G1 X66.423 Y82.124 E31.31078
G1 X66.423 Y82.501 E31.32328
G1 X58.741 Y90.183 E31.68393
G1 X58.917 Y90.383 E31.69278
G1 X66.423 Y82.877 E32.04515
G1 X66.423 Y83.253 E32.05764
G1 X59.093 Y90.583 E32.40173
G1 X59.276 Y90.776 E32.41057
G1 X66.423 Y83.630 E32.74607
G1 X66.423 Y84.006 E32.75857
G1 X59.464 Y90.964 E33.08524
G1 X59.653 Y91.153 E33.09407
G1 X66.423 Y84.383 E33.41191
G1 X66.423 Y84.759 E33.42440
G1 X59.841 Y91.341 E33.73340
G1 X60.029 Y91.529 E33.74224
G1 X66.423 Y85.135 E34.04240
G1 X66.423 Y85.512 E34.05489
G1 X60.223 Y91.712 E34.34597
G1 X60.423 Y91.888 E34.35482
G1 X66.423 Y85.888 E34.63651
G1 X66.423 Y86.265 E34.64900
G1 X60.623 Y92.065 E34.92130
G1 X60.823 Y92.241 E34.93015
G1 X66.423 Y86.641 E35.19305
G1 X66.423 Y87.017 E35.20555
G1 X61.023 Y92.417 E35.45906
G1 X61.227 Y92.589 E35.46793
G1 X66.423 Y87.394 E35.71184
G1 X66.423 Y87.770 E35.72434
G1 X61.439 Y92.754 E35.95830
G1 X61.651 Y92.918 E35.96720
G1 X66.423 Y88.146 E36.19121
G1 X66.423 Y88.523 E36.20371
G1 X61.863 Y93.083 E36.41777
G1 X62.075 Y93.247 E36.42667
G1 X66.423 Y88.899 E36.63078
G1 X66.423 Y89.276 E36.64328
G1 X62.291 Y93.407 E36.83725
G1 X62.515 Y93.560 E36.84624
G1 X66.423 Y89.652 E37.02970
G1 X66.423 Y90.028 E37.04219
G1 X62.739 Y93.712 E37.21512
G1 X62.963 Y93.864 E37.22412
G1 X66.423 Y90.405 E37.38653
G1 X66.423 Y90.781 E37.39902
G1 X63.187 Y94.017 E37.55091
G1 X63.415 Y94.165 E37.55994
G1 X66.423 Y91.158 E37.70112
G1 X66.423 Y91.534 E37.71362
G1 X63.652 Y94.305 E37.84369
G1 X63.888 Y94.445 E37.85282
G1 X66.423 Y91.910 E37.97179
G1 X66.423 Y92.287 E37.98428
G1 X64.125 Y94.585 E38.09215
G1 X64.362 Y94.724 E38.10128
G1 X66.423 Y92.663 E38.19804
G1 X66.423 Y93.040 E38.21054
G1 X64.603 Y94.859 E38.29596
G1 X64.852 Y94.986 E38.30525
G1 X66.423 Y93.416 E38.37897
G1 X66.423 Y93.792 E38.39147
G1 X65.102 Y95.113 E38.45348
G1 X65.351 Y95.240 E38.46277
G1 X66.423 Y94.169 E38.51308
G1 X66.423 Y94.545 E38.52558
G1 X65.600 Y95.368 E38.56418
G1 X65.857 Y95.487 E38.57358
G1 X66.423 Y94.922 E38.60014
G1 X66.423 Y95.298 E38.61263
G1 X66.120 Y95.601 E38.62685
G1 E36.62685 F2400.00000
G92 E0
G1 X89.661 Y91.633 F7800.000
G1 E2.00000 F2400.00000
G1 F1800
G1 X90.828 Y90.466 E2.05479
G1 X91.723 Y89.451 E2.09972
G1 X92.587 Y88.330 E2.14671
G1 X87.524 Y93.393 E2.38440
G1 X86.372 Y94.168 E2.43051
G1 X93.363 Y87.177 E2.75870
G1 X93.908 Y86.256 E2.79423
G1 X85.451 Y94.713 E3.19124
G1 X84.656 Y95.131 E3.22105
G1 X94.326 Y85.462 E3.67501
G1 X94.691 Y84.720 E3.70245
G1 X83.915 Y95.497 E4.20836
G1 X83.577 Y95.643 E4.22057
G1 X83.577 Y95.458 E4.22671
G1 X94.978 Y84.057 E4.76195
G1 X95.237 Y83.421 E4.78472
G1 X83.577 Y95.081 E5.33212
G1 X83.577 Y94.705 E5.34461
G1 X95.449 Y82.833 E5.90194
G1 X95.649 Y82.257 E5.92219
G1 X83.577 Y94.329 E6.48890
G1 X83.577 Y93.952 E6.50139
G1 X95.803 Y81.727 E7.07534
G1 X95.957 Y81.196 E7.09368
G1 X83.577 Y93.576 E7.67486
G1 X83.577 Y93.199 E7.68736
G1 X96.077 Y80.700 E8.27415
G1 X96.185 Y80.215 E8.29064
G1 X83.577 Y92.823 E8.88253
G1 X83.577 Y92.447 E8.89502
G1 X96.292 Y79.732 E9.49195
G1 X96.363 Y79.284 E9.50698
G1 X83.577 Y92.070 E10.10723
G1 X83.577 Y91.694 E10.11972
G1 X96.434 Y78.837 E10.72330
G1 X96.504 Y78.391 E10.73829
G1 X83.577 Y91.317 E11.34514
G1 X83.577 Y90.941 E11.35763
G1 X96.543 Y77.975 E11.96632
G1 X96.582 Y77.559 E11.98019
G1 X83.577 Y90.565 E12.59073
G1 X83.577 Y90.188 E12.60322
G1 X96.622 Y77.144 E13.21560
G1 X96.640 Y76.749 E13.22871
G1 X83.577 Y89.812 E13.84193
G1 X83.577 Y89.435 E13.85443
G1 X96.652 Y76.361 E14.46823
G1 X96.664 Y75.972 E14.48113
G1 X83.577 Y89.059 E15.09551
G1 X83.577 Y88.683 E15.10800
G1 X96.669 Y75.591 E15.72261
G1 X96.658 Y75.226 E15.73473
G1 X83.577 Y88.306 E16.34880
G1 X83.577 Y87.930 E16.36129
G1 X96.646 Y74.861 E16.97482
G1 X96.635 Y74.496 E16.98694
G1 X83.577 Y87.553 E17.59994
G1 X83.577 Y87.177 E17.61243
G1 X96.611 Y74.144 E18.22430
G1 X96.578 Y73.800 E18.23577
G1 X83.577 Y86.801 E18.84611
G1 X83.577 Y86.424 E18.85860
G1 X96.546 Y73.456 E19.46742
G1 X96.513 Y73.112 E19.47889
G1 X83.577 Y86.048 E20.08617
G1 X83.577 Y85.671 E20.09867
G1 X96.468 Y72.781 E20.70384
G1 X96.416 Y72.456 E20.71476
G1 X83.577 Y85.295 E21.31751
G1 X83.577 Y84.919 E21.33000
G1 X96.365 Y72.131 E21.93034
G1 X96.314 Y71.806 E21.94126
G1 X83.577 Y84.542 E22.53917
G1 X83.577 Y84.166 E22.55167
G1 X96.252 Y71.491 E23.14672
G1 X96.184 Y71.183 E23.15719
G1 X83.577 Y83.789 E23.74901
G1 X83.577 Y83.413 E23.76151
G1 X96.115 Y70.875 E24.35011
G1 X96.046 Y70.568 E24.36057
G1 X83.577 Y83.037 E24.94594
G1 X83.577 Y82.660 E24.95843
G1 X95.973 Y70.264 E25.54039
G1 X95.889 Y69.972 E25.55047
G1 X83.577 Y82.284 E26.12844
G1 X83.577 Y81.907 E26.14094
G1 X95.804 Y69.681 E26.71493
G1 X95.719 Y69.389 E26.72501
G1 X83.577 Y81.531 E27.29503
G1 X83.577 Y81.155 E27.30753
G1 X95.634 Y69.097 E27.87357
G1 X95.537 Y68.818 E27.88338
G1 X83.577 Y80.778 E28.44486
G1 X83.577 Y80.402 E28.45736
G1 X95.437 Y68.542 E29.01413
G1 X95.337 Y68.266 E29.02388
G1 X83.577 Y80.025 E29.57594
G1 X83.577 Y79.649 E29.58843
G1 X95.236 Y67.990 E30.13579
G1 X95.136 Y67.714 E30.14554
G1 X83.577 Y79.273 E30.68818
G1 X83.577 Y78.896 E30.70067
G1 X95.023 Y67.450 E31.23801
G1 X94.909 Y67.188 E31.24752
G1 X83.577 Y78.520 E31.77952
G1 X83.577 Y78.143 E31.79201
G1 X94.796 Y66.925 E32.31868
G1 X94.682 Y66.662 E32.32818
G1 X83.577 Y77.767 E32.84951
G1 X83.577 Y77.391 E32.86200
G1 X94.562 Y66.406 E33.37771
G1 X94.435 Y66.156 E33.38700
G1 X83.577 Y77.014 E33.89674
G1 X83.577 Y76.638 E33.90924
G1 X94.308 Y65.907 E34.41301
G1 X94.181 Y65.658 E34.42230
G1 X83.577 Y76.261 E34.92012
G1 X83.577 Y75.885 E34.93261
G1 X94.054 Y65.408 E35.42446
G1 X93.919 Y65.167 E35.43364
G1 X83.577 Y75.509 E35.91916
G1 X83.577 Y75.132 E35.93166
G1 X93.779 Y64.930 E36.41061
G1 X93.639 Y64.694 E36.41973
G1 X83.577 Y74.756 E36.89211
G1 X83.577 Y74.379 E36.90461
G1 X93.500 Y64.457 E37.37042
G1 X93.360 Y64.221 E37.37954
G1 X83.577 Y74.003 E37.83879
G1 X83.577 Y73.627 E37.85129
G1 X93.211 Y63.993 E38.30358
G1 X93.059 Y63.768 E38.31257
G1 X83.577 Y73.250 E38.75771
G1 X83.577 Y72.874 E38.77021
G1 X92.907 Y63.544 E39.20820
G1 X92.755 Y63.320 E39.21719
G1 X83.577 Y72.497 E39.64803
G1 X83.577 Y72.121 E39.66052
G1 X92.602 Y63.096 E40.08422
G1 X92.442 Y62.880 E40.09315
G1 X83.577 Y71.745 E40.50930
G1 X83.577 Y71.368 E40.52179
G1 X92.277 Y62.668 E40.93023
G1 X92.113 Y62.456 E40.93914
G1 X83.577 Y70.992 E41.33985
G1 X83.577 Y70.616 E41.35235
G1 X91.948 Y62.244 E41.74534
G1 X91.784 Y62.032 E41.75425
G1 X83.577 Y70.239 E42.13952
G1 X83.577 Y69.863 E42.15202
G1 X91.612 Y61.828 E42.52923
G1 X91.436 Y61.628 E42.53808
G1 X83.577 Y69.486 E42.90701
G1 X83.577 Y69.110 E42.91950
G1 X91.259 Y61.428 E43.28015
G1 X91.083 Y61.228 E43.28900
G1 X83.577 Y68.734 E43.64137
G1 X83.577 Y68.357 E43.65386
G1 X90.907 Y61.028 E43.99795
G1 X90.827 Y60.937 E44.00198
G1 X90.724 Y60.834 E44.00680
G1 X83.577 Y67.981 E44.34230
G1 X83.577 Y67.604 E44.35480
G1 X90.536 Y60.646 E44.68147
G1 X90.347 Y60.458 E44.69030
G1 X83.577 Y67.228 E45.00814
G1 X83.577 Y66.852 E45.02063
G1 X90.159 Y60.270 E45.32963
G1 X89.971 Y60.081 E45.33847
G1 X83.577 Y66.475 E45.63863
G1 X83.577 Y66.099 E45.65113
G1 X89.778 Y59.899 E45.94221
G1 X89.577 Y59.722 E45.95106
G1 X83.322 Y65.978 E46.24474
G1 X82.945 Y65.978 E46.25724
G1 X89.377 Y59.546 E46.55920
G1 X89.177 Y59.369 E46.56805
G1 X82.569 Y65.978 E46.87830
G1 X82.193 Y65.978 E46.89079
G1 X88.977 Y59.193 E47.20932
G1 X88.773 Y59.021 E47.21818
G1 X81.816 Y65.978 E47.54478
G1 X81.440 Y65.978 E47.55727
G1 X88.561 Y58.857 E47.89158
G1 X88.349 Y58.692 E47.90049
G1 X81.063 Y65.978 E48.24252
G1 X80.687 Y65.978 E48.25502
G1 X88.137 Y58.528 E48.60477
G1 X87.925 Y58.363 E48.61367
G1 X80.311 Y65.978 E48.97114
G1 X79.934 Y65.978 E48.98364
G1 X87.709 Y58.203 E49.34865
G1 X87.485 Y58.051 E49.35764
G1 X79.558 Y65.978 E49.72980
G1 X79.181 Y65.978 E49.74229
G1 X87.261 Y57.898 E50.12160
G1 X87.037 Y57.746 E50.13059
G1 X78.805 Y65.978 E50.51705
G1 X78.429 Y65.978 E50.52954
G1 X86.813 Y57.594 E50.92315
G1 X86.585 Y57.445 E50.93218
G1 X78.052 Y65.978 E51.33274
G1 X77.676 Y65.978 E51.34524
G1 X86.348 Y57.306 E51.75237
G1 X86.112 Y57.166 E51.76149
G1 X77.299 Y65.978 E52.17519
G1 X76.923 Y65.978 E52.18769
G1 X85.875 Y57.026 E52.60795
G1 X85.639 Y56.886 E52.61708
G1 X76.547 Y65.978 E53.04391
G1 X76.170 Y65.978 E53.05640
G1 X85.397 Y56.751 E53.48957
G1 X85.148 Y56.624 E53.49886
G1 X75.794 Y65.978 E53.93799
G1 X75.417 Y65.978 E53.95048
G1 X84.898 Y56.497 E54.39558
G1 X84.649 Y56.370 E54.40487
G1 X75.041 Y65.978 E54.85593
G1 X74.665 Y65.978 E54.86842
G1 X84.400 Y56.243 E55.32544
G1 X84.143 Y56.123 E55.33485
G1 X74.288 Y65.978 E55.79749
G1 X73.912 Y65.978 E55.80998
G1 X83.880 Y56.009 E56.27797
G1 X83.618 Y55.896 E56.28747
G1 X73.535 Y65.978 E56.76079
G1 X73.159 Y65.978 E56.77328
G1 X83.355 Y55.782 E57.25194
G1 X83.092 Y55.668 E57.26144
G1 X72.783 Y65.978 E57.74543
G1 X72.406 Y65.978 E57.75793
G1 X82.818 Y55.566 E58.24672
G1 X82.541 Y55.467 E58.25649
G1 X72.030 Y65.978 E58.74995
G1 X71.653 Y65.978 E58.76245
G1 X82.264 Y55.367 E59.26060
G1 X81.988 Y55.267 E59.27036
G1 X71.277 Y65.978 E59.77319
G1 X70.901 Y65.978 E59.78568
G1 X81.708 Y55.171 E60.29304
G1 X81.416 Y55.086 E60.30312
G1 X70.524 Y65.978 E60.81445
G1 X70.148 Y65.978 E60.82695
G1 X81.124 Y55.001 E61.34226
G1 X80.833 Y54.917 E61.35234
G1 X69.771 Y65.978 E61.87163
G1 X69.395 Y65.978 E61.88413
G1 X80.541 Y54.832 E62.40740
G1 X80.238 Y54.759 E62.41776
G1 X69.019 Y65.978 E62.94445
G1 X68.642 Y65.978 E62.95694
G1 X79.930 Y54.690 E63.48686
G1 X79.622 Y54.621 E63.49732
G1 X68.266 Y65.978 E64.03046
G1 X67.889 Y65.978 E64.04296
G1 X79.315 Y54.553 E64.57933
G1 X78.999 Y54.492 E64.58999
G1 X67.513 Y65.978 E65.12923
G1 X67.137 Y65.978 E65.14172
G1 X78.674 Y54.440 E65.68337
G1 X78.349 Y54.389 E65.69429
G1 X66.760 Y65.978 E66.23836
G1 X66.384 Y65.978 E66.25086
G1 X78.024 Y54.337 E66.79734
G1 X77.693 Y54.292 E66.80845
G1 X53.487 Y78.498 E67.94483
G1 X53.454 Y78.155 E67.95630
G1 X77.348 Y54.261 E69.07802
G1 X77.003 Y54.229 E69.08951
G1 X53.422 Y77.811 E70.19657
G1 X53.389 Y77.467 E70.20804
G1 X76.658 Y54.198 E71.30044
G1 X76.309 Y54.171 E71.31207
G1 X53.365 Y77.114 E72.38919
G1 X53.354 Y76.749 E72.40131
G1 X75.944 Y54.159 E73.46185
G1 X75.579 Y54.148 E73.47397
G1 X53.342 Y76.385 E74.51791
