; generated by Slic3r 1.3.0 on 2020-07-29 at 17:51:58

; external perimeters extrusion width = 0.44mm (2.38mm^3/s)
; perimeters extrusion width = 0.56mm (4.14mm^3/s)
; infill extrusion width = 0.50mm (7.31mm^3/s)
; solid infill extrusion width = 0.56mm (8.27mm^3/s)
; top infill extrusion width = 0.56mm (4.14mm^3/s)

M107
M190 S60 ; set bed temperature and wait for it to be reached
;D3D:START:START
T0
M104 S215 T0

G21
G90
M107
T0
G28
G29
M109 T0 S215 T0
G0 F3000
M107
T0
G92 E0
G0 X0 Y149 Z0.1 F3600
G1 Y49 E6.5 F1200
G0 Z1
G92 E0
; Filament gcode

G21 ; set units to millimeters
G90 ; use absolute coordinates
M82 ; use absolute distances for extrusion
G92 E0
G1 Z0.300 F9000.000
G1 E-3.20000 F4200.00000
G92 E0
G1 Z0.500 F9000.000
G1 X83.685 Y80.769 F9000.000
G1 Z0.300 F9000.000
G1 E3.20000 F4200.00000
M201 X800 Y800
M204 P800 T800
G1 F1200
G1 X83.685 Y111.846 E4.22957
G1 X83.098 Y111.676 E4.24982
G1 X81.778 Y111.201 E4.29631
G1 X80.490 Y110.643 E4.34279
G1 X79.240 Y110.006 E4.38928
G1 X78.032 Y109.292 E4.43576
G1 X76.872 Y108.503 E4.48224
G1 X75.763 Y107.643 E4.52873
G1 X74.711 Y106.715 E4.57521
G1 X73.719 Y105.723 E4.62170
G1 X72.791 Y104.671 E4.66818
G1 X71.931 Y103.562 E4.71467
G1 X71.142 Y102.402 E4.76115
G1 X70.428 Y101.194 E4.80763
G1 X69.791 Y99.944 E4.85412
G1 X69.233 Y98.656 E4.90060
G1 X68.758 Y97.336 E4.94709
G1 X68.367 Y95.988 E4.99357
G1 X68.061 Y94.619 E5.04005
G1 X67.835 Y93.163 E5.08887
G1 X67.709 Y91.836 E5.13302
G1 X67.665 Y90.434 E5.17951
G1 X67.709 Y89.032 E5.22599
G1 X67.835 Y87.705 E5.27014
G1 X68.061 Y86.249 E5.31896
G1 X68.367 Y84.880 E5.36544
G1 X68.758 Y83.532 E5.41192
G1 X69.233 Y82.212 E5.45841
G1 X69.791 Y80.924 E5.50489
G1 X70.428 Y79.674 E5.55138
G1 X71.142 Y78.466 E5.59786
G1 X71.931 Y77.306 E5.64435
G1 X72.791 Y76.197 E5.69083
G1 X73.719 Y75.145 E5.73732
G1 X74.711 Y74.153 E5.78380
G1 X75.763 Y73.225 E5.83029
G1 X76.872 Y72.365 E5.87677
G1 X78.032 Y71.576 E5.92325
G1 X79.240 Y70.862 E5.96974
G1 X80.490 Y70.225 E6.01622
G1 X81.778 Y69.667 E6.06271
G1 X83.098 Y69.192 E6.10919
G1 X84.446 Y68.801 E6.15568
G1 X85.815 Y68.495 E6.20216
G1 X87.201 Y68.275 E6.24865
G1 X88.598 Y68.143 E6.29513
G1 X90.000 Y68.099 E6.34161
G1 X91.332 Y68.141 E6.38577
G1 X92.800 Y68.275 E6.43459
G1 X94.185 Y68.495 E6.48106
G1 X95.554 Y68.801 E6.52755
G1 X96.902 Y69.192 E6.57403
G1 X98.222 Y69.667 E6.62052
G1 X99.510 Y70.225 E6.66700
G1 X100.760 Y70.862 E6.71349
G1 X101.968 Y71.576 E6.75997
G1 X103.128 Y72.365 E6.80646
G1 X104.237 Y73.225 E6.85294
G1 X105.289 Y74.153 E6.89942
G1 X106.281 Y75.145 E6.94591
G1 X107.209 Y76.197 E6.99239
G1 X108.069 Y77.306 E7.03888
G1 X108.858 Y78.466 E7.08536
G1 X109.572 Y79.674 E7.13185
G1 X110.209 Y80.924 E7.17833
G1 X110.767 Y82.212 E7.22482
G1 X111.242 Y83.532 E7.27130
G1 X111.633 Y84.880 E7.31778
G1 X111.939 Y86.249 E7.36427
G1 X112.159 Y87.635 E7.41075
G1 X112.291 Y89.032 E7.45724
G1 X112.335 Y90.434 E7.50372
G1 X112.291 Y91.836 E7.55021
G1 X112.159 Y93.233 E7.59669
G1 X111.939 Y94.619 E7.64318
G1 X111.633 Y95.988 E7.68966
G1 X111.242 Y97.336 E7.73614
G1 X110.767 Y98.656 E7.78263
G1 X110.209 Y99.944 E7.82911
G1 X109.572 Y101.194 E7.87560
G1 X108.858 Y102.402 E7.92208
G1 X108.069 Y103.562 E7.96857
G1 X107.209 Y104.671 E8.01505
G1 X106.281 Y105.723 E8.06154
G1 X105.289 Y106.715 E8.10802
G1 X104.237 Y107.643 E8.15451
G1 X103.128 Y108.503 E8.20099
G1 X101.968 Y109.292 E8.24747
G1 X100.760 Y110.006 E8.29396
G1 X99.510 Y110.643 E8.34044
G1 X98.222 Y111.201 E8.38693
G1 X96.902 Y111.676 E8.43341
G1 X96.315 Y111.846 E8.45366
G1 X96.315 Y80.769 E9.48323
G1 X83.745 Y80.769 E9.89967
M201 X1250 Y1250
M204 P1250 T1250
G1 F7200
G1 X83.734 Y86.255 E6.85967
G1 E6.69967 F4200.00000
G92 E0
G1 Z0.500 F9000.000
G1 X74.998 Y74.241 F9000.000
G1 Z0.300 F9000.000
G1 E3.20000 F4200.00000
M201 X800 Y800
M204 P800 T800
G1 F1200
G1 X73.807 Y75.432 E3.25582
G1 X72.892 Y76.470 E3.30169
G1 X72.027 Y77.588 E3.34855
G1 X77.154 Y72.461 E3.58890
G1 X78.316 Y71.674 E3.63542
G1 X71.240 Y78.750 E3.96713
G1 X70.696 Y79.670 E4.00255
G1 X79.236 Y71.130 E4.40288
G1 X80.042 Y70.701 E4.43314
G1 X70.267 Y80.476 E4.89137
G1 X69.890 Y81.228 E4.91927
G1 X80.794 Y70.324 E5.43043
G1 X81.457 Y70.037 E5.45436
G1 X69.603 Y81.891 E6.01003
G1 X69.332 Y82.538 E6.03327
G1 X82.104 Y69.766 E6.63194
G1 X82.691 Y69.555 E6.65263
G1 X69.121 Y83.125 E7.28874
G1 X68.910 Y83.712 E7.30943
G1 X83.278 Y69.344 E7.98299
G1 X83.808 Y69.189 E8.00129
G1 X68.755 Y84.242 E8.70694
G1 X68.601 Y84.772 E8.72523
G1 X84.338 Y69.035 E9.46292
G1 X84.846 Y68.903 E9.48032
G1 X68.469 Y85.280 E10.24802
G1 X68.361 Y85.764 E10.26446
G1 X85.330 Y68.795 E11.05992
G1 X85.814 Y68.687 E11.07636
G1 X68.253 Y86.248 E11.89959
G1 X68.171 Y86.705 E11.91499
G1 X86.273 Y68.604 E12.76353
G1 X86.719 Y68.533 E12.77851
G1 X68.102 Y87.150 E13.65123
G1 X68.033 Y87.595 E13.66615
G1 X87.166 Y68.463 E14.56304
G1 X87.593 Y68.411 E14.57730
G1 X67.977 Y88.027 E15.49682
G1 X67.938 Y88.442 E15.51064
G1 X88.008 Y68.372 E16.45146
G1 X88.423 Y68.333 E16.46528
G1 X67.899 Y88.857 E17.42739
G1 X67.868 Y89.264 E17.44093
G1 X88.830 Y68.302 E18.42361
G1 X89.218 Y68.289 E18.43648
G1 X67.855 Y89.652 E19.43791
G1 X67.843 Y90.040 E19.45078
G1 X89.606 Y68.277 E20.47098
G1 X89.994 Y68.265 E20.48385
G1 X67.831 Y90.428 E21.52281
G1 X67.836 Y90.799 E21.53511
G1 X90.365 Y68.270 E22.59124
G1 X90.730 Y68.281 E22.60332
G1 X67.847 Y91.164 E23.67599
G1 X67.859 Y91.528 E23.68808
G1 X91.094 Y68.293 E24.77729
G1 X91.456 Y68.306 E24.78931
G1 X67.870 Y91.893 E25.89497
G1 X67.901 Y92.238 E25.90646
G1 X91.801 Y68.338 E27.02682
G1 X92.145 Y68.369 E27.03828
G1 X67.933 Y92.581 E28.17326
G1 X67.966 Y92.925 E28.18469
G1 X92.489 Y68.401 E29.33430
G1 X92.834 Y68.432 E29.34576
G1 X68.000 Y93.266 E30.50990
G1 X68.050 Y93.591 E30.52081
G1 X93.160 Y68.482 E31.69789
G1 X93.485 Y68.533 E31.70878
G1 X68.101 Y93.917 E32.89869
G1 X68.152 Y94.242 E32.90961
G1 X93.809 Y68.584 E34.11237
G1 X94.134 Y68.636 E34.12326
G1 X68.202 Y94.567 E35.33886
G1 X68.265 Y94.880 E35.34944
G1 X94.446 Y68.699 E36.57676
G1 X94.754 Y68.768 E36.58719
G1 X68.334 Y95.188 E37.82569
G1 X68.402 Y95.495 E37.83613
G1 X95.061 Y68.836 E39.08581
G1 X95.368 Y68.905 E39.09624
G1 X83.666 Y80.607 E39.64479
G1 X84.042 Y80.607 E39.65725
G1 X95.671 Y68.978 E40.20238
G1 X95.962 Y69.062 E40.21243
G1 X84.418 Y80.607 E40.75359
G1 X84.794 Y80.607 E40.76605
G1 X96.253 Y69.147 E41.30325
G1 X96.545 Y69.232 E41.31330
G1 X85.169 Y80.607 E41.84653
G1 X85.545 Y80.607 E41.85899
G1 X96.836 Y69.316 E42.38825
G1 X97.117 Y69.411 E42.39808
G1 X85.921 Y80.607 E42.92289
G1 X86.297 Y80.607 E42.93535
G1 X97.393 Y69.511 E43.45549
G1 X97.669 Y69.610 E43.46523
G1 X86.673 Y80.607 E43.98071
G1 X87.049 Y80.607 E43.99317
G1 X97.946 Y69.710 E44.50398
G1 X98.222 Y69.809 E44.51372
G1 X87.425 Y80.607 E45.01987
G1 X87.800 Y80.607 E45.03233
G1 X98.485 Y69.923 E45.53318
G1 X98.747 Y70.036 E45.54265
G1 X88.176 Y80.607 E46.03818
G1 X88.552 Y80.607 E46.05063
G1 X99.009 Y70.150 E46.54084
G1 X99.272 Y70.263 E46.55031
G1 X88.928 Y80.607 E47.03519
G1 X89.304 Y80.607 E47.04765
G1 X99.532 Y70.378 E47.52713
G1 X99.781 Y70.505 E47.53639
G1 X89.680 Y80.607 E48.00992
G1 X90.055 Y80.607 E48.02238
G1 X100.030 Y70.632 E48.48996
G1 X100.279 Y70.759 E48.49923
G1 X90.431 Y80.607 E48.96086
G1 X90.807 Y80.607 E48.97332
G1 X100.528 Y70.886 E49.42901
G1 X100.775 Y71.015 E49.43824
G1 X91.183 Y80.607 E49.88789
G1 X91.559 Y80.607 E49.90034
G1 X101.011 Y71.154 E50.34344
G1 X101.247 Y71.294 E50.35254
G1 X91.935 Y80.607 E50.78908
G1 X92.310 Y80.607 E50.80154
G1 X101.483 Y71.434 E51.23154
G1 X101.720 Y71.573 E51.24064
G1 X92.686 Y80.607 E51.66409
G1 X93.062 Y80.607 E51.67655
G1 X101.954 Y71.715 E52.09339
G1 X102.178 Y71.867 E52.10236
G1 X93.438 Y80.607 E52.51207
G1 X93.814 Y80.607 E52.52453
G1 X102.402 Y72.019 E52.92711
G1 X102.626 Y72.171 E52.93607
G1 X94.190 Y80.607 E53.33153
G1 X94.566 Y80.607 E53.34399
G1 X102.849 Y72.323 E53.73231
G1 X103.073 Y72.475 E53.74128
G1 X94.941 Y80.607 E54.12247
G1 X95.317 Y80.607 E54.13493
G1 X103.285 Y72.639 E54.50844
G1 X103.497 Y72.803 E54.51732
G1 X95.693 Y80.607 E54.88312
G1 X96.069 Y80.607 E54.89558
G1 X103.708 Y72.967 E55.25369
G1 X103.920 Y73.132 E55.26257
G1 X96.445 Y80.607 E55.61298
G1 X96.477 Y80.607 E55.61406
G1 X96.477 Y80.950 E55.62544
G1 X104.132 Y73.296 E55.98425
G1 X104.333 Y73.470 E55.99308
G1 X96.477 Y81.326 E56.36136
G1 X96.477 Y81.702 E56.37382
G1 X104.533 Y73.646 E56.75146
G1 X104.733 Y73.822 E56.76029
G1 X96.477 Y82.078 E57.14729
G1 X96.477 Y82.453 E57.15975
G1 X104.933 Y73.998 E57.55612
G1 X105.132 Y74.174 E57.56494
G1 X96.477 Y82.829 E57.97067
G1 X96.477 Y83.205 E57.98313
G1 X105.325 Y74.357 E58.39789
G1 X105.513 Y74.545 E58.40670
G1 X96.477 Y83.581 E58.83027
G1 X96.477 Y83.957 E58.84272
G1 X105.701 Y74.733 E59.27510
G1 X105.889 Y74.921 E59.28391
G1 X96.477 Y84.333 E59.72509
G1 X96.477 Y84.708 E59.73755
G1 X106.077 Y75.109 E60.18755
G1 X106.191 Y75.223 E60.19291
G1 X106.260 Y75.302 E60.19636
G1 X96.477 Y85.084 E60.65495
G1 X96.477 Y85.460 E60.66741
G1 X106.436 Y75.501 E61.13425
G1 X106.612 Y75.701 E61.14308
G1 X96.477 Y85.836 E61.61817
G1 X96.477 Y86.212 E61.63063
G1 X106.788 Y75.901 E62.11398
G1 X106.964 Y76.101 E62.12281
G1 X96.477 Y86.588 E62.61441
G1 X96.477 Y86.963 E62.62687
G1 X107.138 Y76.303 E63.12663
G1 X107.302 Y76.514 E63.13551
G1 X96.477 Y87.339 E63.64296
G1 X96.477 Y87.715 E63.65542
G1 X107.467 Y76.726 E64.17057
G1 X107.631 Y76.937 E64.17945
G1 X96.477 Y88.091 E64.70230
G1 X96.477 Y88.467 E64.71475
G1 X107.795 Y77.149 E65.24530
G1 X107.959 Y77.361 E65.25418
G1 X96.477 Y88.843 E65.79242
G1 X96.477 Y89.219 E65.80487
G1 X108.111 Y77.585 E66.35024
G1 X108.263 Y77.808 E66.35921
G1 X96.477 Y89.594 E66.91170
G1 X96.477 Y89.970 E66.92416
G1 X108.415 Y78.032 E67.48378
G1 X108.567 Y78.256 E67.49275
G1 X96.477 Y90.346 E68.05950
G1 X96.477 Y90.722 E68.07196
G1 X108.719 Y78.480 E68.64584
G1 X108.861 Y78.714 E68.65491
G1 X96.477 Y91.098 E69.23541
G1 X96.477 Y91.474 E69.24787
G1 X109.000 Y78.951 E69.83491
G1 X109.140 Y79.187 E69.84400
G1 X96.477 Y91.849 E70.43759
G1 X96.477 Y92.225 E70.45005
G1 X109.280 Y79.423 E71.05018
G1 X109.419 Y79.659 E71.05928
G1 X96.477 Y92.601 E71.66596
G1 X96.477 Y92.977 E71.67842
G1 X109.548 Y79.906 E72.29115
G1 X109.675 Y80.155 E72.30041
G1 X96.477 Y93.353 E72.91909
G1 X96.477 Y93.729 E72.93155
G1 X109.802 Y80.404 E73.55617
G1 X109.929 Y80.653 E73.56544
G1 X96.477 Y94.105 E74.19601
G1 X96.477 Y94.480 E74.20846
G1 X110.056 Y80.902 E74.84498
G1 X110.171 Y81.163 E74.85443
G1 X96.477 Y94.856 E75.49635
G1 X96.477 Y95.232 E75.50880
G1 X110.284 Y81.425 E76.15605
G1 X110.398 Y81.687 E76.16552
G1 X96.477 Y95.608 E76.81808
G1 X96.477 Y95.984 E76.83054
G1 X110.512 Y81.949 E77.48843
G1 X110.625 Y82.212 E77.49791
G1 X96.477 Y96.360 E78.16110
G1 X96.477 Y96.735 E78.17356
G1 X110.724 Y82.488 E78.84142
G1 X110.824 Y82.765 E78.85115
G1 X96.477 Y97.111 E79.52367
G1 X96.477 Y97.487 E79.53613
G1 X110.923 Y83.041 E80.21331
G1 X111.023 Y83.318 E80.22305
G1 X96.477 Y97.863 E80.90490
G1 X96.477 Y98.239 E80.91736
G1 X111.118 Y83.598 E81.60366
G1 X111.202 Y83.890 E81.61371
G1 X96.477 Y98.615 E82.30398
G1 X96.477 Y98.990 E82.31644
G1 X111.287 Y84.181 E83.01068
G1 X111.372 Y84.472 E83.02073
G1 X96.477 Y99.366 E83.71893
G1 X96.477 Y99.742 E83.73139
G1 X111.456 Y84.763 E84.43356
G1 X111.529 Y85.066 E84.44388
G1 X96.477 Y100.118 E85.14947
G1 X96.477 Y100.494 E85.16193
G1 X111.598 Y85.373 E85.87074
G1 X111.667 Y85.680 E85.88117
G1 X96.477 Y100.870 E86.59320
G1 X96.477 Y101.246 E86.60566
G1 X111.735 Y85.988 E87.32090
G1 X111.798 Y86.300 E87.33148
G1 X96.477 Y101.621 E88.04968
G1 X96.477 Y101.997 E88.06214
G1 X111.850 Y86.625 E88.78275
G1 X111.901 Y86.949 E88.79364
G1 X96.477 Y102.373 E89.51666
G1 X96.477 Y102.749 E89.52912
G1 X111.952 Y87.274 E90.25455
G1 X112.002 Y87.600 E90.26549
G1 X96.477 Y103.125 E90.99324
G1 X96.477 Y103.501 E91.00570
G1 X112.034 Y87.944 E91.73496
G1 X112.067 Y88.287 E91.74640
G1 X96.477 Y103.876 E92.47719
G1 X96.477 Y104.252 E92.48965
G1 X112.099 Y88.630 E93.22196
G1 X112.130 Y88.976 E93.23344
G1 X96.477 Y104.628 E93.96719
G1 X96.477 Y105.004 E93.97965
G1 X112.141 Y89.340 E94.71394
G1 X112.153 Y89.704 E94.72602
G1 X96.477 Y105.380 E95.46084
G1 X96.477 Y105.756 E95.47330
G1 X112.164 Y90.069 E96.20866
G1 X112.169 Y90.440 E96.22096
G1 X96.477 Y106.131 E96.95655
G1 X96.477 Y106.507 E96.96901
G1 X112.157 Y90.828 E97.70402
G1 X112.145 Y91.216 E97.71689
G1 X96.477 Y106.883 E98.45133
G1 X96.477 Y107.259 E98.46379
G1 X112.132 Y91.604 E99.19766
G1 X112.101 Y92.011 E99.21120
G1 X96.477 Y107.635 E99.94360
G1 X96.477 Y108.011 E99.95606
G1 X112.062 Y92.426 E100.68662
G1 X112.023 Y92.841 E100.70044
G1 X96.477 Y108.387 E101.42916
G1 X96.477 Y108.762 E101.44162
G1 X111.971 Y93.268 E102.16793
G1 X111.901 Y93.715 E102.18292
G1 X96.477 Y109.138 E102.90592
G1 X96.477 Y109.514 E102.91837
G1 X111.830 Y94.162 E103.63806
G1 X111.747 Y94.620 E103.65350
G1 X96.477 Y109.890 E104.36931
G1 X96.477 Y110.266 E104.38177
G1 X111.639 Y95.104 E105.09251
G1 X111.531 Y95.588 E105.10895
G1 X96.477 Y110.642 E105.81461
G1 X96.477 Y111.017 E105.82707
G1 X111.399 Y96.096 E106.52654
G1 X111.245 Y96.626 E106.54483
G1 X96.477 Y111.393 E107.23708
G1 X96.477 Y111.596 E107.24380
G1 X96.722 Y111.524 E107.25225
G1 X111.090 Y97.156 E107.92580
G1 X110.879 Y97.743 E107.94649
G1 X97.309 Y111.313 E108.58259
G1 X97.897 Y111.101 E108.60328
G1 X110.667 Y98.331 E109.20194
G1 X110.397 Y98.977 E109.22518
G1 X98.543 Y110.831 E109.78084
G1 X99.206 Y110.544 E109.80477
G1 X110.110 Y99.640 E110.31592
G1 X109.733 Y100.392 E110.34382
G1 X99.958 Y110.167 E110.80203
G1 X100.764 Y109.738 E110.83229
G1 X109.304 Y101.198 E111.23261
G1 X108.760 Y102.118 E111.26803
G1 X101.684 Y109.194 E111.59972
G1 X102.846 Y108.407 E111.64625
G1 X107.973 Y103.280 E111.88657
G1 X107.108 Y104.398 E111.93342
G1 X106.192 Y105.437 E111.97932
G1 X105.003 Y106.626 E112.03507
M201 X1250 Y1250
M204 P1250 T1250
G1 F7200
G1 X106.192 Y105.437 E111.10308
G1 F7200
G1 X107.108 Y104.398 E110.33565
G1 F7200
G1 X107.973 Y103.280 E109.55237
G1 F7200
G1 X107.262 Y103.991 E108.99507
G1 E108.83507 F4200.00000
G92 E0
G1 Z0.500 F9000.000
G1 X83.164 Y111.552 F9000.000
G1 Z0.300 F9000.000
G1 E3.20000 F4200.00000
M201 X800 Y800
M204 P800 T800
G1 F1200
G1 X83.523 Y111.193 E3.21680
G1 X83.523 Y110.818 E3.22926
G1 X82.883 Y111.457 E3.25922
G1 X82.607 Y111.357 E3.26896
G1 X83.523 Y110.442 E3.31188
G1 X83.523 Y110.066 E3.32434
G1 X82.331 Y111.258 E3.38021
G1 X82.054 Y111.158 E3.38994
G1 X83.523 Y109.690 E3.45877
G1 X83.523 Y109.314 E3.47123
G1 X81.778 Y111.059 E3.55301
G1 X81.515 Y110.946 E3.56249
G1 X83.523 Y108.938 E3.65659
G1 X83.523 Y108.562 E3.66904
G1 X81.253 Y110.832 E3.77543
G1 X80.991 Y110.718 E3.78491
G1 X83.523 Y108.187 E3.90359
G1 X83.523 Y107.811 E3.91605
G1 X80.729 Y110.605 E4.04703
G1 X80.468 Y110.490 E4.05648
G1 X83.523 Y107.435 E4.19968
G1 X83.523 Y107.059 E4.21214
G1 X80.219 Y110.363 E4.36701
G1 X79.970 Y110.236 E4.37627
G1 X83.523 Y106.683 E4.54281
G1 X83.523 Y106.307 E4.55527
G1 X79.721 Y110.109 E4.73348
G1 X79.472 Y109.982 E4.74275
G1 X83.523 Y105.932 E4.93263
G1 X83.523 Y105.556 E4.94509
G1 X79.225 Y109.853 E5.14655
G1 X78.989 Y109.714 E5.15564
G1 X83.523 Y105.180 E5.36817
G1 X83.523 Y104.804 E5.38063
G1 X78.753 Y109.574 E5.60423
G1 X78.517 Y109.434 E5.61332
G1 X83.523 Y104.428 E5.84799
G1 X83.523 Y104.052 E5.86045
G1 X78.280 Y109.295 E6.10619
G1 X78.046 Y109.153 E6.11527
G1 X83.523 Y103.677 E6.37202
G1 X83.523 Y103.301 E6.38447
G1 X77.822 Y109.001 E6.65171
G1 X77.598 Y108.849 E6.66068
G1 X83.523 Y102.925 E6.93840
G1 X83.523 Y102.549 E6.95086
G1 X77.374 Y108.697 E7.23907
G1 X77.151 Y108.545 E7.24804
G1 X83.523 Y102.173 E7.54675
G1 X83.523 Y101.797 E7.55921
G1 X76.927 Y108.393 E7.86840
G1 X76.715 Y108.229 E7.87728
G1 X83.523 Y101.421 E8.19640
G1 X83.523 Y101.046 E8.20886
G1 X76.503 Y108.065 E8.53790
G1 X76.292 Y107.901 E8.54678
G1 X83.523 Y100.670 E8.88574
G1 X83.523 Y100.294 E8.89820
G1 X76.080 Y107.736 E9.24709
G1 X75.869 Y107.572 E9.25597
G1 X83.523 Y99.918 E9.61477
G1 X83.523 Y99.542 E9.62723
G1 X75.667 Y107.398 E9.99551
