; generated by Slic3r 1.3.1-dev (Build 2d100c4) on 2020-05-18 at 12:53:09

; external perimeters extrusion width = 0.45mm (2.44mm^3/s)
; perimeters extrusion width = 0.45mm (3.26mm^3/s)
; infill extrusion width = 0.45mm (6.51mm^3/s)
; solid infill extrusion width = 0.45mm (6.51mm^3/s)
; top infill extrusion width = 0.40mm (2.86mm^3/s)

M107
G92 E0
M190 S60 ; set bed temperature and wait for it to be reached
;D3D:START:START
T0
M104 S215 T0

G21
G90
M107
T0
G28
G29
M109 T0 S215 T0
G0 F3000
M107
T0
G92 E0
G0 X0 Y149 Z0.1 F3600
G1 Y49 E6.5 F1200
G0 Z1
G92 E0
; Filament gcode

G21 ; set units to millimeters
G90 ; use absolute coordinates
M82 ; use absolute distances for extrusion
G92 E0
G1 Z0.300 F9000.000
G1 E-3.20000 F4200.00000
G92 E0
G1 Z0.500 F9000.000
G1 X84.017 Y58.307 F9000.000
G1 Z0.300 F9000.000
G1 E3.20000 F4200.00000
M201 X800 Y800
M204 P800 T800
G1 F1200.000
G1 X85.952 Y55.614 E3.30985
G1 X87.726 Y53.269 E3.40728
G1 X88.043 Y52.886 E3.42374
G1 X88.330 Y52.592 E3.43737
G1 X88.575 Y52.393 E3.44782
G1 X88.903 Y52.191 E3.46059
G1 X89.364 Y52.011 E3.47699
G1 X89.811 Y51.932 E3.49202
G1 X90.078 Y51.926 E3.50085
G1 X90.328 Y51.947 E3.50919
G1 X90.539 Y51.987 E3.51629
G1 X90.897 Y52.099 E3.52871
G1 X91.339 Y52.333 E3.54527
G1 X91.726 Y52.644 E3.56173
G1 X92.083 Y53.034 E3.57924
G1 X92.727 Y53.851 E3.61372
G1 X94.768 Y56.601 E3.72716
G1 X96.879 Y59.599 E3.84863
G1 X98.838 Y62.524 E3.96526
G1 X100.955 Y65.856 E4.09605
G1 X102.624 Y68.622 E4.20309
G1 X104.310 Y71.560 E4.31530
G1 X105.989 Y74.657 E4.43202
G1 X107.622 Y77.868 E4.55134
G1 X108.680 Y80.081 E4.63262
G1 X109.194 Y81.203 E4.67351
G1 X110.198 Y83.500 E4.75655
G1 X111.123 Y85.772 E4.83782
G1 X111.567 Y86.929 E4.87887
G1 X112.399 Y89.254 E4.96070
G1 X113.159 Y91.630 E5.04332
G1 X113.812 Y93.971 E5.12385
G1 X114.098 Y95.140 E5.16372
G1 X114.357 Y96.306 E5.20331
G1 X114.576 Y97.414 E5.24071
G1 X114.775 Y98.569 E5.27956
G1 X114.951 Y99.783 E5.32018
G1 X115.076 Y100.864 E5.35623
G1 X115.175 Y102.000 E5.39403
G1 X115.237 Y103.129 E5.43148
G1 X115.263 Y104.248 E5.46856
G1 X115.247 Y105.439 E5.50803
G1 X115.191 Y106.541 E5.54456
G1 X115.095 Y107.629 E5.58075
G1 X114.956 Y108.703 E5.61663
G1 X114.793 Y109.667 E5.64903
G1 X114.574 Y110.707 E5.68423
G1 X114.311 Y111.729 E5.71918
G1 X114.005 Y112.731 E5.75391
G1 X113.655 Y113.713 E5.78844
G1 X113.218 Y114.771 E5.82637
G1 X112.776 Y115.705 E5.86061
G1 X112.291 Y116.613 E5.89471
G1 X111.765 Y117.494 E5.92871
G1 X111.197 Y118.346 E5.96262
G1 X110.590 Y119.168 E5.99647
G1 X109.944 Y119.958 E6.03030
G1 X109.260 Y120.716 E6.06411
G1 X108.618 Y121.367 E6.09439
G1 X107.867 Y122.062 E6.12831
G1 X107.082 Y122.723 E6.16230
G1 X106.266 Y123.349 E6.19638
G1 X105.335 Y123.994 E6.23390
G1 X104.458 Y124.543 E6.26815
G1 X103.555 Y125.054 E6.30254
G1 X102.713 Y125.487 E6.33391
G1 X101.761 Y125.929 E6.36869
G1 X100.700 Y126.366 E6.40671
G1 X99.703 Y126.728 E6.44184
G1 X98.687 Y127.052 E6.47718
G1 X97.736 Y127.316 E6.50987
G1 X96.682 Y127.567 E6.54576
G1 X95.528 Y127.794 E6.58472
G1 X94.442 Y127.965 E6.62114
G1 X93.341 Y128.098 E6.65788
G1 X92.304 Y128.186 E6.69237
G1 X91.169 Y128.245 E6.73002
G1 X89.988 Y128.263 E6.76916
G1 X88.831 Y128.245 E6.80749
G1 X87.696 Y128.186 E6.84514
G1 X86.659 Y128.098 E6.87963
G1 X85.558 Y127.965 E6.91637
G1 X84.472 Y127.794 E6.95279
G1 X83.402 Y127.585 E6.98891
G1 X82.264 Y127.316 E7.02764
G1 X81.313 Y127.052 E7.06033
G1 X80.297 Y126.728 E7.09567
G1 X79.300 Y126.366 E7.13080
G1 X78.239 Y125.929 E7.16882
G1 X77.287 Y125.487 E7.20360
G1 X76.359 Y125.008 E7.23820
G1 X75.456 Y124.492 E7.27265
G1 X74.665 Y123.994 E7.30361
G1 X73.817 Y123.409 E7.33773
G1 X73.000 Y122.788 E7.37175
G1 X72.133 Y122.062 E7.40920
G1 X71.382 Y121.367 E7.44312
G1 X70.740 Y120.716 E7.47340
G1 X70.056 Y119.958 E7.50721
G1 X69.410 Y119.168 E7.54104
G1 X68.803 Y118.346 E7.57489
G1 X68.235 Y117.494 E7.60880
G1 X67.709 Y116.613 E7.64280
G1 X67.224 Y115.705 E7.67690
G1 X66.782 Y114.771 E7.71114
G1 X66.345 Y113.713 E7.74907
G1 X65.995 Y112.731 E7.78360
G1 X65.689 Y111.729 E7.81833
G1 X65.426 Y110.707 E7.85328
G1 X65.207 Y109.667 E7.88848
G1 X65.044 Y108.703 E7.92088
G1 X64.905 Y107.629 E7.95676
G1 X64.809 Y106.541 E7.99295
G1 X64.753 Y105.439 E8.02948
G1 X64.737 Y104.248 E8.06895
G1 X64.763 Y103.129 E8.10604
G1 X64.825 Y102.000 E8.14348
G1 X64.924 Y100.864 E8.18128
G1 X65.058 Y99.720 E8.21945
G1 X65.215 Y98.629 E8.25596
G1 X65.413 Y97.470 E8.29491
G1 X65.654 Y96.254 E8.33598
G1 X65.913 Y95.091 E8.37546
G1 X66.502 Y92.800 E8.45381
G1 X67.216 Y90.421 E8.53610
G1 X67.601 Y89.254 E8.57681
G1 X68.433 Y86.929 E8.65864
G1 X68.877 Y85.772 E8.69969
G1 X69.802 Y83.500 E8.78096
G1 X70.303 Y82.334 E8.82299
G1 X71.320 Y80.081 E8.90489
G1 X71.845 Y78.969 E8.94564
G1 X72.920 Y76.778 E9.02647
G1 X74.011 Y74.657 E9.10550
G1 X75.128 Y72.576 E9.18376
G1 X76.253 Y70.562 E9.26017
G1 X77.376 Y68.622 E9.33442
G1 X78.488 Y66.765 E9.40615
G1 X79.580 Y64.996 E9.47502
G1 X81.677 Y61.740 E9.60333
G1 X82.658 Y60.278 E9.66166
G1 X83.983 Y58.356 E9.73898
M201 X1250 Y1250
M204 P1250 T1250
G1 F7200.000
G1 X84.023 Y58.298 E9.69955
G1 F7200.000
G1 X84.440 Y57.707 E9.29879
G1 F7200.000
G1 X84.447 Y57.698 E9.29293
G1 F7200.000
G1 X84.846 Y57.138 E8.91166
G1 F7200.000
G1 X84.852 Y57.130 E8.90611
G1 F7200.000
G1 X85.232 Y56.601 E8.54486
G1 F7200.000
G1 X85.238 Y56.593 E8.53958
G1 F7200.000
G1 X85.599 Y56.096 E8.19887
G1 F7200.000
G1 X85.605 Y56.088 E8.19344
G1 F7200.000
G1 X85.946 Y55.622 E7.87377
G1 F7200.000
G1 X85.952 Y55.614 E7.86812
G1 F7200.000
G1 X86.271 Y55.181 E7.56992
G1 F7200.000
G1 X86.276 Y55.175 E7.56570
G1 F7200.000
G1 X86.574 Y54.775 E7.28949
G1 F7200.000
G1 X86.580 Y54.767 E7.28390
G1 F7200.000
G1 X86.855 Y54.401 E7.02999
G1 F7200.000
G1 X86.859 Y54.395 E7.02605
G1 F7200.000
G1 X87.031 Y54.168 E6.86831
G1 F7200.000
G1 X87.033 Y54.165 E6.86594
G1 F7200.000
G1 X87.114 Y54.059 E6.79247
G1 F7200.000
G1 X87.118 Y54.054 E6.78889
G1 F7200.000
G1 X87.216 Y53.925 E6.69898
G1 E6.53898 F4200.00000
G92 E0
G1 Z0.500 F9000.000
G1 X100.190 Y120.232 F9000.000
G1 Z0.300 F9000.000
G1 E3.20000 F4200.00000
M201 X800 Y800
M204 P800 T800
G1 F1200.000
G1 X100.132 Y120.693 E3.21538
G1 X100.014 Y121.153 E3.23113
G1 X99.746 Y121.772 E3.25347
G1 X99.486 Y122.183 E3.26958
G1 X99.040 Y122.688 E3.29191
G1 X98.665 Y122.998 E3.30803
G1 X98.085 Y123.342 E3.33037
G1 X97.643 Y123.517 E3.34611
G1 X97.182 Y123.635 E3.36186
G1 X96.536 Y123.696 E3.38336
G1 X83.478 Y123.696 E3.81597
G1 X83.026 Y123.668 E3.83099
G1 X82.368 Y123.521 E3.85332
G1 X81.926 Y123.346 E3.86907
G1 X81.519 Y123.122 E3.88446
G1 X81.143 Y122.849 E3.89984
G1 X80.805 Y122.531 E3.91522
G1 X80.509 Y122.173 E3.93061
G1 X80.254 Y121.772 E3.94636
G1 X79.986 Y121.153 E3.96869
G1 X79.865 Y120.682 E3.98480
G1 X79.804 Y120.036 E4.00631
G1 X79.810 Y75.668 E5.47621
G1 X79.868 Y75.207 E5.49159
G1 X79.986 Y74.747 E5.50734
G1 X80.254 Y74.128 E5.52968
G1 X80.509 Y73.727 E5.54543
G1 X80.805 Y73.369 E5.56081
G1 X81.143 Y73.051 E5.57619
G1 X81.527 Y72.772 E5.59191
G1 X82.206 Y72.424 E5.61719
G1 X97.782 Y72.424 E6.13323
G1 X98.282 Y72.660 E6.15154
G1 X98.683 Y72.914 E6.16726
G1 X99.188 Y73.360 E6.18960
G1 X99.491 Y73.727 E6.20535
G1 X99.746 Y74.128 E6.22110
G1 X100.018 Y74.757 E6.24380
G1 X100.168 Y75.426 E6.26650
G1 X100.196 Y75.878 E6.28153
G1 X100.190 Y120.172 E7.74897
M201 X1250 Y1250
M204 P1250 T1250
G1 X99.925 Y120.216 F9000.000
M201 X800 Y800
M204 P800 T800
G1 F1200.000
G1 X99.871 Y120.643 E7.76324
G1 X99.762 Y121.067 E7.77775
G1 X99.511 Y121.647 E7.79870
G1 X99.272 Y122.023 E7.81343
G1 X98.854 Y122.497 E7.83438
G1 X98.512 Y122.780 E7.84910
G1 X97.967 Y123.102 E7.87006
G1 X97.560 Y123.264 E7.88456
G1 X97.136 Y123.372 E7.89906
G1 X96.524 Y123.431 E7.91945
G1 X83.486 Y123.431 E8.35137
G1 X83.063 Y123.404 E8.36542
G1 X82.446 Y123.266 E8.38637
G1 X82.039 Y123.105 E8.40087
G1 X81.661 Y122.897 E8.41515
G1 X81.313 Y122.644 E8.42943
G1 X80.999 Y122.349 E8.44370
G1 X80.724 Y122.017 E8.45798
G1 X80.489 Y121.647 E8.47248
G1 X80.238 Y121.067 E8.49343
G1 X80.128 Y120.636 E8.50816
G1 X80.069 Y120.024 E8.52856
G1 X80.075 Y75.684 E9.99749
G1 X80.129 Y75.257 E10.01176
G1 X80.238 Y74.833 E10.02626
G1 X80.489 Y74.253 E10.04722
G1 X80.724 Y73.883 E10.06172
G1 X80.999 Y73.551 E10.07599
G1 X81.313 Y73.256 E10.09027
G1 X81.666 Y72.999 E10.10475
G1 X82.270 Y72.689 E10.12723
G1 X97.723 Y72.689 E10.63917
G1 X98.153 Y72.893 E10.65496
G1 X98.523 Y73.127 E10.66944
G1 X98.997 Y73.546 E10.69040
G1 X99.276 Y73.883 E10.70490
G1 X99.511 Y74.253 E10.71940
G1 X99.765 Y74.839 E10.74058
G1 X99.904 Y75.463 E10.76176
G1 X99.931 Y75.886 E10.77581
G1 X99.925 Y120.156 E12.24242
M201 X1250 Y1250
M204 P1250 T1250
G1 X99.659 Y120.199 F9000.000
M201 X800 Y800
M204 P800 T800
G1 F1200.000
G1 X99.609 Y120.593 E12.25559
G1 X99.510 Y120.981 E12.26885
G1 X99.275 Y121.523 E12.28841
G1 X99.059 Y121.863 E12.30175
G1 X98.669 Y122.306 E12.32132
G1 X98.359 Y122.563 E12.33466
G1 X97.850 Y122.863 E12.35423
G1 X97.478 Y123.010 E12.36748
G1 X97.091 Y123.110 E12.38074
G1 X96.511 Y123.165 E12.40003
G1 X83.495 Y123.165 E12.83125
G1 X83.101 Y123.140 E12.84433
G1 X82.524 Y123.011 E12.86390
G1 X82.152 Y122.864 E12.87715
G1 X81.804 Y122.673 E12.89032
G1 X81.482 Y122.439 E12.90349
G1 X81.193 Y122.167 E12.91666
G1 X80.939 Y121.861 E12.92983
G1 X80.725 Y121.523 E12.94309
G1 X80.490 Y120.981 E12.96265
G1 X80.390 Y120.591 E12.97600
G1 X80.335 Y120.011 E12.99528
G1 X80.341 Y75.701 E14.46325
G1 X80.391 Y75.307 E14.47641
G1 X80.490 Y74.919 E14.48967
G1 X80.725 Y74.377 E14.50924
G1 X80.939 Y74.039 E14.52249
G1 X81.193 Y73.733 E14.53566
G1 X81.482 Y73.461 E14.54883
G1 X81.806 Y73.226 E14.56208
G1 X82.334 Y72.955 E14.58175
G1 X97.663 Y72.955 E15.08958
G1 X98.025 Y73.126 E15.10285
G1 X98.363 Y73.341 E15.11610
G1 X98.806 Y73.731 E15.13567
G1 X99.061 Y74.039 E15.14892
G1 X99.275 Y74.377 E15.16218
G1 X99.511 Y74.922 E15.18183
G1 X99.640 Y75.501 E15.20149
G1 X99.665 Y75.895 E15.21457
G1 X99.659 Y120.139 E16.68035
M201 X1250 Y1250
M204 P1250 T1250
G1 F7200.000
G1 X99.609 Y120.593 E16.42709
G1 F7200.000
G1 X99.510 Y120.981 E16.20532
G1 F7200.000
G1 X99.275 Y121.523 E15.87802
G1 F7200.000
G1 X99.059 Y121.863 E15.65484
G1 F7200.000
G1 X98.669 Y122.306 E15.32757
G1 F7200.000
G1 X98.359 Y122.563 E15.10438
G1 F7200.000
G1 X97.850 Y122.863 E14.77708
G1 F7200.000
G1 X97.478 Y123.010 E14.55535
G1 F7200.000
G1 X97.091 Y123.110 E14.33363
G1 F7200.000
G1 X96.511 Y123.165 E14.01097
G1 F7200.000
G1 X95.842 Y123.165 E13.64035
G1 E13.48035 F4200.00000
G92 E0
G1 Z0.500 F9000.000
G1 X78.415 Y106.608 F9000.000
G1 Z0.300 F9000.000
G1 E3.20000 F4200.00000
M201 X800 Y800
M204 P800 T800
G1 F1200.000
G1 X78.172 Y106.966 E3.21434
G1 X77.866 Y107.272 E3.22867
G1 X77.517 Y107.509 E3.24265
G1 X77.246 Y107.636 E3.25257
G1 X76.961 Y107.729 E3.26249
G1 X76.555 Y107.793 E3.27610
G1 X76.256 Y107.793 E3.28603
G1 X75.959 Y107.756 E3.29595
G1 X75.554 Y107.638 E3.30992
G1 X75.168 Y107.441 E3.32426
G1 X74.826 Y107.176 E3.33860
G1 X74.540 Y106.851 E3.35293
G1 X74.320 Y106.479 E3.36727
G1 X74.173 Y106.072 E3.38161
G1 X74.105 Y105.644 E3.39594
G1 X74.119 Y105.212 E3.41028
G1 X74.213 Y104.789 E3.42462
G1 X74.385 Y104.392 E3.43896
G1 X74.628 Y104.034 E3.45330
G1 X74.934 Y103.728 E3.46763
G1 X75.292 Y103.485 E3.48197
G1 X75.679 Y103.318 E3.49594
G1 X75.969 Y103.243 E3.50587
G1 X76.256 Y103.207 E3.51542
G1 X76.544 Y103.207 E3.52499
G1 X76.841 Y103.244 E3.53491
G1 X77.246 Y103.362 E3.54888
G1 X77.632 Y103.559 E3.56322
G1 X77.974 Y103.824 E3.57756
G1 X78.260 Y104.149 E3.59189
G1 X78.480 Y104.521 E3.60623
G1 X78.627 Y104.928 E3.62057
G1 X78.695 Y105.356 E3.63490
G1 X78.681 Y105.788 E3.64924
G1 X78.587 Y106.211 E3.66358
G1 X78.439 Y106.553 E3.67593
M201 X1250 Y1250
M204 P1250 T1250
G1 X78.181 Y106.479 F9000.000
M201 X800 Y800
M204 P800 T800
G1 F1200.000
G1 X77.966 Y106.796 E3.68861
G1 X77.696 Y107.066 E3.70128
G1 X77.385 Y107.277 E3.71373
G1 X77.148 Y107.389 E3.72240
G1 X76.899 Y107.470 E3.73108
G1 X76.534 Y107.527 E3.74330
G1 X76.272 Y107.527 E3.75198
G1 X76.013 Y107.495 E3.76066
G1 X75.652 Y107.390 E3.77311
G1 X75.311 Y107.216 E3.78578
G1 X75.009 Y106.982 E3.79845
G1 X74.756 Y106.695 E3.81113
G1 X74.561 Y106.365 E3.82380
G1 X74.431 Y106.005 E3.83648
G1 X74.372 Y105.628 E3.84915
G1 X74.383 Y105.245 E3.86182
G1 X74.467 Y104.872 E3.87450
G1 X74.619 Y104.521 E3.88717
G1 X74.834 Y104.204 E3.89985
G1 X75.104 Y103.934 E3.91252
G1 X75.421 Y103.719 E3.92519
G1 X75.766 Y103.570 E3.93764
G1 X76.019 Y103.505 E3.94632
G1 X76.272 Y103.473 E3.95477
G1 X76.528 Y103.473 E3.96322
G1 X76.787 Y103.505 E3.97190
G1 X77.148 Y103.610 E3.98435
G1 X77.489 Y103.784 E3.99702
G1 X77.791 Y104.018 E4.00970
G1 X78.044 Y104.305 E4.02237
G1 X78.239 Y104.635 E4.03504
G1 X78.369 Y104.995 E4.04772
G1 X78.428 Y105.372 E4.06039
G1 X78.417 Y105.755 E4.07306
G1 X78.333 Y106.128 E4.08574
G1 X78.205 Y106.424 E4.09642
M201 X1250 Y1250
M204 P1250 T1250
G1 X77.947 Y106.351 F9000.000
M201 X800 Y800
M204 P800 T800
G1 F1200.000
G1 X77.760 Y106.626 E4.10743
G1 X77.526 Y106.861 E4.11844
G1 X77.253 Y107.046 E4.12937
G1 X77.050 Y107.141 E4.13680
G1 X76.837 Y107.211 E4.14423
G1 X76.513 Y107.262 E4.15507
G1 X76.289 Y107.262 E4.16250
G1 X76.067 Y107.234 E4.16993
G1 X75.750 Y107.142 E4.18085
G1 X75.454 Y106.991 E4.19186
G1 X75.191 Y106.787 E4.20287
G1 X74.972 Y106.538 E4.21388
G1 X74.802 Y106.252 E4.22489
G1 X74.690 Y105.939 E4.23590
G1 X74.638 Y105.611 E4.24691
G1 X74.648 Y105.279 E4.25792
G1 X74.721 Y104.954 E4.26893
G1 X74.853 Y104.649 E4.27995
G1 X75.039 Y104.374 E4.29096
G1 X75.274 Y104.139 E4.30196
G1 X75.549 Y103.953 E4.31298
G1 X75.852 Y103.822 E4.32390
G1 X76.069 Y103.766 E4.33133
G1 X76.289 Y103.738 E4.33867
G1 X76.511 Y103.738 E4.34602
G1 X76.733 Y103.766 E4.35345
G1 X77.050 Y103.858 E4.36437
G1 X77.346 Y104.009 E4.37538
G1 X77.609 Y104.213 E4.38640
G1 X77.828 Y104.462 E4.39740
G1 X77.998 Y104.748 E4.40841
G1 X78.110 Y105.061 E4.41943
G1 X78.162 Y105.389 E4.43044
G1 X78.152 Y105.721 E4.44145
G1 X78.079 Y106.046 E4.45246
G1 X77.971 Y106.296 E4.46148
M201 X1250 Y1250
M204 P1250 T1250
G1 F7200.000
G1 X77.760 Y106.626 E4.24455
G1 F7200.000
G1 X77.526 Y106.861 E4.06040
G1 F7200.000
G1 X77.253 Y107.046 E3.87766
G1 F7200.000
G1 X77.050 Y107.141 E3.75336
G1 F7200.000
G1 X76.837 Y107.211 E3.62907
G1 F7200.000
G1 X76.513 Y107.262 E3.44781
G1 F7200.000
G1 X76.289 Y107.262 E3.32347
G1 F7200.000
G1 X76.067 Y107.234 E3.19920
G1 F7200.000
G1 X75.750 Y107.142 E3.01647
G1 F7200.000
G1 X75.454 Y106.991 E2.83231
G1 F7200.000
G1 X75.191 Y106.787 E2.64811
G1 F7200.000
G1 X74.972 Y106.538 E2.46396
G1 F7200.000
G1 X74.802 Y106.252 E2.27979
G1 F7200.000
G1 X74.690 Y105.939 E2.09561
G1 F7200.000
G1 X74.638 Y105.611 E1.91146
G1 F7200.000
G1 X74.648 Y105.279 E1.72728
G1 F7200.000
G1 X74.721 Y104.954 E1.54310
G1 F7200.000
G1 X74.808 Y104.753 E1.42148
G1 E1.26148 F4200.00000
G92 E0
G1 Z0.500 F9000.000
G1 X101.305 Y105.644 F9000.000
G1 Z0.300 F9000.000
G1 E3.20000 F4200.00000
M201 X800 Y800
M204 P800 T800
G1 F1200.000
G1 X101.319 Y105.212 E3.21434
G1 X101.413 Y104.789 E3.22868
G1 X101.585 Y104.392 E3.24302
G1 X101.828 Y104.034 E3.25735
G1 X102.134 Y103.728 E3.27169
G1 X102.492 Y103.485 E3.28603
G1 X102.879 Y103.318 E3.30000
G1 X103.169 Y103.243 E3.30992
G1 X103.456 Y103.207 E3.31948
G1 X103.744 Y103.207 E3.32904
G1 X104.041 Y103.244 E3.33896
G1 X104.446 Y103.362 E3.35294
G1 X104.832 Y103.559 E3.36727
G1 X105.174 Y103.824 E3.38161
G1 X105.460 Y104.149 E3.39595
G1 X105.680 Y104.521 E3.41029
G1 X105.827 Y104.928 E3.42463
G1 X105.895 Y105.356 E3.43896
G1 X105.881 Y105.788 E3.45330
G1 X105.787 Y106.211 E3.46764
G1 X105.615 Y106.608 E3.48198
G1 X105.372 Y106.966 E3.49631
G1 X105.066 Y107.272 E3.51065
G1 X104.717 Y107.509 E3.52462
G1 X104.446 Y107.636 E3.53455
G1 X104.161 Y107.729 E3.54447
G1 X103.755 Y107.793 E3.55808
G1 X103.456 Y107.793 E3.56800
G1 X103.159 Y107.756 E3.57792
G1 X102.754 Y107.638 E3.59190
G1 X102.368 Y107.441 E3.60623
G1 X102.026 Y107.176 E3.62057
G1 X101.740 Y106.851 E3.63491
G1 X101.520 Y106.479 E3.64925
G1 X101.373 Y106.072 E3.66359
G1 X101.315 Y105.704 E3.67593
M201 X1250 Y1250
M204 P1250 T1250
