; generated by Slic3r 1.3.0 on 2020-08-25 at 18:20:18

; external perimeters extrusion width = 0.44mm (2.38mm^3/s)
; perimeters extrusion width = 0.56mm (4.14mm^3/s)
; infill extrusion width = 0.50mm (7.31mm^3/s)
; solid infill extrusion width = 0.56mm (8.27mm^3/s)
; top infill extrusion width = 0.56mm (4.14mm^3/s)

M107
M190 S60 ; set bed temperature and wait for it to be reached
;D3D:START:START
T0
M104 S215 T0

G21
G90
M107
T0
G28
G29
M109 T0 S215 T0
G0 F3000
M107
T0
G92 E0
G0 X0 Y149 Z0.1 F3600
G1 Y49 E6.5 F1200
G0 Z1
G92 E0
; Filament gcode

G21 ; set units to millimeters
G90 ; use absolute coordinates
M82 ; use absolute distances for extrusion
G92 E0
G1 Z0.300 F9000.000
G1 E-3.20000 F4200.00000
G92 E0
G1 Z0.500 F9000.000
G1 X84.000 Y83.611 F9000.000
G1 Z0.300 F9000.000
G1 E3.20000 F4200.00000
M201 X800 Y800
M204 P800 T800
G1 F1200
G1 X84.413 Y83.246 E3.21824
G1 X84.848 Y82.909 E3.23648
G1 X85.303 Y82.599 E3.25473
G1 X85.777 Y82.319 E3.27297
G1 X86.268 Y82.069 E3.29121
G1 X86.773 Y81.850 E3.30945
G1 X87.291 Y81.664 E3.32770
G1 X87.820 Y81.510 E3.34594
G1 X88.358 Y81.390 E3.36418
G1 X88.901 Y81.304 E3.38242
G1 X89.450 Y81.252 E3.40067
G1 X89.994 Y81.235 E3.41871
G1 X90.550 Y81.252 E3.43715
G1 X91.099 Y81.304 E3.45539
G1 X91.642 Y81.390 E3.47363
G1 X92.180 Y81.510 E3.49188
G1 X92.709 Y81.664 E3.51012
G1 X93.227 Y81.850 E3.52836
G1 X93.732 Y82.069 E3.54660
G1 X94.223 Y82.319 E3.56485
G1 X94.697 Y82.599 E3.58309
G1 X95.152 Y82.909 E3.60133
G1 X95.587 Y83.246 E3.61957
G1 X96.000 Y83.611 E3.63781
G1 X96.389 Y84.000 E3.65606
G1 X96.754 Y84.413 E3.67430
G1 X97.091 Y84.848 E3.69254
G1 X97.401 Y85.303 E3.71078
G1 X97.681 Y85.777 E3.72903
G1 X97.931 Y86.268 E3.74727
G1 X98.150 Y86.773 E3.76551
G1 X98.336 Y87.291 E3.78375
G1 X98.490 Y87.820 E3.80200
G1 X98.610 Y88.358 E3.82024
G1 X98.696 Y88.901 E3.83848
G1 X98.748 Y89.450 E3.85672
G1 X98.765 Y90.000 E3.87496
G1 X98.748 Y90.550 E3.89321
G1 X98.696 Y91.099 E3.91145
G1 X98.610 Y91.642 E3.92969
G1 X98.490 Y92.180 E3.94793
G1 X98.336 Y92.709 E3.96618
G1 X98.150 Y93.227 E3.98442
G1 X97.931 Y93.732 E4.00266
G1 X97.681 Y94.223 E4.02090
G1 X97.401 Y94.697 E4.03915
G1 X97.091 Y95.152 E4.05739
G1 X96.750 Y95.591 E4.07582
G1 X96.389 Y96.000 E4.09387
G1 X96.000 Y96.389 E4.11211
G1 X95.587 Y96.754 E4.13036
G1 X95.152 Y97.091 E4.14860
G1 X94.697 Y97.401 E4.16684
G1 X94.217 Y97.684 E4.18528
G1 X93.732 Y97.931 E4.20333
G1 X93.227 Y98.150 E4.22157
G1 X92.703 Y98.338 E4.24000
G1 X92.180 Y98.490 E4.25805
G1 X91.642 Y98.610 E4.27629
G1 X91.099 Y98.696 E4.29454
G1 X90.550 Y98.748 E4.31278
G1 X90.000 Y98.765 E4.33102
G1 X89.450 Y98.748 E4.34926
G1 X88.901 Y98.696 E4.36751
G1 X88.358 Y98.610 E4.38575
G1 X87.820 Y98.490 E4.40399
G1 X87.291 Y98.336 E4.42223
G1 X86.773 Y98.150 E4.44047
G1 X86.268 Y97.931 E4.45872
G1 X85.777 Y97.681 E4.47696
G1 X85.303 Y97.401 E4.49520
G1 X84.848 Y97.091 E4.51344
G1 X84.413 Y96.754 E4.53169
G1 X83.996 Y96.385 E4.55012
G1 X83.611 Y96.000 E4.56817
G1 X83.246 Y95.587 E4.58641
G1 X82.909 Y95.152 E4.60466
G1 X82.599 Y94.697 E4.62290
G1 X82.316 Y94.217 E4.64133
G1 X82.069 Y93.732 E4.65938
G1 X81.850 Y93.227 E4.67763
G1 X81.662 Y92.703 E4.69606
G1 X81.510 Y92.180 E4.71411
G1 X81.390 Y91.642 E4.73235
G1 X81.303 Y91.093 E4.75079
G1 X81.252 Y90.550 E4.76883
G1 X81.235 Y90.000 E4.78708
G1 X81.252 Y89.450 E4.80532
G1 X81.304 Y88.901 E4.82356
G1 X81.390 Y88.358 E4.84180
G1 X81.510 Y87.820 E4.86005
G1 X81.664 Y87.291 E4.87829
G1 X81.850 Y86.773 E4.89653
G1 X82.069 Y86.268 E4.91477
G1 X82.319 Y85.777 E4.93302
G1 X82.599 Y85.303 E4.95126
G1 X82.909 Y84.848 E4.96950
G1 X83.246 Y84.413 E4.98774
G1 X83.611 Y84.000 E5.00598
G1 X83.957 Y83.653 E5.02224
M201 X1250 Y1250
M204 P1250 T1250
G1 F7200
G1 X84.413 Y83.246 E4.68391
G1 F7200
G1 X84.848 Y82.909 E4.37876
G1 F7200
G1 X85.303 Y82.599 E4.07362
G1 F7200
G1 X85.777 Y82.319 E3.76847
G1 F7200
G1 X86.268 Y82.069 E3.46333
G1 F7200
G1 X86.773 Y81.850 E3.15819
G1 F7200
G1 X87.291 Y81.664 E2.85304
G1 F7200
G1 X87.820 Y81.510 E2.54790
G1 F7200
G1 X88.358 Y81.390 E2.24275
G1 F7200
G1 X88.822 Y81.317 E1.98224
G1 E1.82224 F4200.00000
G92 E0
G1 Z0.500 F9000.000
G1 X70.946 Y69.709 F9000.000
G1 Z0.300 F9000.000
G1 E3.20000 F4200.00000
M201 X800 Y800
M204 P800 T800
G1 F1200
G1 X72.244 Y68.564 E3.25735
G1 X73.639 Y67.481 E3.31586
G1 X75.085 Y66.498 E3.37379
G1 X76.590 Y65.608 E3.43172
G1 X78.148 Y64.814 E3.48966
G1 X79.753 Y64.120 E3.54759
G1 X81.399 Y63.527 E3.60552
G1 X83.078 Y63.040 E3.66345
G1 X84.784 Y62.658 E3.72138
G1 X86.511 Y62.385 E3.77931
G1 X88.252 Y62.220 E3.83724
G1 X89.982 Y62.166 E3.89459
G1 X91.748 Y62.220 E3.95311
G1 X93.489 Y62.385 E4.01104
G1 X95.216 Y62.658 E4.06897
G1 X96.922 Y63.040 E4.12690
G1 X98.601 Y63.527 E4.18483
G1 X100.247 Y64.120 E4.24276
G1 X101.852 Y64.814 E4.30069
G1 X103.410 Y65.608 E4.35862
G1 X104.915 Y66.498 E4.41655
G1 X106.361 Y67.481 E4.47449
G1 X107.743 Y68.553 E4.53242
G1 X109.054 Y69.709 E4.59035
G1 X110.291 Y70.946 E4.64828
G1 X111.436 Y72.244 E4.70563
G1 X112.519 Y73.639 E4.76414
G1 X113.502 Y75.085 E4.82208
G1 X114.392 Y76.590 E4.88001
G1 X115.186 Y78.148 E4.93794
G1 X115.880 Y79.753 E4.99587
G1 X116.473 Y81.399 E5.05380
G1 X116.960 Y83.078 E5.11173
G1 X117.342 Y84.784 E5.16966
G1 X117.615 Y86.511 E5.22759
G1 X117.780 Y88.252 E5.28552
G1 X117.835 Y90.000 E5.34346
G1 X117.780 Y91.748 E5.40139
G1 X117.615 Y93.489 E5.45932
G1 X117.342 Y95.216 E5.51725
G1 X116.960 Y96.922 E5.57518
G1 X116.473 Y98.601 E5.63311
G1 X115.880 Y100.247 E5.69104
G1 X115.178 Y101.867 E5.74955
G1 X114.392 Y103.410 E5.80690
G1 X113.502 Y104.915 E5.86483
G1 X112.519 Y106.361 E5.92277
G1 X111.447 Y107.743 E5.98070
G1 X110.291 Y109.054 E6.03863
G1 X109.054 Y110.291 E6.09656
G1 X107.743 Y111.447 E6.15449
G1 X106.346 Y112.529 E6.21300
G1 X104.915 Y113.502 E6.27036
G1 X103.410 Y114.392 E6.32829
G1 X101.852 Y115.186 E6.38622
G1 X100.247 Y115.880 E6.44415
G1 X98.601 Y116.473 E6.50208
G1 X96.922 Y116.960 E6.56001
G1 X95.216 Y117.342 E6.61794
G1 X93.489 Y117.615 E6.67587
G1 X91.748 Y117.780 E6.73381
G1 X90.000 Y117.835 E6.79174
G1 X88.252 Y117.780 E6.84967
G1 X86.511 Y117.615 E6.90760
G1 X84.784 Y117.342 E6.96553
G1 X83.078 Y116.960 E7.02346
G1 X81.399 Y116.473 E7.08139
G1 X79.753 Y115.880 E7.13932
G1 X78.133 Y115.178 E7.19783
G1 X76.590 Y114.392 E7.25519
G1 X75.085 Y113.502 E7.31312
G1 X73.639 Y112.519 E7.37105
G1 X72.257 Y111.447 E7.42898
G1 X70.946 Y110.291 E7.48691
G1 X69.709 Y109.054 E7.54484
G1 X68.553 Y107.743 E7.60277
G1 X67.481 Y106.361 E7.66071
G1 X66.498 Y104.915 E7.71864
G1 X65.608 Y103.410 E7.77657
G1 X64.814 Y101.852 E7.83450
G1 X64.120 Y100.247 E7.89243
G1 X63.527 Y98.601 E7.95036
G1 X63.040 Y96.922 E8.00829
G1 X62.658 Y95.216 E8.06622
G1 X62.385 Y93.489 E8.12416
G1 X62.220 Y91.748 E8.18209
G1 X62.165 Y90.000 E8.24002
G1 X62.220 Y88.252 E8.29795
G1 X62.385 Y86.511 E8.35588
G1 X62.658 Y84.784 E8.41381
G1 X63.040 Y83.078 E8.47174
G1 X63.527 Y81.399 E8.52967
G1 X64.120 Y79.753 E8.58761
G1 X64.814 Y78.148 E8.64554
G1 X65.608 Y76.590 E8.70347
G1 X66.498 Y75.085 E8.76140
G1 X67.481 Y73.639 E8.81933
G1 X68.553 Y72.257 E8.87726
G1 X69.709 Y70.946 E8.93519
G1 X70.903 Y69.752 E8.99114
M201 X1250 Y1250
M204 P1250 T1250
G1 X71.026 Y70.005 F9000.000
M201 X800 Y800
M204 P800 T800
G1 F1200
G1 X69.798 Y71.233 E9.04882
G1 X71.233 Y69.798 E9.11621
G1 X72.517 Y68.666 E9.17305
G1 X73.523 Y67.885 E9.21534
G1 X67.883 Y73.524 E9.48017
G1 X67.593 Y73.899 E9.49590
G1 X66.972 Y74.812 E9.53256
G1 X74.812 Y66.972 E9.90070
G1 X75.331 Y66.619 E9.92155
G1 X75.845 Y66.315 E9.94139
G1 X66.315 Y75.845 E10.38892
G1 X65.770 Y76.767 E10.42447
G1 X76.767 Y65.770 E10.94087
G1 X77.544 Y65.370 E10.96989
G1 X65.370 Y77.543 E11.54158
G1 X64.979 Y78.311 E11.57019
G1 X78.311 Y64.979 E12.19630
G1 X78.982 Y64.684 E12.22063
G1 X64.684 Y78.982 E12.89207
G1 X64.397 Y79.646 E12.91608
G1 X79.646 Y64.397 E13.63218
G1 X80.269 Y64.150 E13.65445
G1 X64.150 Y80.269 E14.41141
G1 X63.938 Y80.858 E14.43218
G1 X80.858 Y63.938 E15.22672
G1 X81.446 Y63.727 E15.24748
G1 X63.727 Y81.446 E16.07960
G1 X63.559 Y81.990 E16.09851
G1 X81.990 Y63.559 E16.96407
G1 X82.521 Y63.405 E16.98242
G1 X63.405 Y82.521 E17.88013
G1 X63.251 Y83.051 E17.89848
G1 X83.051 Y63.251 E18.82835
G1 X83.553 Y63.125 E18.84553
G1 X63.125 Y83.553 E19.80485
G1 X63.017 Y84.038 E19.82134
G1 X84.038 Y63.017 E20.80852
G1 X84.523 Y62.908 E20.82502
G1 X62.908 Y84.523 E21.84007
G1 X62.806 Y85.002 E21.85635
G1 X85.002 Y62.806 E22.89874
G1 X85.450 Y62.735 E22.91378
G1 X62.735 Y85.450 E23.98051
G1 X62.664 Y85.897 E23.99555
G1 X85.897 Y62.664 E25.08661
G1 X86.345 Y62.593 E25.10165
G1 X62.593 Y86.345 E26.21705
G1 X62.532 Y86.782 E26.23171
G1 X86.782 Y62.532 E27.37050
G1 X87.198 Y62.493 E27.38436
G1 X62.493 Y87.198 E28.54452
G1 X62.454 Y87.613 E28.55839
G1 X87.613 Y62.454 E29.73992
G1 X88.029 Y62.414 E29.75379
G1 X62.414 Y88.029 E30.95669
G1 X62.380 Y88.440 E30.97039
G1 X88.440 Y62.380 E32.19422
G1 X88.829 Y62.368 E32.20713
G1 X62.368 Y88.829 E33.44979
G1 X62.355 Y89.218 E33.46270
G1 X89.218 Y62.355 E34.72419
G1 X89.607 Y62.343 E34.73711
G1 X62.343 Y89.607 E36.01742
G1 X62.331 Y89.995 E36.03034
G1 X89.995 Y62.331 E37.32949
G1 X90.366 Y62.337 E37.34180
G1 X62.336 Y90.367 E38.65813
G1 X62.347 Y90.732 E38.67025
G1 X90.731 Y62.348 E40.00320
G1 X91.097 Y62.359 E40.01533
G1 X62.359 Y91.097 E41.36488
G1 X62.370 Y91.462 E41.37701
G1 X91.462 Y62.370 E42.74318
G1 X91.827 Y62.382 E42.75531
G1 X62.382 Y91.827 E44.13810
G1 X62.414 Y92.171 E44.14958
G1 X92.171 Y62.414 E45.54703
G1 X92.515 Y62.446 E45.55851
G1 X62.446 Y92.515 E46.97058
G1 X62.479 Y92.859 E46.98206
G1 X92.860 Y62.479 E48.40876
G1 X93.204 Y62.511 E48.42024
G1 X62.511 Y93.203 E49.86157
G1 X62.544 Y93.548 E49.87304
G1 X93.548 Y62.544 E51.32900
G1 X93.873 Y62.595 E51.33995
G1 X62.595 Y93.873 E52.80881
G1 X62.646 Y94.198 E52.81974
G1 X94.198 Y62.646 E54.30145
G1 X94.523 Y62.698 E54.31238
G1 X62.698 Y94.523 E55.80694
G1 X62.749 Y94.848 E55.81787
G1 X94.848 Y62.749 E57.32527
G1 X95.173 Y62.801 E57.33620
G1 X62.801 Y95.173 E58.85644
G1 X62.864 Y95.486 E58.86705
G1 X95.486 Y62.864 E60.39899
G1 X95.794 Y62.933 E60.40947
G1 X62.933 Y95.794 E61.95264
G1 X63.002 Y96.102 E61.96311
G1 X96.102 Y63.002 E63.51750
G1 X96.409 Y63.071 E63.52797
G1 X63.071 Y96.409 E65.09358
G1 X63.139 Y96.717 E65.10405
G1 X96.717 Y63.139 E66.68089
G1 X97.021 Y63.212 E66.69127
G1 X63.212 Y97.021 E68.27901
G1 X63.296 Y97.313 E68.28910
G1 X97.313 Y63.296 E69.88656
G1 X97.605 Y63.381 E69.89665
G1 X63.381 Y97.605 E71.50383
G1 X63.466 Y97.897 E71.51392
G1 X97.897 Y63.466 E73.13082
G1 X98.188 Y63.551 E73.14091
G1 X63.551 Y98.188 E74.76753
G1 X63.635 Y98.480 E74.77762
G1 X98.480 Y63.635 E76.41396
G1 X98.764 Y63.728 E76.42388
G1 X63.728 Y98.764 E78.06923
G1 X63.827 Y99.041 E78.07900
G1 X99.041 Y63.827 E79.73266
G1 X99.318 Y63.927 E79.74244
G1 X63.927 Y99.318 E81.40442
G1 X64.027 Y99.595 E81.41419
G1 X99.595 Y64.027 E83.08450
G1 X99.872 Y64.127 E83.09427
G1 X64.127 Y99.872 E84.77289
G1 X64.226 Y100.148 E84.78266
G1 X100.148 Y64.226 E86.46961
G1 X100.417 Y64.335 E86.47921
G1 X64.335 Y100.417 E88.17365
G1 X64.448 Y100.679 E88.18316
G1 X100.679 Y64.448 E89.88460
G1 X100.942 Y64.562 E89.89411
G1 X64.562 Y100.942 E91.60255
G1 X64.676 Y101.205 E91.61206
G1 X101.205 Y64.676 E93.32751
G1 X101.468 Y64.790 E93.33702
G1 X64.790 Y101.468 E95.05946
G1 X64.903 Y101.731 E95.06897
G1 X101.731 Y64.903 E96.79842
G1 X101.986 Y65.025 E96.80780
G1 X65.025 Y101.986 E98.54352
G1 X65.152 Y102.235 E98.55282
G1 X82.795 Y84.592 E99.38136
G1 X82.478 Y85.058 E99.40006
G1 X82.161 Y85.603 E99.42101
G1 X65.279 Y102.484 E100.21380
G1 X65.406 Y102.734 E100.22309
G1 X81.813 Y86.327 E100.99357
G1 X81.573 Y86.943 E101.01553
G1 X65.533 Y102.983 E101.76878
G1 X65.660 Y103.233 E101.77808
G1 X81.403 Y87.490 E102.51738
G1 X81.281 Y87.989 E102.53443
G1 X65.792 Y103.477 E103.26179
G1 X65.932 Y103.714 E103.27091
G1 X81.193 Y88.453 E103.98758
G1 X81.132 Y88.891 E104.00227
G1 X66.072 Y103.950 E104.70949
G1 X66.212 Y104.187 E104.71861
G1 X81.093 Y89.306 E105.41742
G1 X81.079 Y89.697 E105.43038
G1 X66.352 Y104.424 E106.12197
G1 X66.492 Y104.660 E106.13110
G1 X81.078 Y90.074 E106.81608
G1 X81.090 Y90.439 E106.82821
G1 X66.633 Y104.896 E107.50711
G1 X66.785 Y105.120 E107.51611
G1 X81.121 Y90.784 E108.18931
G1 X81.159 Y91.123 E108.20062
G1 X66.938 Y105.344 E108.86847
G1 X67.090 Y105.568 E108.87747
G1 X81.210 Y91.448 E109.54057
G1 X81.271 Y91.763 E109.55124
G1 X67.242 Y105.792 E110.21006
G1 X67.395 Y106.016 E110.21906
G1 X81.340 Y92.071 E110.87396
G1 X81.421 Y92.366 E110.88413
G1 X67.547 Y106.241 E111.53568
G1 X67.708 Y106.456 E111.54462
G1 X81.506 Y92.658 E112.19260
G1 X81.604 Y92.936 E112.20240
G1 X67.872 Y106.668 E112.84727
G1 X68.037 Y106.880 E112.85618
G1 X81.704 Y93.213 E113.49800
G1 X81.817 Y93.476 E113.50752
G1 X68.201 Y107.092 E114.14694
G1 X68.366 Y107.304 E114.15585
G1 X81.931 Y93.739 E114.79289
G1 X82.058 Y93.989 E114.80218
G1 X68.530 Y107.517 E115.43746
G1 X68.697 Y107.726 E115.44635
G1 X82.185 Y94.238 E116.07973
G1 X82.325 Y94.475 E116.08887
G1 X68.874 Y107.926 E116.72052
G1 X69.050 Y108.126 E116.72938
G1 X82.464 Y94.712 E117.35931
G1 X82.615 Y94.937 E117.36832
G1 X69.227 Y108.326 E117.99706
G1 X69.403 Y108.526 E118.00592
G1 X82.768 Y95.161 E118.63353
G1 X82.930 Y95.376 E118.64246
G1 X69.580 Y108.726 E119.26940
G1 X69.756 Y108.926 E119.27826
G1 X83.094 Y95.588 E119.90464
G1 X83.267 Y95.792 E119.91351
G1 X69.941 Y109.117 E120.53930
G1 X70.130 Y109.306 E120.54814
G1 X83.443 Y95.992 E121.17337
G1 X83.627 Y96.185 E121.18221
G1 X70.318 Y109.494 E121.80721
G1 X70.506 Y109.682 E121.81605
G1 X83.815 Y96.373 E122.44104
G1 X84.008 Y96.556 E122.44988
G1 X70.694 Y109.870 E123.07512
G1 X70.883 Y110.059 E123.08396
G1 X84.208 Y96.733 E123.70976
G1 X84.412 Y96.906 E123.71863
G1 X71.074 Y110.244 E124.34501
G1 X71.274 Y110.420 E124.35387
G1 X84.624 Y97.070 E124.98081
G1 X84.839 Y97.232 E124.98973
G1 X71.474 Y110.597 E125.61735
G1 X71.674 Y110.773 E125.62620
G1 X85.063 Y97.385 E126.25495
G1 X85.288 Y97.536 E126.26396
G1 X71.874 Y110.950 E126.89389
G1 X72.074 Y111.126 E126.90275
G1 X85.525 Y97.676 E127.53440
G1 X85.762 Y97.815 E127.54353
G1 X72.274 Y111.303 E128.17691
G1 X72.323 Y111.346 E128.17908
G1 X72.484 Y111.470 E128.18581
G1 X86.011 Y97.942 E128.82108
G1 X86.261 Y98.069 E128.83038
G1 X72.696 Y111.634 E129.46742
G1 X72.908 Y111.799 E129.47633
G1 X86.524 Y98.183 E130.11575
G1 X86.787 Y98.296 E130.12527
G1 X73.120 Y111.963 E130.76709
G1 X73.332 Y112.128 E130.77600
G1 X87.064 Y98.396 E131.42087
G1 X87.342 Y98.494 E131.43067
G1 X73.544 Y112.292 E132.07865
G1 X73.759 Y112.453 E132.08758
G1 X87.634 Y98.579 E132.73913
G1 X87.929 Y98.660 E132.74931
G1 X73.984 Y112.605 E133.40421
G1 X74.208 Y112.758 E133.41321
G1 X88.237 Y98.729 E134.07203
G1 X88.552 Y98.790 E134.08270
G1 X74.432 Y112.910 E134.74580
G1 X74.656 Y113.062 E134.75480
G1 X88.877 Y98.841 E135.42264
G1 X89.216 Y98.879 E135.43395
G1 X74.880 Y113.215 E136.10715
G1 X75.104 Y113.367 E136.11615
G1 X89.561 Y98.910 E136.79505
G1 X89.926 Y98.922 E136.80718
G1 X75.340 Y113.508 E137.49217
G1 X75.577 Y113.648 E137.50129
G1 X90.303 Y98.921 E138.19288
G1 X90.694 Y98.907 E138.20585
G1 X75.813 Y113.788 E138.90466
G1 X76.050 Y113.928 E138.91378
G1 X91.109 Y98.868 E139.62101
G1 X91.547 Y98.807 E139.63569
G1 X76.286 Y114.068 E140.35236
G1 X76.523 Y114.208 E140.36149
G1 X92.011 Y98.719 E141.08884
G1 X92.510 Y98.597 E141.10590
G1 X76.767 Y114.340 E141.84520
G1 X77.017 Y114.467 E141.85450
G1 X93.057 Y98.426 E142.60778
G1 X93.673 Y98.187 E142.62971
G1 X77.266 Y114.594 E143.40020
G1 X77.516 Y114.721 E143.40950
G1 X94.398 Y97.839 E144.20229
G1 X94.942 Y97.522 E144.22322
G1 X95.408 Y97.205 E144.24194
G1 X77.765 Y114.848 E145.07049
G1 X78.014 Y114.975 E145.07979
G1 X114.975 Y78.014 E146.81551
G1 X115.097 Y78.270 E146.82489
G1 X78.270 Y115.096 E148.55430
G1 X78.533 Y115.210 E148.56381
G1 X115.211 Y78.532 E150.28622
G1 X115.324 Y78.795 E150.29573
G1 X78.796 Y115.324 E152.01115
G1 X79.058 Y115.438 E152.02066
G1 X115.438 Y79.058 E153.72908
G1 X115.552 Y79.321 E153.73859
G1 X79.321 Y115.551 E155.44002
G1 X79.584 Y115.665 E155.44953
