; generated by Slic3r 1.3.1-dev (Build 2d100c4) on 2020-05-22 at 13:21:59

; external perimeters extrusion width = 0.44mm (2.86mm^3/s)
; perimeters extrusion width = 0.56mm (4.14mm^3/s)
; infill extrusion width = 0.50mm (3.66mm^3/s)
; solid infill extrusion width = 0.56mm (3.10mm^3/s)
; top infill extrusion width = 0.56mm (3.10mm^3/s)

M107
G92 E0
;D3D:START:START
T0
M104 S215 T0

G21
G90
M107
T0
G28
G29
M109 T0 S215 T0
G0 F3000
M107
T0
G92 E0
G0 X0 Y149 Z0.1 F3600
G1 Y49 E6.5 F1200
G0 Z1
G92 E0
; Filament gcode

G21 ; set units to millimeters
G90 ; use absolute coordinates
M82 ; use absolute distances for extrusion
G92 E0
G1 Z0.300 F7800.000
G1 E-2.00000 F2400.00000
G92 E0
G1 X68.154 Y65.238 F7800.000
G1 E2.00000 F2400.00000
G1 F1800.000
G1 X68.154 Y96.131 E3.02349
G1 X66.974 Y95.706 E3.06504
G1 X65.717 Y95.162 E3.11042
G1 X64.496 Y94.540 E3.15580
G1 X63.317 Y93.843 E3.20117
G1 X62.184 Y93.073 E3.24655
G1 X61.102 Y92.234 E3.29193
G1 X60.075 Y91.328 E3.33731
G1 X59.106 Y90.359 E3.38269
G1 X58.200 Y89.332 E3.42807
G1 X57.361 Y88.250 E3.47344
G1 X56.591 Y87.117 E3.51882
G1 X55.894 Y85.938 E3.56420
G1 X55.272 Y84.717 E3.60958
G1 X54.728 Y83.460 E3.65496
G1 X54.264 Y82.172 E3.70034
G1 X53.882 Y80.856 E3.74571
G1 X53.583 Y79.520 E3.79109
G1 X53.368 Y78.167 E3.83647
G1 X53.240 Y76.803 E3.88185
G1 X53.197 Y75.434 E3.92723
G1 X53.240 Y74.065 E3.97261
G1 X53.368 Y72.701 E4.01798
G1 X53.583 Y71.348 E4.06336
G1 X53.882 Y70.012 E4.10874
G1 X54.264 Y68.696 E4.15412
G1 X54.728 Y67.408 E4.19950
G1 X55.272 Y66.151 E4.24488
G1 X55.894 Y64.930 E4.29026
G1 X56.591 Y63.751 E4.33563
G1 X57.361 Y62.618 E4.38101
G1 X58.200 Y61.536 E4.42639
G1 X59.106 Y60.509 E4.47177
G1 X60.075 Y59.540 E4.51715
G1 X61.102 Y58.634 E4.56252
G1 X62.184 Y57.795 E4.60790
G1 X63.317 Y57.025 E4.65328
G1 X64.496 Y56.328 E4.69866
G1 X65.717 Y55.706 E4.74404
G1 X66.974 Y55.162 E4.78942
G1 X68.262 Y54.698 E4.83479
G1 X69.578 Y54.316 E4.88017
G1 X70.914 Y54.017 E4.92555
G1 X72.267 Y53.802 E4.97093
G1 X73.631 Y53.674 E5.01631
G1 X75.000 Y53.631 E5.06169
G1 X76.369 Y53.674 E5.10706
G1 X77.733 Y53.802 E5.15244
G1 X79.086 Y54.017 E5.19782
G1 X80.422 Y54.316 E5.24320
G1 X81.738 Y54.698 E5.28858
G1 X83.026 Y55.162 E5.33395
G1 X84.283 Y55.706 E5.37933
G1 X85.504 Y56.328 E5.42471
G1 X86.683 Y57.025 E5.47009
G1 X87.816 Y57.795 E5.51547
G1 X88.898 Y58.634 E5.56085
G1 X89.925 Y59.540 E5.60622
G1 X90.894 Y60.509 E5.65160
G1 X91.800 Y61.536 E5.69698
G1 X92.639 Y62.618 E5.74236
G1 X93.409 Y63.751 E5.78774
G1 X94.106 Y64.930 E5.83311
G1 X94.728 Y66.151 E5.87849
G1 X95.272 Y67.408 E5.92387
G1 X95.736 Y68.696 E5.96925
G1 X96.118 Y70.012 E6.01463
G1 X96.417 Y71.348 E6.06001
G1 X96.632 Y72.701 E6.10539
G1 X96.760 Y74.065 E6.15076
G1 X96.803 Y75.434 E6.19614
G1 X96.760 Y76.803 E6.24152
G1 X96.632 Y78.167 E6.28690
G1 X96.417 Y79.520 E6.33228
G1 X96.118 Y80.856 E6.37766
G1 X95.736 Y82.172 E6.42303
G1 X95.272 Y83.460 E6.46841
G1 X94.728 Y84.717 E6.51379
G1 X94.106 Y85.938 E6.55917
G1 X93.409 Y87.117 E6.60455
G1 X92.639 Y88.250 E6.64993
G1 X91.800 Y89.332 E6.69530
G1 X90.894 Y90.359 E6.74068
G1 X89.925 Y91.328 E6.78606
G1 X88.898 Y92.234 E6.83144
G1 X87.816 Y93.073 E6.87682
G1 X86.683 Y93.843 E6.92220
G1 X85.504 Y94.540 E6.96757
G1 X84.283 Y95.162 E7.01295
G1 X83.026 Y95.706 E7.05833
G1 X81.846 Y96.131 E7.09988
G1 X81.846 Y65.238 E8.12337
G1 X68.214 Y65.238 E8.57501
G1 X68.419 Y65.503 F7800.000
G1 F1800.000
G1 X68.419 Y96.493 E9.60166
G1 X68.180 Y96.423 E9.60991
G1 X66.876 Y95.953 E9.65584
G1 X65.603 Y95.403 E9.70178
G1 X64.368 Y94.773 E9.74771
G1 X63.175 Y94.068 E9.79364
G1 X62.028 Y93.288 E9.83957
G1 X60.933 Y92.439 E9.88550
G1 X59.893 Y91.522 E9.93143
G1 X58.912 Y90.541 E9.97736
G1 X57.995 Y89.501 E10.02330
G1 X57.146 Y88.406 E10.06923
G1 X56.366 Y87.259 E10.11516
G1 X55.661 Y86.066 E10.16109
G1 X55.031 Y84.831 E10.20702
G1 X54.481 Y83.558 E10.25295
G1 X54.011 Y82.254 E10.29888
G1 X53.624 Y80.922 E10.34481
G1 X53.322 Y79.569 E10.39075
G1 X53.105 Y78.200 E10.43668
G1 X52.974 Y76.820 E10.48261
G1 X52.931 Y75.434 E10.52854
G1 X52.974 Y74.048 E10.57447
G1 X53.105 Y72.668 E10.62040
G1 X53.322 Y71.299 E10.66633
G1 X53.624 Y69.946 E10.71227
G1 X54.011 Y68.614 E10.75820
G1 X54.481 Y67.310 E10.80413
G1 X55.031 Y66.037 E10.85006
G1 X55.661 Y64.802 E10.89599
G1 X56.366 Y63.609 E10.94192
G1 X57.146 Y62.462 E10.98785
G1 X57.995 Y61.367 E11.03379
G1 X58.912 Y60.327 E11.07972
G1 X59.893 Y59.346 E11.12565
G1 X60.933 Y58.429 E11.17158
G1 X62.028 Y57.580 E11.21751
G1 X63.175 Y56.800 E11.26344
G1 X64.368 Y56.095 E11.30937
G1 X65.603 Y55.465 E11.35531
G1 X66.876 Y54.915 E11.40124
G1 X68.180 Y54.445 E11.44717
G1 X69.512 Y54.058 E11.49310
G1 X70.865 Y53.756 E11.53903
G1 X72.234 Y53.539 E11.58496
G1 X73.614 Y53.408 E11.63089
G1 X75.000 Y53.365 E11.67683
G1 X76.386 Y53.408 E11.72276
G1 X77.766 Y53.539 E11.76869
G1 X79.135 Y53.756 E11.81462
G1 X80.488 Y54.058 E11.86055
G1 X81.820 Y54.445 E11.90648
G1 X83.124 Y54.915 E11.95241
G1 X84.397 Y55.465 E11.99835
G1 X85.632 Y56.095 E12.04428
G1 X86.825 Y56.800 E12.09021
G1 X87.972 Y57.580 E12.13614
G1 X89.067 Y58.429 E12.18207
G1 X90.107 Y59.346 E12.22800
G1 X91.088 Y60.327 E12.27393
G1 X92.005 Y61.367 E12.31987
G1 X92.854 Y62.462 E12.36580
G1 X93.634 Y63.609 E12.41173
G1 X94.339 Y64.802 E12.45766
G1 X94.969 Y66.037 E12.50359
G1 X95.519 Y67.310 E12.54952
G1 X95.989 Y68.614 E12.59545
G1 X96.376 Y69.946 E12.64138
G1 X96.678 Y71.299 E12.68732
G1 X96.895 Y72.668 E12.73325
G1 X97.026 Y74.048 E12.77918
G1 X97.069 Y75.434 E12.82511
G1 X97.026 Y76.820 E12.87104
G1 X96.895 Y78.200 E12.91697
G1 X96.678 Y79.569 E12.96290
G1 X96.376 Y80.922 E13.00884
G1 X95.989 Y82.254 E13.05477
G1 X95.519 Y83.558 E13.10070
G1 X94.969 Y84.831 E13.14663
G1 X94.339 Y86.066 E13.19256
G1 X93.634 Y87.259 E13.23849
G1 X92.854 Y88.406 E13.28442
G1 X92.005 Y89.501 E13.33036
G1 X91.088 Y90.541 E13.37629
G1 X90.107 Y91.522 E13.42222
G1 X89.067 Y92.439 E13.46815
G1 X87.972 Y93.288 E13.51408
G1 X86.825 Y94.068 E13.56001
G1 X85.632 Y94.773 E13.60594
G1 X84.397 Y95.403 E13.65188
G1 X83.124 Y95.953 E13.69781
G1 X81.820 Y96.423 E13.74374
G1 X81.581 Y96.493 E13.75199
G1 X81.581 Y65.503 E14.77864
G1 X68.479 Y65.503 E15.21268
G1 X68.685 Y65.769 F7800.000
G1 F1800.000
G1 X68.685 Y96.846 E16.24226
G1 X68.098 Y96.676 E16.26250
G1 X66.778 Y96.201 E16.30899
G1 X65.490 Y95.643 E16.35547
G1 X64.240 Y95.006 E16.40196
G1 X63.032 Y94.292 E16.44844
G1 X61.872 Y93.503 E16.49493
G1 X60.763 Y92.643 E16.54141
G1 X59.711 Y91.715 E16.58789
G1 X58.719 Y90.723 E16.63438
G1 X57.791 Y89.671 E16.68086
G1 X56.931 Y88.562 E16.72735
G1 X56.142 Y87.402 E16.77383
G1 X55.428 Y86.194 E16.82031
G1 X54.791 Y84.944 E16.86680
G1 X54.233 Y83.656 E16.91329
G1 X53.758 Y82.336 E16.95977
G1 X53.367 Y80.988 E17.00625
G1 X53.061 Y79.619 E17.05274
G1 X52.841 Y78.233 E17.09922
G1 X52.709 Y76.836 E17.14571
G1 X52.665 Y75.434 E17.19219
G1 X52.709 Y74.032 E17.23868
G1 X52.841 Y72.635 E17.28516
G1 X53.061 Y71.249 E17.33165
G1 X53.367 Y69.880 E17.37813
G1 X53.758 Y68.532 E17.42461
G1 X54.233 Y67.212 E17.47110
G1 X54.791 Y65.924 E17.51758
G1 X55.428 Y64.674 E17.56407
G1 X56.142 Y63.466 E17.61055
G1 X56.931 Y62.306 E17.65704
G1 X57.791 Y61.197 E17.70352
G1 X58.719 Y60.145 E17.75001
G1 X59.711 Y59.153 E17.79649
G1 X60.763 Y58.225 E17.84298
G1 X61.872 Y57.365 E17.88946
G1 X63.032 Y56.576 E17.93594
G1 X64.240 Y55.862 E17.98243
G1 X65.490 Y55.225 E18.02891
G1 X66.778 Y54.667 E18.07540
G1 X68.098 Y54.192 E18.12188
G1 X69.446 Y53.801 E18.16837
G1 X70.815 Y53.495 E18.21485
G1 X72.201 Y53.275 E18.26134
G1 X73.598 Y53.143 E18.30782
G1 X75.000 Y53.099 E18.35430
G1 X76.402 Y53.143 E18.40079
G1 X77.799 Y53.275 E18.44727
G1 X79.185 Y53.495 E18.49376
G1 X80.554 Y53.801 E18.54024
G1 X81.902 Y54.192 E18.58673
G1 X83.222 Y54.667 E18.63321
G1 X84.510 Y55.225 E18.67970
G1 X85.760 Y55.862 E18.72618
G1 X86.968 Y56.576 E18.77266
G1 X88.128 Y57.365 E18.81915
G1 X89.237 Y58.225 E18.86563
G1 X90.289 Y59.153 E18.91212
G1 X91.281 Y60.145 E18.95860
G1 X92.209 Y61.197 E19.00509
G1 X93.069 Y62.306 E19.05157
G1 X93.858 Y63.466 E19.09806
G1 X94.572 Y64.674 E19.14454
G1 X95.209 Y65.924 E19.19103
G1 X95.767 Y67.212 E19.23751
G1 X96.242 Y68.532 E19.28399
G1 X96.633 Y69.880 E19.33048
G1 X96.939 Y71.249 E19.37696
G1 X97.159 Y72.635 E19.42345
G1 X97.291 Y74.032 E19.46993
G1 X97.335 Y75.434 E19.51642
G1 X97.291 Y76.836 E19.56290
G1 X97.159 Y78.233 E19.60939
G1 X96.939 Y79.619 E19.65587
G1 X96.633 Y80.988 E19.70236
G1 X96.242 Y82.336 E19.74884
G1 X95.767 Y83.656 E19.79532
G1 X95.209 Y84.944 E19.84181
G1 X94.572 Y86.194 E19.88829
G1 X93.858 Y87.402 E19.93478
G1 X93.069 Y88.562 E19.98126
G1 X92.209 Y89.671 E20.02775
G1 X91.281 Y90.723 E20.07423
G1 X90.289 Y91.715 E20.12072
G1 X89.237 Y92.643 E20.16720
G1 X88.128 Y93.503 E20.21368
G1 X86.968 Y94.292 E20.26017
G1 X85.760 Y95.006 E20.30665
G1 X84.510 Y95.643 E20.35314
G1 X83.222 Y96.201 E20.39962
G1 X81.902 Y96.676 E20.44611
G1 X81.315 Y96.846 E20.46635
G1 X81.315 Y65.769 E21.49593
G1 X68.745 Y65.769 E21.91237
G1 X67.991 Y65.154 F7800.000
G1 F1800.000
G1 X67.991 Y65.530 E21.92482
G1 X53.778 Y79.743 E22.59110
G1 X53.847 Y80.050 E22.60154
G1 X67.991 Y65.905 E23.26459
G1 X67.991 Y66.281 E23.27705
G1 X53.916 Y80.357 E23.93689
G1 X53.984 Y80.664 E23.94732
G1 X67.991 Y66.657 E24.60394
G1 X67.991 Y67.033 E24.61640
G1 X54.057 Y80.967 E25.26961
G1 X54.142 Y81.259 E25.27967
G1 X67.991 Y67.409 E25.92891
G1 X67.991 Y67.785 E25.94137
G1 X54.226 Y81.550 E26.58665
G1 X54.311 Y81.841 E26.59670
G1 X67.991 Y68.160 E27.23802
G1 X67.991 Y68.536 E27.25047
G1 X54.396 Y82.132 E27.88782
G1 X54.492 Y82.412 E27.89762
G1 X67.991 Y68.912 E28.53045
G1 X67.991 Y69.288 E28.54291
G1 X54.591 Y82.688 E29.17107
G1 X54.691 Y82.964 E29.18081
G1 X67.991 Y69.664 E29.80431
G1 X67.991 Y70.040 E29.81677
G1 X54.790 Y83.241 E30.43560
G1 X54.892 Y83.514 E30.44529
G1 X67.991 Y70.416 E31.05934
G1 X67.991 Y70.791 E31.07179
G1 X55.006 Y83.777 E31.68052
G1 X55.120 Y84.039 E31.69000
G1 X67.991 Y71.167 E32.29340
G1 X67.991 Y71.543 E32.30586
G1 X55.233 Y84.301 E32.90395
G1 X55.347 Y84.564 E32.91342
G1 X67.991 Y71.919 E33.50619
G1 X67.991 Y72.295 E33.51864
G1 X55.466 Y84.820 E34.10580
G1 X55.593 Y85.069 E34.11507
G1 X67.991 Y72.671 E34.69628
G1 X67.991 Y73.046 E34.70874
G1 X55.720 Y85.318 E35.28400
G1 X55.847 Y85.567 E35.29326
G1 X67.991 Y73.422 E35.86258
G1 X67.991 Y73.798 E35.87504
G1 X55.974 Y85.816 E36.43841
G1 X56.108 Y86.057 E36.44757
G1 X67.991 Y74.174 E37.00463
G1 X67.991 Y74.550 E37.01708
G1 X56.248 Y86.293 E37.56760
G1 X56.388 Y86.530 E37.57669
G1 X67.991 Y74.926 E38.12065
G1 X67.991 Y75.302 E38.13311
G1 X56.527 Y86.766 E38.67053
G1 X56.667 Y87.002 E38.67962
G1 X67.991 Y75.677 E39.21049
G1 X67.991 Y76.053 E39.22295
G1 X56.815 Y87.230 E39.74688
G1 X56.967 Y87.453 E39.75584
G1 X67.991 Y76.429 E40.27264
G1 X67.991 Y76.805 E40.28510
G1 X57.119 Y87.677 E40.79477
G1 X57.271 Y87.901 E40.80374
G1 X67.991 Y77.181 E41.30627
G1 X67.991 Y77.557 E41.31873
G1 X57.423 Y88.125 E41.81414
G1 X57.584 Y88.340 E41.82305
G1 X67.991 Y77.932 E42.31094
G1 X67.991 Y78.308 E42.32340
G1 X57.748 Y88.552 E42.80360
G1 X57.912 Y88.764 E42.81248
G1 X67.991 Y78.684 E43.28498
G1 X67.991 Y79.060 E43.29744
G1 X58.076 Y88.975 E43.76225
G1 X58.240 Y89.187 E43.77113
G1 X67.991 Y79.436 E44.22823
G1 X67.991 Y79.812 E44.24069
G1 X58.412 Y89.391 E44.68975
G1 X58.588 Y89.591 E44.69858
G1 X67.991 Y80.188 E45.13939
G1 X67.991 Y80.563 E45.15184
G1 X58.764 Y89.791 E45.58440
G1 X58.940 Y89.990 E45.59322
G1 X67.991 Y80.939 E46.01752
G1 X67.991 Y81.315 E46.02998
G1 X59.116 Y90.190 E46.44602
G1 X59.299 Y90.383 E46.45483
G1 X67.991 Y81.691 E46.86232
G1 X67.991 Y82.067 E46.87478
G1 X59.487 Y90.571 E47.27345
G1 X59.675 Y90.759 E47.28226
G1 X67.991 Y82.443 E47.67213
G1 X67.991 Y82.818 E47.68458
G1 X59.863 Y90.947 E48.06564
G1 X60.051 Y91.135 E48.07445
G1 X67.991 Y83.194 E48.44670
G1 X67.991 Y83.570 E48.45915
G1 X60.244 Y91.318 E48.82234
G1 X60.444 Y91.494 E48.83117
G1 X67.991 Y83.946 E49.18499
G1 X67.991 Y84.322 E49.19745
G1 X60.643 Y91.670 E49.54190
G1 X60.843 Y91.846 E49.55073
G1 X67.991 Y84.698 E49.88582
G1 X67.991 Y85.074 E49.89828
G1 X61.043 Y92.022 E50.22401
G1 X61.247 Y92.194 E50.23285
G1 X67.991 Y85.449 E50.54901
G1 X67.991 Y85.825 E50.56147
G1 X61.459 Y92.358 E50.86770
G1 X61.670 Y92.522 E50.87658
G1 X67.991 Y86.201 E51.17289
G1 X67.991 Y86.577 E51.18535
G1 X61.882 Y92.686 E51.47174
G1 X62.094 Y92.850 E51.48062
G1 X67.991 Y86.953 E51.75709
G1 X67.991 Y87.329 E51.76955
G1 X62.309 Y93.011 E52.03592
G1 X62.533 Y93.163 E52.04488
G1 X67.991 Y87.704 E52.30076
G1 X67.991 Y88.080 E52.31322
G1 X62.757 Y93.315 E52.55860
G1 X62.981 Y93.467 E52.56757
G1 X67.991 Y88.456 E52.80246
G1 X67.991 Y88.832 E52.81492
G1 X63.204 Y93.619 E53.03933
G1 X63.432 Y93.767 E53.04833
G1 X67.991 Y89.208 E53.26206
G1 X67.991 Y89.584 E53.27452
G1 X63.668 Y93.907 E53.47718
G1 X63.905 Y94.046 E53.48627
G1 X67.991 Y89.960 E53.67786
G1 X67.991 Y90.335 E53.69031
G1 X64.141 Y94.186 E53.87083
G1 X64.377 Y94.326 E53.87992
G1 X67.991 Y90.711 E54.04936
G1 X67.991 Y91.087 E54.06182
G1 X64.618 Y94.460 E54.21996
G1 X64.867 Y94.587 E54.22922
G1 X67.991 Y91.463 E54.37569
G1 X67.991 Y91.839 E54.38815
G1 X65.116 Y94.714 E54.52294
G1 X65.365 Y94.841 E54.53220
G1 X67.991 Y92.215 E54.65532
G1 X67.991 Y92.590 E54.66778
G1 X65.614 Y94.968 E54.77923
G1 X65.870 Y95.087 E54.78860
G1 X67.991 Y92.966 E54.88804
G1 X67.991 Y93.342 E54.90049
G1 X66.133 Y95.201 E54.98763
G1 X66.395 Y95.315 E54.99711
G1 X67.991 Y93.718 E55.07194
G1 X67.991 Y94.094 E55.08440
G1 X66.657 Y95.428 E55.14695
G1 X66.920 Y95.542 E55.15642
G1 X67.991 Y94.470 E55.20667
G1 X67.991 Y94.846 E55.21912
G1 X67.193 Y95.644 E55.25654
G1 X67.470 Y95.743 E55.26627
G1 X67.991 Y95.221 E55.29073
G1 X67.991 Y95.597 E55.30319
G1 X67.746 Y95.843 E55.31469
G1 E53.31469 F2400.00000
G92 E0
G1 X89.639 Y91.239 F7800.000
G1 E2.00000 F2400.00000
G1 F1800.000
G1 X90.805 Y90.073 E2.05464
G1 X91.698 Y89.059 E2.09944
G1 X92.562 Y87.940 E2.14629
G1 X87.506 Y92.996 E2.38329
G1 X86.356 Y93.770 E2.42927
G1 X93.336 Y86.790 E2.75652
G1 X93.880 Y85.870 E2.79194
G1 X85.436 Y94.314 E3.18781
G1 X84.642 Y94.732 E3.21753
G1 X94.298 Y85.076 E3.67018
G1 X94.663 Y84.336 E3.69753
G1 X83.902 Y95.097 E4.20198
G1 X83.239 Y95.383 E4.22591
G1 X94.949 Y83.673 E4.77486
G1 X95.208 Y83.039 E4.79756
G1 X82.605 Y95.642 E5.38836
G1 X82.018 Y95.853 E5.40905
G1 X95.419 Y82.452 E6.03730
G1 X95.619 Y81.876 E6.05748
G1 X82.009 Y95.487 E6.69550
G1 X82.009 Y95.111 E6.70796
G1 X95.773 Y81.347 E7.35319
G1 X95.927 Y80.817 E7.37148
G1 X82.009 Y94.735 E8.02392
G1 X82.009 Y94.359 E8.03638
G1 X96.046 Y80.322 E8.69442
G1 X96.154 Y79.837 E8.71087
G1 X82.009 Y93.983 E9.37398
G1 X82.009 Y93.607 E9.38644
G1 X96.261 Y79.354 E10.05459
G1 X96.332 Y78.908 E10.06957
G1 X82.009 Y93.231 E10.74103
G1 X82.009 Y92.856 E10.75349
G1 X96.403 Y78.461 E11.42826
G1 X96.473 Y78.016 E11.44321
G1 X82.009 Y92.480 E12.12125
G1 X82.009 Y92.104 E12.13371
G1 X96.512 Y77.601 E12.81358
G1 X96.551 Y77.186 E12.82740
G1 X82.009 Y91.728 E13.50912
G1 X82.009 Y91.352 E13.52158
G1 X96.590 Y76.771 E14.20514
G1 X96.608 Y76.377 E14.21820
G1 X82.009 Y90.976 E14.90259
G1 X82.009 Y90.601 E14.91505
G1 X96.620 Y75.989 E15.60002
G1 X96.632 Y75.601 E15.61289
G1 X82.009 Y90.225 E16.29843
G1 X82.009 Y89.849 E16.31088
G1 X96.638 Y75.220 E16.99666
G1 X96.626 Y74.855 E17.00874
G1 X82.009 Y89.473 E17.69398
G1 X82.009 Y89.097 E17.70644
G1 X96.615 Y74.491 E18.39114
G1 X96.603 Y74.127 E18.40322
G1 X82.009 Y88.721 E19.08738
G1 X82.009 Y88.345 E19.09984
G1 X96.579 Y73.775 E19.78288
G1 X96.547 Y73.431 E19.79432
G1 X82.009 Y87.970 E20.47584
G1 X82.009 Y87.594 E20.48829
G1 X96.514 Y73.088 E21.16829
G1 X96.482 Y72.745 E21.17973
G1 X82.009 Y87.218 E21.85820
G1 X82.009 Y86.842 E21.87066
G1 X96.437 Y72.414 E22.54702
G1 X96.385 Y72.089 E22.55791
G1 X82.009 Y86.466 E23.23186
G1 X82.009 Y86.090 E23.24432
G1 X96.334 Y71.765 E23.91586
G1 X96.283 Y71.440 E23.92675
G1 X82.009 Y85.715 E24.59589
G1 X82.009 Y85.339 E24.60835
G1 X96.222 Y71.126 E25.27463
G1 X96.153 Y70.818 E25.28506
G1 X82.009 Y84.963 E25.94812
G1 X82.009 Y84.587 E25.96058
