; generated by Slic3r 1.3.1-dev (Build 2d100c4) on 2020-05-15 at 21:37:08

; external perimeters extrusion width = 0.44mm (2.86mm^3/s)
; perimeters extrusion width = 0.56mm (4.14mm^3/s)
; infill extrusion width = 0.50mm (3.66mm^3/s)
; solid infill extrusion width = 0.56mm (3.10mm^3/s)
; top infill extrusion width = 0.56mm (3.10mm^3/s)

M107
G92 E0
;D3D:START:START
T0
M104 S215 T0

G21
G90
M107
T0
G28
G29
M109 T0 S215 T0
G0 F3000
M107
T0
G92 E0
G0 X0 Y149 Z0.1 F3600
G1 Y49 E6.5 F1200
G0 Z1
G92 E0
; Filament gcode

G21 ; set units to millimeters
G90 ; use absolute coordinates
M82 ; use absolute distances for extrusion
G92 E0
G1 Z0.300 F7800.000
G1 E-2.00000 F2400.00000
G92 E0
G1 X48.848 Y97.218 F7800.000
G1 E2.00000 F2400.00000
G1 F1800.000
G1 X51.252 Y97.218 E2.07964
G1 X52.454 Y99.300 E2.15928
G1 X51.252 Y101.382 E2.23892
G1 X48.848 Y101.382 E2.31856
G1 X47.646 Y99.300 E2.39820
G1 X48.818 Y97.270 E2.47586
G1 X49.001 Y97.484 F7800.000
G1 F1800.000
G1 X51.099 Y97.484 E2.54534
G1 X52.147 Y99.300 E2.61482
G1 X51.099 Y101.116 E2.68430
G1 X49.001 Y101.116 E2.75378
G1 X47.953 Y99.300 E2.82326
G1 X48.971 Y97.536 E2.89075
G1 X49.155 Y97.749 F7800.000
G1 F1800.000
G1 X50.945 Y97.749 E2.95007
G1 X51.841 Y99.300 E3.00938
G1 X50.945 Y100.851 E3.06870
G1 X49.155 Y100.851 E3.12802
G1 X48.259 Y99.300 E3.18734
G1 X49.125 Y97.801 E3.24467
G1 E1.24467 F2400.00000
G92 E0
G1 X48.848 Y52.782 F7800.000
G1 E2.00000 F2400.00000
G1 F1800.000
G1 X47.646 Y50.700 E2.07964
G1 X48.848 Y48.618 E2.15928
G1 X51.252 Y48.618 E2.23892
G1 X52.454 Y50.700 E2.31856
G1 X51.252 Y52.782 E2.39820
G1 X48.908 Y52.782 E2.47586
G1 X49.001 Y52.516 F7800.000
G1 F1800.000
G1 X47.953 Y50.700 E2.54534
G1 X49.001 Y48.884 E2.61482
G1 X51.099 Y48.884 E2.68430
G1 X52.147 Y50.700 E2.75378
G1 X51.099 Y52.516 E2.82325
G1 X49.061 Y52.516 E2.89075
G1 X49.155 Y52.251 F7800.000
G1 F1800.000
G1 X48.259 Y50.700 E2.95007
G1 X49.155 Y49.149 E3.00938
G1 X50.945 Y49.149 E3.06870
G1 X51.841 Y50.700 E3.12802
G1 X50.945 Y52.251 E3.18734
G1 X49.215 Y52.251 E3.24467
G1 E1.24467 F2400.00000
G92 E0
G1 X64.446 Y149.098 F7800.000
G1 E2.00000 F2400.00000
G1 F1800.000
G1 X59.903 Y149.098 E2.15050
G1 X52.378 Y147.499 E2.40538
G1 X45.350 Y144.370 E2.66025
G1 X39.126 Y139.848 E2.91513
G1 X33.978 Y134.130 E3.17000
G1 X30.132 Y127.468 E3.42488
G1 X27.754 Y120.151 E3.67975
G1 X26.946 Y112.464 E3.93584
G1 X26.946 Y37.536 E6.41814
G1 X27.754 Y29.849 E6.67423
G1 X30.132 Y22.532 E6.92910
G1 X33.978 Y15.870 E7.18398
G1 X39.126 Y10.152 E7.43885
G1 X45.350 Y5.630 E7.69373
G1 X52.378 Y2.501 E7.94860
G1 X59.903 Y0.902 E8.20348
G1 X64.446 Y0.902 E8.35398
G1 X64.446 Y0.696 E8.36078
G1 X123.054 Y0.696 E10.30242
G1 X123.054 Y149.304 E15.22572
G1 X64.446 Y149.304 E17.16736
G1 X64.446 Y149.158 E17.17218
G1 X64.181 Y149.364 F7800.000
G1 F1800.000
G1 X59.875 Y149.364 E17.31480
G1 X52.296 Y147.753 E17.57153
G1 X45.216 Y144.601 E17.82825
G1 X38.947 Y140.046 E18.08498
G1 X33.762 Y134.287 E18.34170
G1 X29.888 Y127.576 E18.59843
G1 X27.493 Y120.207 E18.85515
G1 X26.681 Y112.477 E19.11263
G1 X26.681 Y37.523 E21.59585
G1 X27.493 Y29.793 E21.85332
G1 X29.888 Y22.424 E22.11005
G1 X33.762 Y15.713 E22.36677
G1 X38.947 Y9.954 E22.62349
G1 X45.216 Y5.399 E22.88022
G1 X52.296 Y2.247 E23.13695
G1 X59.875 Y0.636 E23.39367
G1 X64.181 Y0.636 E23.53630
G1 X64.181 Y0.431 E23.54310
G1 X123.319 Y0.431 E25.50234
G1 X123.319 Y149.569 E30.44324
G1 X64.181 Y149.569 E32.40248
G1 X64.181 Y149.424 E32.40729
G1 X63.915 Y149.630 F7800.000
G1 F1800.000
G1 X59.848 Y149.630 E32.54205
G1 X52.213 Y148.007 E32.80062
G1 X45.083 Y144.832 E33.05919
G1 X38.769 Y140.245 E33.31777
G1 X33.546 Y134.444 E33.57634
G1 X29.644 Y127.685 E33.83492
G1 X27.232 Y120.262 E34.09349
G1 X26.415 Y112.491 E34.35235
G1 X26.415 Y37.509 E36.83650
G1 X27.232 Y29.738 E37.09536
G1 X29.644 Y22.315 E37.35393
G1 X33.546 Y15.556 E37.61251
G1 X38.769 Y9.755 E37.87108
G1 X45.083 Y5.168 E38.12966
G1 X52.213 Y1.993 E38.38823
G1 X59.848 Y0.370 E38.64680
G1 X63.915 Y0.370 E38.78156
G1 X63.915 Y0.165 E38.78836
G1 X123.585 Y0.165 E40.76520
G1 X123.585 Y149.835 E45.72370
G1 X63.915 Y149.835 E47.70053
G1 X63.915 Y149.690 E47.70535
G1 E45.70535 F2400.00000
G92 E0
G1 X51.326 Y101.708 F7800.000
G1 E2.00000 F2400.00000
G1 F1800.000
G1 X122.891 Y30.143 E5.35547
G1 X122.891 Y29.767 E5.36794
G1 X51.840 Y100.819 E8.69933
G1 X52.354 Y99.929 E8.73338
G1 X122.891 Y29.392 E12.04069
G1 X122.891 Y29.016 E12.05316
G1 X52.601 Y99.306 E15.34886
G1 X52.464 Y99.068 E15.35799
G1 X122.891 Y28.640 E18.66015
G1 X122.891 Y28.264 E18.67261
G1 X52.326 Y98.829 E21.98122
G1 X52.188 Y98.591 E21.99034
G1 X122.891 Y27.888 E25.30541
G1 X122.891 Y27.512 E25.31787
G1 X52.051 Y98.353 E28.63938
G1 X51.913 Y98.114 E28.64851
G1 X122.891 Y27.136 E31.97647
G1 X122.891 Y26.760 E31.98894
G1 X51.776 Y97.876 E35.32335
G1 X51.638 Y97.638 E35.33248
G1 X122.891 Y26.384 E38.67335
G1 X122.891 Y26.008 E38.68581
G1 X51.500 Y97.399 E42.03313
G1 X51.363 Y97.161 E42.04225
G1 X122.891 Y25.632 E45.39603
G1 X122.891 Y25.256 E45.40849
G1 X51.092 Y97.056 E48.77496
G1 X50.716 Y97.056 E48.78742
G1 X122.891 Y24.880 E52.17151
G1 X122.891 Y24.505 E52.18397
G1 X50.340 Y97.056 E55.58569
G1 X49.964 Y97.056 E55.59816
G1 X122.891 Y24.129 E59.01750
G1 X122.891 Y23.753 E59.02996
G1 X49.588 Y97.056 E62.46693
G1 X49.212 Y97.056 E62.47940
G1 X122.891 Y23.377 E65.93399
G1 X122.891 Y23.001 E65.94646
G1 X48.836 Y97.056 E69.41868
G1 X48.591 Y97.056 E69.42680
G1 X48.257 Y97.636 E69.44900
G1 E67.44900 F2400.00000
G92 E0
G1 X51.695 Y52.470 F7800.000
G1 E2.00000 F2400.00000
G1 F1800.000
G1 X103.306 Y0.859 E4.41990
G1 X102.931 Y0.859 E4.43237
G1 X52.209 Y51.580 E6.81057
G1 X52.657 Y50.803 E6.84031
G1 X52.640 Y50.773 E6.84147
G1 X102.555 Y0.859 E9.18182
G1 X102.179 Y0.859 E9.19428
G1 X52.502 Y50.535 E11.52346
G1 X52.365 Y50.297 E11.53258
G1 X101.803 Y0.859 E13.85059
G1 X101.427 Y0.859 E13.86305
G1 X52.227 Y50.058 E16.16988
G1 X52.090 Y49.820 E16.17900
G1 X101.051 Y0.859 E18.47466
G1 X100.675 Y0.859 E18.48712
G1 X51.952 Y49.582 E20.77160
G1 X51.814 Y49.343 E20.78073
G1 X100.299 Y0.859 E23.05403
G1 X99.923 Y0.859 E23.06650
G1 X51.677 Y49.105 E25.32863
G1 X51.539 Y48.867 E25.33775
G1 X99.547 Y0.859 E27.58871
G1 X99.171 Y0.859 E27.60117
G1 X51.402 Y48.628 E29.84096
G1 X51.302 Y48.456 E29.84756
G1 X51.198 Y48.456 E29.85100
G1 X98.795 Y0.859 E32.08270
G1 X98.419 Y0.859 E32.09517
G1 X50.822 Y48.456 E34.32687
G1 X50.446 Y48.456 E34.33933
G1 X98.044 Y0.859 E36.57103
G1 X97.668 Y0.859 E36.58349
G1 X50.070 Y48.456 E38.81519
G1 X49.694 Y48.456 E38.82765
G1 X97.292 Y0.859 E41.05935
G1 X96.916 Y0.859 E41.07182
G1 X49.318 Y48.456 E43.30352
G1 X48.943 Y48.456 E43.31598
G1 X96.540 Y0.859 E45.54768
G1 X96.164 Y0.859 E45.56014
G1 X27.109 Y69.914 E48.79795
G1 X27.109 Y69.538 E48.81041
G1 X95.788 Y0.859 E52.03059
G1 X95.412 Y0.859 E52.04305
G1 X27.109 Y69.162 E55.24561
G1 X27.109 Y68.786 E55.25807
G1 X95.036 Y0.859 E58.44300
G1 X94.660 Y0.859 E58.45546
G1 X27.109 Y68.410 E61.62276
G1 X27.109 Y68.034 E61.63522
G1 X94.284 Y0.859 E64.78490
G1 X93.908 Y0.859 E64.79736
G1 X27.109 Y67.658 E67.92941
G1 X27.109 Y67.282 E67.94188
G1 X93.532 Y0.859 E71.05630
G1 X93.157 Y0.859 E71.06876
G1 X27.109 Y66.907 E74.16556
G1 X27.109 Y66.531 E74.17802
G1 X92.781 Y0.859 E77.25719
G1 X92.405 Y0.859 E77.26966
G1 X27.109 Y66.155 E80.33120
G1 X27.109 Y65.779 E80.34367
G1 X92.029 Y0.859 E83.38759
G1 X91.653 Y0.859 E83.40005
G1 X27.109 Y65.403 E86.42634
G1 X27.109 Y65.027 E86.43881
G1 X91.277 Y0.859 E89.44748
G1 X90.901 Y0.859 E89.45994
G1 X27.109 Y64.651 E92.45098
G1 X27.109 Y64.275 E92.46344
G1 X90.525 Y0.859 E95.43686
G1 X90.149 Y0.859 E95.44932
G1 X27.109 Y63.899 E98.40511
G1 X27.109 Y63.523 E98.41758
G1 X89.773 Y0.859 E101.35574
G1 X89.397 Y0.859 E101.36821
G1 X27.109 Y63.147 E104.28875
G1 X27.109 Y62.771 E104.30121
G1 X89.021 Y0.859 E107.20412
G1 X88.645 Y0.859 E107.21658
G1 X27.109 Y62.395 E110.10187
G1 X27.109 Y62.020 E110.11434
G1 X88.270 Y0.859 E112.98200
G1 X87.894 Y0.859 E112.99446
G1 X27.109 Y61.644 E115.84449
G1 X27.109 Y61.268 E115.85696
G1 X87.518 Y0.859 E118.68937
G1 X87.142 Y0.859 E118.70183
G1 X27.109 Y60.892 E121.51661
G1 X27.109 Y60.516 E121.52908
G1 X86.766 Y0.859 E124.32624
G1 X86.390 Y0.859 E124.33870
G1 X27.109 Y60.140 E127.11823
G1 X27.109 Y59.764 E127.13069
G1 X86.014 Y0.859 E129.89260
G1 X85.638 Y0.859 E129.90506
G1 X27.109 Y59.388 E132.64934
G1 X27.109 Y59.012 E132.66181
G1 X85.262 Y0.859 E135.38846
G1 X84.886 Y0.859 E135.40092
G1 X27.109 Y58.636 E138.10995
G1 X27.109 Y58.260 E138.12242
G1 X84.510 Y0.859 E140.81382
G1 X84.134 Y0.859 E140.82628
G1 X27.109 Y57.884 E143.50006
G1 X27.109 Y57.508 E143.51252
G1 X83.759 Y0.859 E146.16867
G1 X83.383 Y0.859 E146.18114
G1 X27.109 Y57.133 E148.81966
G1 X27.109 Y56.757 E148.83212
G1 X83.007 Y0.859 E151.45302
G1 X82.631 Y0.859 E151.46549
G1 X27.109 Y56.381 E154.06876
G1 X27.109 Y56.005 E154.08122
G1 X82.255 Y0.859 E156.66687
G1 X81.879 Y0.859 E156.67933
G1 X27.109 Y55.629 E159.24735
G1 X27.109 Y55.253 E159.25982
G1 X81.503 Y0.859 E161.81021
G1 X81.127 Y0.859 E161.82267
G1 X27.109 Y54.877 E164.35544
G1 X27.109 Y54.501 E164.36791
G1 X80.751 Y0.859 E166.88305
G1 X80.375 Y0.859 E166.89551
G1 X27.109 Y54.125 E169.39303
G1 X27.109 Y53.749 E169.40550
G1 X79.999 Y0.859 E171.88539
G1 X79.623 Y0.859 E171.89785
G1 X27.109 Y53.373 E174.36012
G1 X27.109 Y52.997 E174.37258
G1 X79.247 Y0.859 E176.81722
G1 X78.872 Y0.859 E176.82968
G1 X27.109 Y52.622 E179.25670
G1 X27.109 Y52.246 E179.26916
G1 X78.496 Y0.859 E181.67855
G1 X78.120 Y0.859 E181.69101
G1 X27.109 Y51.870 E184.08277
G1 X27.109 Y51.494 E184.09524
G1 X77.744 Y0.859 E186.46937
G1 X77.368 Y0.859 E186.48184
G1 X27.109 Y51.118 E188.83835
G1 X27.109 Y50.742 E188.85081
G1 X76.992 Y0.859 E191.18970
G1 X76.616 Y0.859 E191.20216
G1 X27.109 Y50.366 E193.52342
G1 X27.109 Y49.990 E193.53588
G1 X76.240 Y0.859 E195.83952
G1 X75.864 Y0.859 E195.85198
G1 X27.109 Y49.614 E198.13799
G1 X27.109 Y49.238 E198.15045
G1 X75.488 Y0.859 E200.41883
G1 X75.112 Y0.859 E200.43129
G1 X27.109 Y48.862 E202.68205
G1 X27.109 Y48.486 E202.69451
G1 X74.736 Y0.859 E204.92764
G1 X74.360 Y0.859 E204.94011
G1 X27.109 Y48.110 E207.15561
G1 X27.109 Y47.735 E207.16807
G1 X73.985 Y0.859 E209.36595
G1 X73.609 Y0.859 E209.37841
G1 X27.109 Y47.359 E211.55867
G1 X27.109 Y46.983 E211.57113
G1 X73.233 Y0.859 E213.73375
G1 X72.857 Y0.859 E213.74622
G1 X27.109 Y46.607 E215.89122
G1 X27.109 Y46.231 E215.90368
G1 X72.481 Y0.859 E218.03106
G1 X72.105 Y0.859 E218.04352
G1 X27.109 Y45.855 E220.15327
G1 X27.109 Y45.479 E220.16573
G1 X71.729 Y0.859 E222.25785
G1 X71.353 Y0.859 E222.27032
G1 X27.109 Y45.103 E224.34481
G1 X27.109 Y44.727 E224.35728
G1 X70.977 Y0.859 E226.41415
G1 X70.601 Y0.859 E226.42661
G1 X27.109 Y44.351 E228.46586
G1 X27.109 Y43.975 E228.47832
G1 X70.225 Y0.859 E230.49994
G1 X69.849 Y0.859 E230.51240
G1 X27.109 Y43.599 E232.51639
G1 X27.109 Y43.223 E232.52886
G1 X69.473 Y0.859 E234.51522
G1 X69.098 Y0.859 E234.52769
G1 X27.109 Y42.848 E236.49643
G1 X27.109 Y42.472 E236.50889
G1 X68.722 Y0.859 E238.46001
G1 X68.346 Y0.859 E238.47247
G1 X27.109 Y42.096 E240.40596
G1 X27.109 Y41.720 E240.41842
G1 X67.970 Y0.859 E242.33429
G1 X67.594 Y0.859 E242.34675
G1 X27.109 Y41.344 E244.24499
G1 X27.109 Y40.968 E244.25745
G1 X67.218 Y0.859 E246.13806
G1 X66.842 Y0.859 E246.15053
G1 X27.109 Y40.592 E248.01351
G1 X27.109 Y40.216 E248.02598
G1 X66.466 Y0.859 E249.87134
G1 X66.090 Y0.859 E249.88380
G1 X27.109 Y39.840 E251.71153
G1 X27.109 Y39.464 E251.72400
G1 X65.714 Y0.859 E253.53411
G1 X65.338 Y0.859 E253.54657
G1 X27.109 Y39.088 E255.33905
G1 X27.109 Y38.712 E255.35152
G1 X64.757 Y1.064 E257.11674
G1 X64.381 Y1.064 E257.12921
G1 X27.109 Y38.336 E258.87681
G1 X27.109 Y37.961 E258.88927
G1 X64.005 Y1.064 E260.61924
G1 X63.629 Y1.064 E260.63171
G1 X27.117 Y37.577 E262.34367
G1 X27.161 Y37.156 E262.35768
G1 X63.253 Y1.064 E264.04995
G1 X62.877 Y1.064 E264.06241
G1 X27.205 Y36.736 E265.73499
G1 X27.249 Y36.316 E265.74899
G1 X62.501 Y1.064 E267.40187
G1 X62.126 Y1.064 E267.41434
G1 X27.293 Y35.896 E269.04752
G1 X27.337 Y35.476 E269.06152
G1 X61.750 Y1.064 E270.67501
G1 X61.374 Y1.064 E270.68748
G1 X27.382 Y35.056 E272.28127
G1 X27.426 Y34.636 E272.29527
G1 X60.998 Y1.064 E273.86937
G1 X60.622 Y1.064 E273.88183
G1 X27.470 Y34.216 E275.43623
G1 X27.514 Y33.796 E275.45023
G1 X60.246 Y1.064 E276.98494
G1 X60.035 Y1.064 E276.99194
G1 X59.826 Y1.108 E276.99903
G1 X27.558 Y33.376 E278.51195
G1 X27.602 Y32.956 E278.52595
G1 X59.348 Y1.210 E280.01443
G1 X58.871 Y1.311 E280.03061
G1 X27.646 Y32.536 E281.49462
G1 X27.691 Y32.116 E281.50863
G1 X58.393 Y1.413 E282.94819
G1 X57.916 Y1.514 E282.96437
G1 X27.735 Y31.695 E284.37948
G1 X27.779 Y31.275 E284.39348
G1 X57.439 Y1.616 E285.78413
G1 X56.961 Y1.717 E285.80032
G1 X27.823 Y30.855 E287.16652
G1 X27.867 Y30.435 E287.18052
G1 X56.484 Y1.819 E288.52227
G1 X56.006 Y1.920 E288.53845
G1 X27.911 Y30.015 E289.85574
G1 X28.090 Y29.461 E289.87505
G1 X55.529 Y2.022 E291.16159
G1 X55.052 Y2.123 E291.17777
G1 X28.271 Y28.904 E292.43344
G1 X28.452 Y28.347 E292.45285
G1 X54.574 Y2.225 E293.67766
G1 X54.097 Y2.326 E293.69384
G1 X28.633 Y27.790 E294.88778
G1 X28.814 Y27.233 E294.90719
G1 X53.619 Y2.428 E296.07026
G1 X53.142 Y2.529 E296.08644
G1 X28.995 Y26.677 E297.21864
G1 X29.175 Y26.120 E297.23806
G1 X52.665 Y2.631 E298.33939
G1 X52.564 Y2.652 E298.34280
G1 X52.029 Y2.890 E298.36221
G1 X29.356 Y25.563 E299.42527
G1 X29.537 Y25.006 E299.44468
G1 X51.352 Y3.192 E300.46749
G1 X50.674 Y3.493 E300.49208
G1 X29.718 Y24.449 E301.47464
G1 X29.899 Y23.892 E301.49405
G1 X49.996 Y3.795 E302.43635
G1 X49.319 Y4.097 E302.46094
G1 X30.080 Y23.335 E303.36298
G1 X30.261 Y22.779 E303.38239
G1 X48.641 Y4.398 E304.24418
G1 X47.964 Y4.700 E304.26878
G1 X30.754 Y21.910 E305.07568
G1 X31.267 Y21.020 E305.10974
G1 X47.286 Y5.002 E305.86079
G1 X46.608 Y5.303 E305.88539
G1 X31.781 Y20.131 E306.58059
G1 X32.295 Y19.241 E306.61465
G1 X45.931 Y5.605 E307.25401
G1 X45.587 Y5.758 E307.26649
G1 X44.910 Y6.250 E307.29423
G1 X32.808 Y18.352 E307.86164
G1 X33.322 Y17.462 E307.89570
G1 X43.535 Y7.249 E308.37457
G1 X42.160 Y8.248 E308.43091
G1 X33.835 Y16.573 E308.82125
G1 X34.091 Y16.130 E308.83821
G1 X35.797 Y14.236 E308.92272
G1 X40.785 Y9.247 E309.15663
G1 X39.411 Y10.246 E309.21297
G1 X39.195 Y10.461 E309.22309
G1 X39.204 Y10.452 E309.22353
G1 E307.22353 F2400.00000
G92 E0
G1 X64.609 Y1.212 F7800.000
G1 E2.00000 F2400.00000
G1 F1800.000
G1 X64.962 Y0.859 E2.01659
G1 E0.01659 F2400.00000
G92 E0
G1 X48.318 Y49.080 F7800.000
G1 E2.00000 F2400.00000
G1 F1800.000
G1 X27.109 Y70.290 E2.99446
G1 X27.109 Y70.666 E3.00693
G1 X47.805 Y49.970 E3.97731
G1 X47.443 Y50.597 E4.00132
G1 X47.483 Y50.667 E4.00401
G1 X27.109 Y71.042 E4.95932
G1 X27.109 Y71.418 E4.97179
G1 X47.621 Y50.905 E5.93355
G1 X47.758 Y51.144 E5.94267
G1 X27.109 Y71.794 E6.91088
G1 X27.109 Y72.169 E6.92335
G1 X47.896 Y51.382 E7.89801
G1 X48.034 Y51.620 E7.90714
G1 X27.109 Y72.545 E8.88825
G1 X27.109 Y72.921 E8.90072
G1 X48.171 Y51.859 E9.88828
G1 X48.309 Y52.097 E9.89741
G1 X27.109 Y73.297 E10.89143
G1 X27.109 Y73.673 E10.90389
G1 X48.446 Y52.335 E11.90436
G1 X48.584 Y52.574 E11.91349
G1 X27.109 Y74.049 E12.92041
G1 X27.109 Y74.425 E12.93287
G1 X48.722 Y52.812 E13.94625
G1 X48.798 Y52.944 E13.95131
G1 X48.965 Y52.944 E13.95686
G1 X27.109 Y74.801 E14.98166
G1 X27.109 Y75.177 E14.99412
G1 X49.341 Y52.944 E16.03655
G1 X49.717 Y52.944 E16.04901
G1 X27.109 Y75.553 E17.10906
G1 X27.109 Y75.929 E17.12152
G1 X50.093 Y52.944 E18.19920
G1 X50.469 Y52.944 E18.21166
G1 X27.109 Y76.305 E19.30697
G1 X27.109 Y76.681 E19.31943
G1 X50.845 Y52.944 E20.43236
G1 X51.221 Y52.944 E20.44482
G1 X27.109 Y77.056 E21.57538
G1 X27.109 Y77.432 E21.58784
G1 X103.682 Y0.859 E25.17816
G1 X104.058 Y0.859 E25.19063
G1 X27.109 Y77.808 E28.79858
G1 X27.109 Y78.184 E28.81104
G1 X104.434 Y0.859 E32.43661
G1 X104.810 Y0.859 E32.44908
G1 X27.109 Y78.560 E36.09228
G1 X27.109 Y78.936 E36.10474
G1 X105.186 Y0.859 E39.76557
G1 X105.562 Y0.859 E39.77803
G1 X27.109 Y79.312 E43.45648
G1 X27.109 Y79.688 E43.46894
G1 X105.938 Y0.859 E47.16502
