; generated by Slic3r 1.3.1-dev (Build 2d100c4) on 2020-05-22 at 09:29:11

; external perimeters extrusion width = 0.45mm (2.44mm^3/s)
; perimeters extrusion width = 0.45mm (3.26mm^3/s)
; infill extrusion width = 0.45mm (6.51mm^3/s)
; solid infill extrusion width = 0.45mm (6.51mm^3/s)
; top infill extrusion width = 0.40mm (2.86mm^3/s)

M107
G92 E0
M190 S60 ; set bed temperature and wait for it to be reached
;D3D:START:START
T0
M104 S215 T0

G21
G90
M107
T0
G28
G29
M109 T0 S215 T0
G0 F3000
M107
T0
G92 E0
G0 X0 Y149 Z0.1 F3600
G1 Y49 E6.5 F1200
G0 Z1
G92 E0
; Filament gcode

G21 ; set units to millimeters
G90 ; use absolute coordinates
M82 ; use absolute distances for extrusion
G92 E0
G1 Z0.300 F9000.000
G1 E-3.20000 F4200.00000
G92 E0
G1 Z0.500 F9000.000
G1 X85.318 Y85.143 F9000.000
G1 Z0.300 F9000.000
G1 E3.20000 F4200.00000
M201 X800 Y800
M204 P800 T800
G1 F900.494
G1 X85.768 Y84.747 E3.21986
G1 X86.311 Y84.352 E3.24211
G1 X86.827 Y84.047 E3.26197
G1 X87.435 Y83.761 E3.28422
G1 X87.999 Y83.558 E3.30408
G1 X88.650 Y83.390 E3.32634
G1 X89.067 Y83.319 E3.34038
G1 X89.489 Y83.273 E3.35441
G1 X90.088 Y83.255 E3.37427
G1 X90.758 Y83.297 E3.39653
G1 X91.350 Y83.390 E3.41638
G1 X92.001 Y83.558 E3.43864
G1 X92.565 Y83.761 E3.45850
G1 X93.173 Y84.047 E3.48075
G1 X93.540 Y84.258 E3.49479
G1 X93.894 Y84.491 E3.50883
G1 X94.367 Y84.858 E3.52869
G1 X94.857 Y85.318 E3.55094
G1 X95.253 Y85.768 E3.57080
G1 X95.648 Y86.311 E3.59306
G1 X95.953 Y86.827 E3.61291
G1 X96.239 Y87.435 E3.63517
G1 X96.442 Y87.999 E3.65502
G1 X96.610 Y88.650 E3.67728
G1 X96.681 Y89.067 E3.69132
G1 X96.727 Y89.489 E3.70536
G1 X96.745 Y90.088 E3.72521
G1 X96.703 Y90.758 E3.74747
G1 X96.610 Y91.350 E3.76733
G1 X96.512 Y91.763 E3.78137
G1 X96.388 Y92.168 E3.79541
G1 X96.141 Y92.793 E3.81766
G1 X95.869 Y93.327 E3.83752
G1 X95.509 Y93.894 E3.85977
G1 X95.142 Y94.367 E3.87963
G1 X94.682 Y94.857 E3.90189
G1 X94.232 Y95.253 E3.92174
G1 X93.689 Y95.648 E3.94400
G1 X93.173 Y95.953 E3.96385
G1 X92.565 Y96.239 E3.98611
G1 X92.001 Y96.442 E4.00597
G1 X91.592 Y96.555 E4.02001
G1 X91.178 Y96.642 E4.03405
G1 X90.511 Y96.727 E4.05630
G1 X89.912 Y96.745 E4.07616
G1 X89.242 Y96.703 E4.09842
G1 X88.650 Y96.610 E4.11827
G1 X88.237 Y96.512 E4.13231
G1 X87.832 Y96.388 E4.14635
G1 X87.207 Y96.141 E4.16861
G1 X86.673 Y95.869 E4.18846
G1 X86.106 Y95.509 E4.21072
G1 X85.633 Y95.142 E4.23057
G1 X85.143 Y94.682 E4.25283
G1 X84.747 Y94.232 E4.27269
G1 X84.352 Y93.689 E4.29494
G1 X84.047 Y93.173 E4.31480
G1 X83.761 Y92.565 E4.33705
G1 X83.558 Y92.001 E4.35691
G1 X83.390 Y91.350 E4.37917
G1 X83.297 Y90.758 E4.39902
G1 X83.253 Y90.000 E4.42418
G1 X83.297 Y89.242 E4.44935
G1 X83.390 Y88.650 E4.46920
G1 X83.558 Y87.999 E4.49146
G1 X83.761 Y87.435 E4.51132
G1 X84.047 Y86.827 E4.53357
G1 X84.352 Y86.311 E4.55343
G1 X84.747 Y85.768 E4.57568
G1 X85.276 Y85.185 E4.60176
M201 X1250 Y1250
M204 P1250 T1250
G1 X85.506 Y85.331 F9000.000
M201 X800 Y800
M204 P800 T800
G1 F900.494
G1 X85.931 Y84.956 E4.62051
G1 X86.461 Y84.571 E4.64222
G1 X86.948 Y84.283 E4.66097
G1 X87.541 Y84.004 E4.68267
G1 X88.073 Y83.813 E4.70142
G1 X88.708 Y83.650 E4.72313
G1 X89.109 Y83.581 E4.73661
G1 X89.514 Y83.538 E4.75010
G1 X90.079 Y83.520 E4.76885
G1 X90.733 Y83.561 E4.79056
G1 X91.292 Y83.650 E4.80931
G1 X91.927 Y83.813 E4.83101
G1 X92.459 Y84.004 E4.84976
G1 X93.052 Y84.283 E4.87146
G1 X93.405 Y84.486 E4.88495
G1 X93.744 Y84.711 E4.89843
G1 X94.192 Y85.058 E4.91719
G1 X94.669 Y85.506 E4.93889
G1 X95.044 Y85.931 E4.95764
G1 X95.429 Y86.461 E4.97934
G1 X95.717 Y86.948 E4.99809
G1 X95.996 Y87.541 E5.01980
G1 X96.187 Y88.073 E5.03855
G1 X96.350 Y88.708 E5.06025
G1 X96.419 Y89.109 E5.07374
G1 X96.462 Y89.514 E5.08722
G1 X96.480 Y90.079 E5.10598
G1 X96.439 Y90.733 E5.12768
G1 X96.350 Y91.292 E5.14643
G1 X96.187 Y91.927 E5.16813
G1 X95.996 Y92.459 E5.18689
G1 X95.717 Y93.052 E5.20859
G1 X95.514 Y93.405 E5.22208
G1 X95.289 Y93.744 E5.23556
G1 X94.942 Y94.192 E5.25431
G1 X94.494 Y94.669 E5.27602
G1 X94.069 Y95.044 E5.29477
G1 X93.539 Y95.429 E5.31647
G1 X93.052 Y95.717 E5.33522
G1 X92.459 Y95.996 E5.35693
G1 X91.927 Y96.187 E5.37568
G1 X91.292 Y96.350 E5.39738
G1 X90.891 Y96.419 E5.41087
G1 X90.486 Y96.462 E5.42435
G1 X89.921 Y96.480 E5.44310
G1 X89.267 Y96.439 E5.46481
G1 X88.708 Y96.350 E5.48356
G1 X88.073 Y96.187 E5.50526
G1 X87.541 Y95.996 E5.52401
G1 X86.948 Y95.717 E5.54572
G1 X86.595 Y95.514 E5.55920
G1 X86.256 Y95.289 E5.57269
G1 X85.808 Y94.942 E5.59144
G1 X85.331 Y94.494 E5.61314
G1 X84.956 Y94.069 E5.63189
G1 X84.571 Y93.539 E5.65360
G1 X84.283 Y93.052 E5.67235
G1 X84.004 Y92.459 E5.69405
G1 X83.813 Y91.927 E5.71280
G1 X83.650 Y91.292 E5.73451
G1 X83.561 Y90.733 E5.75325
G1 X83.519 Y90.000 E5.77759
G1 X83.561 Y89.267 E5.80193
G1 X83.650 Y88.708 E5.82068
G1 X83.813 Y88.073 E5.84238
G1 X84.004 Y87.541 E5.86113
G1 X84.283 Y86.948 E5.88283
G1 X84.571 Y86.461 E5.90158
G1 X84.956 Y85.931 E5.92329
G1 X85.464 Y85.373 E5.94826
M201 X1250 Y1250
M204 P1250 T1250
G1 X85.694 Y85.519 F9000.000
M201 X800 Y800
M204 P800 T800
G1 F900.494
G1 X86.094 Y85.166 E5.96591
G1 X86.610 Y84.791 E5.98706
G1 X87.068 Y84.520 E6.00470
G1 X87.646 Y84.248 E6.02585
G1 X88.147 Y84.068 E6.04350
G1 X88.766 Y83.909 E6.06465
G1 X89.539 Y83.802 E6.09050
G1 X90.071 Y83.785 E6.10815
G1 X90.708 Y83.826 E6.12930
G1 X91.234 Y83.909 E6.14695
G1 X91.853 Y84.068 E6.16810
G1 X92.354 Y84.248 E6.18575
G1 X92.932 Y84.520 E6.20690
G1 X93.595 Y84.931 E6.23275
G1 X94.016 Y85.257 E6.25040
G1 X94.481 Y85.694 E6.27155
G1 X94.834 Y86.094 E6.28919
G1 X95.209 Y86.610 E6.31034
G1 X95.480 Y87.068 E6.32799
G1 X95.752 Y87.646 E6.34914
G1 X95.932 Y88.147 E6.36679
G1 X96.091 Y88.766 E6.38794
G1 X96.198 Y89.539 E6.41379
G1 X96.215 Y90.071 E6.43144
G1 X96.174 Y90.708 E6.45259
G1 X96.091 Y91.234 E6.47023
G1 X95.888 Y91.988 E6.49609
G1 X95.653 Y92.582 E6.51724
G1 X95.412 Y93.056 E6.53489
G1 X95.069 Y93.595 E6.55604
G1 X94.743 Y94.016 E6.57368
G1 X94.306 Y94.481 E6.59483
G1 X93.906 Y94.834 E6.61248
G1 X93.390 Y95.209 E6.63363
G1 X92.932 Y95.480 E6.65127
G1 X92.354 Y95.752 E6.67242
G1 X91.853 Y95.932 E6.69007
G1 X91.234 Y96.091 E6.71122
G1 X90.461 Y96.198 E6.73707
G1 X89.929 Y96.215 E6.75472
G1 X89.292 Y96.174 E6.77588
G1 X88.766 Y96.091 E6.79352
G1 X88.012 Y95.888 E6.81938
G1 X87.418 Y95.653 E6.84053
G1 X86.944 Y95.412 E6.85817
G1 X86.405 Y95.069 E6.87932
G1 X85.984 Y94.743 E6.89697
G1 X85.519 Y94.306 E6.91812
G1 X85.166 Y93.906 E6.93576
G1 X84.791 Y93.390 E6.95691
G1 X84.520 Y92.932 E6.97456
G1 X84.248 Y92.354 E6.99571
G1 X84.068 Y91.853 E7.01336
G1 X83.909 Y91.234 E7.03451
G1 X83.826 Y90.708 E7.05215
G1 X83.784 Y90.000 E7.07566
G1 X83.826 Y89.292 E7.09916
G1 X83.909 Y88.766 E7.11681
G1 X84.068 Y88.147 E7.13796
G1 X84.248 Y87.646 E7.15560
G1 X84.520 Y87.068 E7.17675
G1 X84.791 Y86.610 E7.19440
G1 X85.166 Y86.094 E7.21555
G1 X85.652 Y85.561 E7.23942
M201 X1250 Y1250
M204 P1250 T1250
G1 F7200.000
G1 X85.798 Y85.421 E7.12729
G1 F7200.000
G1 X85.984 Y85.257 E6.98978
G1 F7200.000
G1 X86.094 Y85.166 E6.91093
G1 F7200.000
G1 X86.290 Y85.014 E6.77342
G1 F7200.000
G1 X86.405 Y84.931 E6.69451
G1 F7200.000
G1 X86.610 Y84.791 E6.55700
G1 F7200.000
G1 X86.730 Y84.715 E6.47817
G1 F7200.000
G1 X86.944 Y84.588 E6.34065
G1 F7200.000
G1 X87.068 Y84.520 E6.26177
G1 F7200.000
G1 X87.290 Y84.407 E6.12426
G1 F7200.000
G1 X87.418 Y84.347 E6.04537
G1 F7200.000
G1 X87.646 Y84.248 E5.90785
G1 F7200.000
G1 X87.779 Y84.196 E5.82895
G1 F7200.000
G1 X88.012 Y84.112 E5.69144
G1 F7200.000
G1 X88.147 Y84.068 E5.61259
G1 F7200.000
G1 X88.386 Y83.998 E5.47508
G1 F7200.000
G1 X88.523 Y83.963 E5.39619
G1 F7200.000
G1 X88.766 Y83.909 E5.25868
G1 F7200.000
G1 X88.905 Y83.882 E5.17982
G1 F7200.000
G1 X89.151 Y83.843 E5.04231
G1 F7200.000
G1 X89.292 Y83.826 E4.96347
G1 F7200.000
G1 X89.539 Y83.802 E4.82595
G1 F7200.000
G1 X89.681 Y83.793 E4.74702
G1 F7200.000
G1 X89.929 Y83.785 E4.60951
G1 F7200.000
G1 X90.000 Y83.784 E4.57009
G1 F7200.000
G1 X90.000 Y83.784 E4.57009
G1 F7200.000
G1 X90.071 Y83.785 E4.53067
G1 F7200.000
G1 X90.319 Y83.793 E4.39315
G1 F7200.000
G1 X90.461 Y83.802 E4.31422
G1 F7200.000
G1 X90.668 Y83.822 E4.19942
G1 E4.03942 F4200.00000
G92 E0
G1 Z0.500 F9000.000
G1 X92.364 Y92.235 F9000.000
G1 Z0.300 F9000.000
G1 E3.20000 F4200.00000
M201 X800 Y800
M204 P800 T800
G1 F900.494
G1 X91.903 Y92.638 E3.22028
G1 X91.375 Y92.948 E3.24057
G1 X90.798 Y93.154 E3.26085
G1 X90.204 Y93.246 E3.28078
G1 X89.796 Y93.246 E3.29431
G1 X89.380 Y93.193 E3.30820
G1 X88.792 Y93.021 E3.32849
G1 X88.442 Y92.856 E3.34130
G1 X88.088 Y92.631 E3.35519
G1 X87.765 Y92.364 E3.36909
G1 X87.362 Y91.903 E3.38937
G1 X87.253 Y91.743 E3.39578
G1 X86.976 Y91.197 E3.41606
G1 X86.850 Y90.809 E3.42959
G1 X86.754 Y90.215 E3.44952
G1 X86.754 Y89.796 E3.46341
G1 X86.807 Y89.380 E3.47731
G1 X86.979 Y88.792 E3.49759
G1 X87.144 Y88.442 E3.51040
G1 X87.369 Y88.088 E3.52430
G1 X87.636 Y87.765 E3.53819
G1 X88.097 Y87.362 E3.55847
G1 X88.257 Y87.253 E3.56488
G1 X88.803 Y86.976 E3.58517
G1 X89.191 Y86.850 E3.59870
G1 X89.785 Y86.754 E3.61862
G1 X90.204 Y86.754 E3.63251
G1 X90.620 Y86.807 E3.64641
G1 X91.208 Y86.979 E3.66669
G1 X91.558 Y87.144 E3.67950
G1 X91.912 Y87.369 E3.69340
G1 X92.235 Y87.636 E3.70729
G1 X92.638 Y88.097 E3.72758
G1 X92.948 Y88.625 E3.74786
G1 X93.150 Y89.191 E3.76778
G1 X93.246 Y89.785 E3.78771
G1 X93.246 Y90.204 E3.80160
G1 X93.193 Y90.620 E3.81550
G1 X93.021 Y91.208 E3.83578
G1 X92.856 Y91.558 E3.84859
G1 X92.631 Y91.912 E3.86249
G1 X92.402 Y92.189 E3.87439
M201 X1250 Y1250
M204 P1250 T1250
G1 X92.561 Y92.414 F9000.000
M201 X800 Y800
M204 P800 T800
G1 F900.494
G1 X92.414 Y92.561 E3.88127
G1 X92.063 Y92.851 E3.89636
G1 X91.891 Y92.968 E3.90323
G1 X91.492 Y93.187 E3.91832
G1 X91.302 Y93.269 E3.92519
G1 X90.869 Y93.410 E3.94028
G1 X90.666 Y93.455 E3.94716
G1 X90.221 Y93.512 E3.96202
G1 X89.779 Y93.512 E3.97666
G1 X89.334 Y93.455 E3.99152
G1 X89.131 Y93.410 E3.99840
G1 X88.698 Y93.269 E4.01349
G1 X88.311 Y93.087 E4.02768
G1 X87.932 Y92.847 E4.04254
G1 X87.586 Y92.561 E4.05741
G1 X87.439 Y92.414 E4.06428
G1 X87.149 Y92.063 E4.07937
G1 X87.029 Y91.886 E4.08647
G1 X86.920 Y91.701 E4.09357
G1 X86.729 Y91.295 E4.10843
G1 X86.592 Y90.875 E4.12307
G1 X86.508 Y90.434 E4.13794
G1 X86.488 Y90.228 E4.14481
G1 X86.488 Y89.779 E4.15967
G1 X86.545 Y89.334 E4.17454
G1 X86.590 Y89.131 E4.18141
G1 X86.731 Y88.698 E4.19650
G1 X86.913 Y88.311 E4.21069
G1 X87.153 Y87.932 E4.22556
G1 X87.439 Y87.586 E4.24042
G1 X87.586 Y87.439 E4.24730
G1 X87.937 Y87.149 E4.26238
G1 X88.114 Y87.029 E4.26948
G1 X88.299 Y86.920 E4.27658
G1 X88.705 Y86.729 E4.29145
G1 X89.125 Y86.592 E4.30609
G1 X89.566 Y86.508 E4.32095
G1 X89.772 Y86.488 E4.32783
G1 X90.221 Y86.488 E4.34269
G1 X90.666 Y86.545 E4.35755
G1 X90.869 Y86.590 E4.36443
G1 X91.302 Y86.731 E4.37952
G1 X91.689 Y86.913 E4.39371
G1 X92.068 Y87.153 E4.40857
G1 X92.414 Y87.439 E4.42343
G1 X92.561 Y87.586 E4.43031
G1 X92.851 Y87.937 E4.44540
G1 X92.968 Y88.109 E4.45227
G1 X93.187 Y88.508 E4.46736
G1 X93.269 Y88.698 E4.47424
G1 X93.408 Y89.125 E4.48910
G1 X93.492 Y89.566 E4.50396
G1 X93.512 Y89.772 E4.51084
G1 X93.512 Y90.221 E4.52570
G1 X93.455 Y90.666 E4.54057
G1 X93.410 Y90.869 E4.54744
G1 X93.269 Y91.302 E4.56253
G1 X93.087 Y91.689 E4.57672
G1 X92.847 Y92.068 E4.59159
G1 X92.599 Y92.368 E4.60446
M201 X1250 Y1250
M204 P1250 T1250
G1 X92.757 Y92.593 F9000.000
M201 X800 Y800
M204 P800 T800
G1 F1200.000
G1 X92.593 Y92.757 E4.61217
G1 X92.223 Y93.064 E4.62809
G1 X92.030 Y93.194 E4.63579
G1 X91.609 Y93.426 E4.65171
G1 X91.396 Y93.518 E4.65941
G1 X90.939 Y93.667 E4.67533
G1 X90.712 Y93.717 E4.68304
G1 X90.238 Y93.777 E4.69887
G1 X89.762 Y93.777 E4.71462
G1 X89.288 Y93.717 E4.73045
G1 X89.061 Y93.667 E4.73815
G1 X88.604 Y93.518 E4.75407
G1 X88.179 Y93.318 E4.76965
G1 X87.775 Y93.062 E4.78548
G1 X87.407 Y92.757 E4.80131
G1 X87.243 Y92.593 E4.80902
G1 X86.936 Y92.223 E4.82493
G1 X86.804 Y92.028 E4.83272
G1 X86.685 Y91.826 E4.84052
G1 X86.481 Y91.393 E4.85635
G1 X86.334 Y90.941 E4.87209
G1 X86.245 Y90.472 E4.88793
G1 X86.223 Y90.240 E4.89563
G1 X86.223 Y89.762 E4.91146
G1 X86.283 Y89.288 E4.92730
G1 X86.333 Y89.061 E4.93500
G1 X86.482 Y88.604 E4.95092
G1 X86.682 Y88.179 E4.96649
G1 X86.938 Y87.775 E4.98233
G1 X87.243 Y87.407 E4.99816
G1 X87.407 Y87.243 E5.00586
G1 X87.777 Y86.936 E5.02178
G1 X87.972 Y86.804 E5.02957
G1 X88.174 Y86.685 E5.03736
G1 X88.607 Y86.481 E5.05320
G1 X89.059 Y86.334 E5.06894
G1 X89.528 Y86.245 E5.08477
G1 X89.760 Y86.223 E5.09248
G1 X90.238 Y86.223 E5.10831
G1 X90.712 Y86.283 E5.12414
G1 X90.939 Y86.333 E5.13185
G1 X91.396 Y86.482 E5.14777
G1 X91.821 Y86.682 E5.16334
G1 X92.225 Y86.938 E5.17917
G1 X92.593 Y87.243 E5.19501
G1 X92.757 Y87.407 E5.20271
G1 X93.064 Y87.777 E5.21863
G1 X93.194 Y87.970 E5.22634
G1 X93.426 Y88.391 E5.24225
G1 X93.518 Y88.604 E5.24996
G1 X93.666 Y89.059 E5.26579
G1 X93.755 Y89.528 E5.28162
G1 X93.777 Y89.760 E5.28933
G1 X93.777 Y90.238 E5.30516
G1 X93.717 Y90.712 E5.32099
G1 X93.667 Y90.939 E5.32870
G1 X93.518 Y91.396 E5.34462
G1 X93.318 Y91.821 E5.36019
G1 X93.062 Y92.225 E5.37602
G1 X92.795 Y92.547 E5.38987
M201 X1250 Y1250
M204 P1250 T1250
G1 X91.948 Y92.274 F9000.000
M201 X800 Y800
M204 P800 T800
G1 F900.494
G1 X92.156 Y92.066 E5.39984
G1 X92.519 Y91.652 E5.41846
G1 X92.810 Y91.161 E5.43778
G1 X92.894 Y90.943 E5.44568
G1 X90.943 Y92.894 E5.53909
G1 X90.412 Y93.042 E5.55776
G1 X93.042 Y90.412 E5.68369
G1 X93.084 Y89.986 E5.69815
G1 X89.986 Y93.084 E5.84641
G1 X89.615 Y93.072 E5.85900
G1 X93.070 Y89.617 E6.02439
G1 X93.016 Y89.286 E6.03572
G1 X89.281 Y93.021 E6.21452
G1 X88.985 Y92.934 E6.22498
G1 X92.935 Y88.984 E6.41405
G1 X92.834 Y88.701 E6.42422
G1 X88.697 Y92.838 E6.62223
G1 X88.450 Y92.702 E6.63179
G1 X92.706 Y88.445 E6.83554
G1 X92.558 Y88.209 E6.84496
G1 X88.209 Y92.559 E7.05315
G1 X87.994 Y92.389 E7.06240
G1 X92.390 Y87.994 E7.27280
G1 X92.210 Y87.790 E7.28200
G1 X87.790 Y92.210 E7.49360
G1 X87.724 Y92.152 E7.49656
G1 X87.606 Y92.010 E7.50282
G1 X92.006 Y87.610 E7.71342
G1 X91.791 Y87.441 E7.72267
G1 X87.436 Y91.796 E7.93111
G1 X87.298 Y91.551 E7.94064
G1 X91.550 Y87.298 E8.14421
G1 X91.303 Y87.162 E8.15377
G1 X87.168 Y91.296 E8.35167
G1 X87.061 Y91.020 E8.36171
G1 X91.015 Y87.066 E8.55099
G1 X90.718 Y86.979 E8.56145
G1 X86.980 Y90.717 E8.74042
G1 X86.930 Y90.383 E8.75185
G1 X90.385 Y86.928 E8.91723
G1 X90.004 Y86.925 E8.93011
G1 X86.920 Y90.010 E9.07778
G1 X86.958 Y89.588 E9.09212
G1 X89.584 Y86.962 E9.21784
G1 X89.361 Y87.004 E9.22554
G1 X89.060 Y87.102 E9.23624
G1 X87.106 Y89.056 E9.32979
G1 X87.190 Y88.839 E9.33767
G1 X87.481 Y88.348 E9.35699
G1 X87.847 Y87.932 E9.37575
G1 X88.055 Y87.723 E9.38572
M201 X1250 Y1250
M204 P1250 T1250
M106 S255
M104 S210 ; set temperature
G1 Z0.500 F9000.000
G1 E6.18572 F4200.00000
G92 E0
G1 Z0.700 F9000.000
G1 X85.318 Y85.143 F9000.000
G1 Z0.500 F9000.000
G1 E3.20000 F4200.00000
G1 F900.000
G1 X85.768 Y84.747 E3.21431
G1 X86.311 Y84.352 E3.23034
G1 X86.827 Y84.047 E3.24465
G1 X87.435 Y83.761 E3.26069
G1 X87.999 Y83.558 E3.27499
G1 X88.650 Y83.390 E3.29103
G1 X89.067 Y83.319 E3.30114
G1 X89.489 Y83.273 E3.31126
G1 X90.088 Y83.255 E3.32557
G1 X90.758 Y83.297 E3.34161
G1 X91.350 Y83.390 E3.35591
G1 X92.001 Y83.558 E3.37195
G1 X92.565 Y83.761 E3.38625
G1 X93.173 Y84.047 E3.40229
G1 X93.540 Y84.258 E3.41241
G1 X93.894 Y84.491 E3.42252
G1 X94.367 Y84.858 E3.43683
G1 X94.857 Y85.318 E3.45286
G1 X95.253 Y85.768 E3.46717
G1 X95.648 Y86.311 E3.48321
G1 X95.953 Y86.827 E3.49751
G1 X96.239 Y87.435 E3.51355
G1 X96.442 Y87.999 E3.52786
G1 X96.610 Y88.650 E3.54389
G1 X96.681 Y89.067 E3.55401
G1 X96.727 Y89.489 E3.56412
G1 X96.745 Y90.088 E3.57843
G1 X96.703 Y90.758 E3.59447
G1 X96.610 Y91.350 E3.60878
G1 X96.512 Y91.763 E3.61889
G1 X96.388 Y92.168 E3.62901
G1 X96.141 Y92.793 E3.64504
G1 X95.869 Y93.327 E3.65935
G1 X95.509 Y93.894 E3.67539
G1 X95.142 Y94.367 E3.68969
G1 X94.682 Y94.857 E3.70573
G1 X94.232 Y95.253 E3.72004
G1 X93.689 Y95.648 E3.73607
G1 X93.173 Y95.953 E3.75038
G1 X92.565 Y96.239 E3.76642
G1 X92.001 Y96.442 E3.78072
G1 X91.592 Y96.555 E3.79084
G1 X91.178 Y96.642 E3.80095
G1 X90.511 Y96.727 E3.81699
G1 X89.912 Y96.745 E3.83130
