; generated by Slic3r 1.3.1-dev (Build 2d100c4) on 2020-06-09 at 16:38:31

; external perimeters extrusion width = 0.45mm (2.44mm^3/s)
; perimeters extrusion width = 0.45mm (3.26mm^3/s)
; infill extrusion width = 0.45mm (6.51mm^3/s)
; solid infill extrusion width = 0.45mm (6.51mm^3/s)
; top infill extrusion width = 0.40mm (2.86mm^3/s)

M107
G92 E0
M190 S60 ; set bed temperature and wait for it to be reached
;D3D:START:START
T0
M104 S215 T0

G21
G90
M107
T0
G28
G29
M109 T0 S215 T0
G0 F3000
M107
T0
G92 E0
G0 X0 Y149 Z0.1 F3600
G1 Y49 E6.5 F1200
G0 Z1
G92 E0
; Filament gcode

G21 ; set units to millimeters
G90 ; use absolute coordinates
M82 ; use absolute distances for extrusion
G92 E0
G1 Z0.300 F9000.000
G1 E-3.20000 F4200.00000
G92 E0
G1 Z0.500 F9000.000
G1 X87.485 Y53.820 F9000.000
G1 Z0.300 F9000.000
G1 E3.20000 F4200.00000
M201 X800 Y800
M204 P800 T800
G1 F1200.000
G1 X87.983 Y53.062 E3.23007
G1 X88.165 Y52.837 E3.23964
G1 X88.377 Y52.622 E3.24965
G1 X88.655 Y52.402 E3.26141
G1 X88.915 Y52.247 E3.27141
G1 X89.160 Y52.138 E3.28031
G1 X89.466 Y52.045 E3.29090
G1 X89.766 Y51.995 E3.30099
G1 X90.181 Y51.990 E3.31473
G1 X90.481 Y52.033 E3.32477
G1 X90.763 Y52.110 E3.33444
G1 X91.042 Y52.226 E3.34446
G1 X91.342 Y52.400 E3.35597
G1 X91.603 Y52.604 E3.36692
G1 X91.835 Y52.837 E3.37783
G1 X92.048 Y53.103 E3.38912
G1 X92.298 Y53.473 E3.40391
G1 X93.146 Y54.873 E3.45813
G1 X94.263 Y56.810 E3.53221
G1 X95.559 Y59.147 E3.62074
G1 X96.663 Y61.213 E3.69835
G1 X97.849 Y63.517 E3.78420
G1 X99.105 Y66.060 E3.87815
G1 X99.967 Y67.871 E3.94461
G1 X101.280 Y70.745 E4.04930
G1 X102.165 Y72.770 E4.12250
G1 X103.463 Y75.892 E4.23453
G1 X104.314 Y78.054 E4.31148
G1 X105.147 Y80.282 E4.39028
G1 X105.941 Y82.531 E4.46930
G1 X106.695 Y84.811 E4.54887
G1 X107.392 Y87.088 E4.62775
G1 X108.048 Y89.433 E4.70843
G1 X108.622 Y91.725 E4.78671
G1 X109.130 Y94.045 E4.86540
G1 X109.353 Y95.203 E4.90444
G1 X109.733 Y97.506 E4.98179
G1 X109.893 Y98.697 E5.02161
G1 X110.119 Y100.919 E5.09560
G1 X110.198 Y102.097 E5.13471
G1 X110.244 Y103.155 E5.16979
G1 X110.263 Y104.260 E5.20639
G1 X110.253 Y105.350 E5.24252
G1 X110.212 Y106.431 E5.27837
G1 X110.134 Y107.567 E5.31606
G1 X110.036 Y108.550 E5.34881
G1 X109.900 Y109.587 E5.38346
G1 X109.732 Y110.607 E5.41770
G1 X109.529 Y111.611 E5.45164
G1 X109.294 Y112.594 E5.48513
G1 X109.024 Y113.561 E5.51837
G1 X108.692 Y114.589 E5.55416
G1 X108.350 Y115.511 E5.58676
G1 X107.975 Y116.411 E5.61905
G1 X107.565 Y117.286 E5.65106
G1 X107.124 Y118.133 E5.68272
G1 X106.648 Y118.955 E5.71417
G1 X106.198 Y119.662 E5.74194
G1 X105.664 Y120.426 E5.77282
G1 X105.100 Y121.160 E5.80350
G1 X104.506 Y121.863 E5.83397
G1 X103.810 Y122.609 E5.86777
G1 X103.156 Y123.242 E5.89794
G1 X102.476 Y123.841 E5.92797
G1 X101.856 Y124.340 E5.95433
G1 X101.129 Y124.871 E5.98414
G1 X100.289 Y125.423 E6.01744
G1 X99.516 Y125.876 E6.04713
G1 X98.722 Y126.291 E6.07682
G1 X97.911 Y126.666 E6.10643
G1 X97.081 Y127.003 E6.13610
G1 X96.234 Y127.301 E6.16582
G1 X95.476 Y127.530 E6.19206
G1 X94.600 Y127.753 E6.22202
G1 X93.609 Y127.954 E6.25553
G1 X92.708 Y128.092 E6.28572
G1 X91.895 Y128.180 E6.31280
G1 X90.965 Y128.242 E6.34369
G1 X89.980 Y128.261 E6.37633
G1 X89.035 Y128.242 E6.40764
G1 X88.105 Y128.180 E6.43852
G1 X87.292 Y128.092 E6.46561
G1 X86.391 Y127.954 E6.49580
G1 X85.400 Y127.753 E6.52930
G1 X84.523 Y127.530 E6.55927
G1 X83.663 Y127.267 E6.58909
G1 X82.817 Y126.964 E6.61883
G1 X81.990 Y126.623 E6.64850
G1 X81.276 Y126.290 E6.67459
G1 X80.483 Y125.875 E6.70425
G1 X79.711 Y125.423 E6.73388
G1 X78.959 Y124.932 E6.76363
G1 X78.228 Y124.404 E6.79349
G1 X77.440 Y123.771 E6.82699
G1 X76.764 Y123.168 E6.85700
G1 X76.115 Y122.532 E6.88710
G1 X75.493 Y121.862 E6.91740
G1 X74.965 Y121.241 E6.94440
G1 X74.396 Y120.509 E6.97510
G1 X73.858 Y119.746 E7.00603
G1 X73.350 Y118.953 E7.03724
G1 X72.876 Y118.133 E7.06861
G1 X72.433 Y117.284 E7.10035
G1 X72.025 Y116.410 E7.13232
G1 X71.649 Y115.510 E7.16461
G1 X71.308 Y114.589 E7.19716
G1 X71.000 Y113.642 E7.23014
G1 X70.727 Y112.677 E7.26337
G1 X70.470 Y111.609 E7.29977
G1 X70.268 Y110.607 E7.33363
G1 X70.099 Y109.586 E7.36791
G1 X69.972 Y108.620 E7.40018
G1 X69.866 Y107.566 E7.43526
G1 X69.788 Y106.429 E7.47305
G1 X69.747 Y105.350 E7.50880
G1 X69.737 Y104.257 E7.54503
G1 X69.757 Y103.154 E7.58158
G1 X69.805 Y102.042 E7.61846
G1 X69.881 Y100.919 E7.65573
G1 X69.984 Y99.787 E7.69340
G1 X70.261 Y97.549 E7.76810
G1 X70.446 Y96.356 E7.80809
G1 X70.870 Y94.045 E7.88593
G1 X71.114 Y92.886 E7.92518
G1 X71.660 Y90.564 E8.00422
G1 X71.960 Y89.401 E8.04398
G1 X72.600 Y87.113 E8.12271
G1 X72.954 Y85.933 E8.16350
G1 X73.684 Y83.645 E8.24308
G1 X74.861 Y80.260 E8.36180
G1 X75.679 Y78.072 E8.43921
G1 X76.531 Y75.907 E8.51627
G1 X77.841 Y72.755 E8.62935
G1 X78.714 Y70.759 E8.70153
G1 X79.597 Y68.809 E8.77245
G1 X81.321 Y65.187 E8.90534
G1 X82.152 Y63.517 E8.96716
G1 X83.343 Y61.203 E9.05337
G1 X84.441 Y59.147 E9.13058
G1 X85.438 Y57.341 E9.19893
G1 X86.551 Y55.390 E9.27334
G1 X87.453 Y53.871 E9.33186
M201 X1250 Y1250
M204 P1250 T1250
G1 F7200.000
G1 X87.574 Y53.675 E9.20416
G1 F7200.000
G1 X87.580 Y53.665 E9.19765
G1 F7200.000
G1 X87.614 Y53.611 E9.16233
G1 F7200.000
G1 X87.620 Y53.602 E9.15658
G1 F7200.000
G1 X87.665 Y53.531 E9.10955
G1 F7200.000
G1 X87.672 Y53.519 E9.10210
G1 F7200.000
G1 X87.717 Y53.450 E9.05625
G1 F7200.000
G1 X87.723 Y53.440 E9.04987
G1 F7200.000
G1 X87.749 Y53.400 E9.02346
G1 F7200.000
G1 X87.760 Y53.383 E9.01252
G1 F7200.000
G1 X87.794 Y53.332 E8.97840
G1 F7200.000
G1 X87.806 Y53.314 E8.96636
G1 F7200.000
G1 X87.846 Y53.254 E8.92629
G1 F7200.000
G1 X87.866 Y53.225 E8.90670
G1 F7200.000
G1 X87.903 Y53.172 E8.87108
G1 F7200.000
G1 X87.922 Y53.144 E8.85233
G1 F7200.000
G1 X87.940 Y53.120 E8.83584
G1 F7200.000
G1 X87.955 Y53.098 E8.82095
G1 F7200.000
G1 X87.969 Y53.080 E8.80803
G1 F7200.000
G1 X87.983 Y53.062 E8.79548
G1 F7200.000
G1 X87.995 Y53.046 E8.78435
G1 F7200.000
G1 X88.023 Y53.009 E8.75867
G1 F7200.000
G1 X88.050 Y52.974 E8.73450
G1 F7200.000
G1 X88.087 Y52.929 E8.70186
G1 F7200.000
G1 X88.104 Y52.908 E8.68730
G1 F7200.000
G1 X88.147 Y52.858 E8.65034
G1 F7200.000
G1 X88.165 Y52.837 E8.63533
G1 F7200.000
G1 X88.224 Y52.772 E8.58661
G1 F7200.000
G1 X88.242 Y52.753 E8.57209
G1 F7200.000
G1 X88.304 Y52.690 E8.52306
G1 F7200.000
G1 X88.317 Y52.678 E8.51341
G1 F7200.000
G1 X88.370 Y52.628 E8.47288
G1 F7200.000
G1 X88.377 Y52.622 E8.46778
G1 F7200.000
G1 X88.421 Y52.582 E8.43492
G1 F7200.000
G1 X88.428 Y52.577 E8.42986
G1 F7200.000
G1 X88.497 Y52.519 E8.38026
G1 F7200.000
G1 X88.509 Y52.510 E8.37169
G1 F7200.000
G1 X88.588 Y52.450 E8.31685
G1 F7200.000
G1 X88.593 Y52.445 E8.31288
G1 F7200.000
G1 X88.655 Y52.402 E8.27096
G1 F7200.000
G1 X88.661 Y52.398 E8.26693
G1 F7200.000
G1 X88.721 Y52.358 E8.22707
G1 F7200.000
G1 X88.727 Y52.355 E8.22363
G1 F7200.000
G1 X88.800 Y52.310 E8.17598
G1 F7200.000
G1 X88.806 Y52.307 E8.17220
G1 F7200.000
G1 X88.915 Y52.247 E8.10358
G1 F7200.000
G1 X88.925 Y52.242 E8.09734
G1 F7200.000
G1 X89.048 Y52.184 E8.02167
G1 F7200.000
G1 X89.053 Y52.182 E8.01858
G1 F7200.000
G1 X89.154 Y52.140 E7.95809
G1 F7200.000
G1 X89.160 Y52.138 E7.95470
G1 F7200.000
G1 X89.299 Y52.090 E7.87345
G1 F7200.000
G1 X89.308 Y52.087 E7.86816
G1 F7200.000
G1 X89.461 Y52.046 E7.78015
G1 F7200.000
G1 X89.466 Y52.045 E7.77739
G1 F7200.000
G1 X89.591 Y52.019 E7.70651
G1 F7200.000
G1 X89.597 Y52.018 E7.70336
G1 F7200.000
G1 X89.757 Y51.996 E7.61344
G1 F7200.000
G1 X89.766 Y51.995 E7.60858
G1 F7200.000
G1 X89.995 Y51.984 E7.48148
G1 F7200.000
G1 X90.005 Y51.984 E7.47622
G1 F7200.000
G1 X90.181 Y51.990 E7.37848
G1 F7200.000
G1 X90.186 Y51.991 E7.37584
G1 F7200.000
G1 X90.318 Y52.005 E7.30189
G1 F7200.000
G1 X90.324 Y52.006 E7.29878
G1 F7200.000
G1 X90.481 Y52.033 E7.21042
G1 F7200.000
G1 X90.490 Y52.035 E7.20541
G1 F7200.000
G1 X90.646 Y52.074 E7.11658
G1 F7200.000
G1 X90.650 Y52.075 E7.11377
G1 F7200.000
G1 X90.763 Y52.110 E7.04862
G1 F7200.000
G1 X90.768 Y52.112 E7.04532
G1 F7200.000
G1 X90.902 Y52.163 E6.96613
G1 F7200.000
G1 X90.911 Y52.166 E6.96047
G1 F7200.000
G1 X91.037 Y52.223 E6.88419
G1 F7200.000
G1 X91.042 Y52.226 E6.88099
G1 F7200.000
G1 X91.127 Y52.269 E6.82802
G1 F7200.000
G1 X91.133 Y52.272 E6.82439
G1 F7200.000
G1 X91.201 Y52.311 E6.78111
G1 F7200.000
G1 X91.206 Y52.314 E6.77792
G1 F7200.000
G1 X91.277 Y52.357 E6.73178
G1 F7200.000
G1 X91.283 Y52.361 E6.72793
G1 F7200.000
G1 X91.342 Y52.400 E6.68826
G1 F7200.000
G1 X91.348 Y52.404 E6.68464
G1 F7200.000
G1 X91.434 Y52.466 E6.62561
G1 F7200.000
G1 X91.446 Y52.475 E6.61731
G1 F7200.000
G1 X91.526 Y52.538 E6.56117
G1 F7200.000
G1 X91.533 Y52.543 E6.55634
G1 F7200.000
G1 X91.603 Y52.604 E6.50495
G1 F7200.000
G1 X91.617 Y52.616 E6.49442
G1 F7200.000
G1 X91.696 Y52.691 E6.43406
G1 F7200.000
G1 X91.712 Y52.707 E6.42191
G1 F7200.000
G1 X91.770 Y52.766 E6.37580
G1 F7200.000
G1 X91.784 Y52.781 E6.36475
G1 F7200.000
G1 X91.835 Y52.837 E6.32234
G1 F7200.000
G1 X91.853 Y52.858 E6.30733
G1 F7200.000
G1 X91.871 Y52.879 E6.29186
G1 E6.13186 F4200.00000
G92 E0
G1 Z0.500 F9000.000
G1 X97.665 Y120.914 F9000.000
G1 Z0.300 F9000.000
G1 E3.20000 F4200.00000
M201 X800 Y800
M204 P800 T800
G1 F1200.000
G1 X82.335 Y120.914 E3.70788
G1 X82.335 Y69.422 E5.41377
G1 X97.665 Y69.422 E5.92165
G1 X97.665 Y120.854 E7.62556
M201 X1250 Y1250
M204 P1250 T1250
G1 X97.704 Y121.312 F9000.000
G1 F7200.000
G1 X92.179 Y120.876 E4.58556
G1 E4.42556 F4200.00000
G92 E0
G1 Z0.500 F9000.000
G1 X95.907 Y68.094 F9000.000
G1 Z0.300 F9000.000
G1 E3.20000 F4200.00000
M201 X800 Y800
M204 P800 T800
G1 F1200.000
G1 X84.093 Y68.094 E3.59140
G1 X85.100 Y66.022 E3.66773
G1 X86.289 Y63.681 E3.75470
G1 X87.398 Y61.581 E3.83339
G1 X88.405 Y59.738 E3.90297
G1 X90.000 Y56.950 E4.00939
G1 X90.711 Y58.167 E4.05609
G1 X91.917 Y60.320 E4.13784
G1 X93.713 Y63.685 E4.26420
G1 X94.900 Y66.022 E4.35106
G1 X95.882 Y68.040 E4.42540
M201 X1250 Y1250
M204 P1250 T1250
G1 X96.325 Y68.360 F9000.000
M201 X800 Y800
M204 P800 T800
G1 F1200.000
G1 X83.675 Y68.360 E4.84447
G1 X84.863 Y65.904 E4.93486
G1 X86.053 Y63.559 E5.02197
G1 X87.164 Y61.455 E5.10079
G1 X88.172 Y59.609 E5.17049
G1 X89.323 Y57.574 E5.24794
G1 X90.001 Y56.425 E5.29213
G1 X90.941 Y58.035 E5.35391
G1 X92.150 Y60.192 E5.43583
G1 X93.948 Y63.562 E5.56237
G1 X95.137 Y65.904 E5.64937
G1 X96.299 Y68.306 E5.73777
M201 X1250 Y1250
M204 P1250 T1250
G1 X96.742 Y68.626 F9000.000
M201 X800 Y800
M204 P800 T800
G1 F1200.000
G1 X83.258 Y68.626 E6.18452
G1 X83.800 Y67.466 E6.22693
G1 X84.625 Y65.785 E6.28897
G1 X85.817 Y63.437 E6.37620
G1 X86.930 Y61.330 E6.45516
G1 X87.940 Y59.480 E6.52499
G1 X89.093 Y57.441 E6.60259
G1 X90.002 Y55.900 E6.66185
G1 X91.172 Y57.903 E6.73870
G1 X92.383 Y60.065 E6.82079
G1 X94.184 Y63.439 E6.94751
G1 X95.375 Y65.785 E7.03466
G1 X96.200 Y67.468 E7.09675
G1 X96.717 Y68.571 E7.13712
M201 X1250 Y1250
M204 P1250 T1250
G1 X97.160 Y68.891 F9000.000
M201 X800 Y800
M204 P800 T800
G1 F1200.000
G1 X82.840 Y68.891 E7.61155
G1 X83.561 Y67.351 E7.66787
G1 X84.387 Y65.666 E7.73005
G1 X85.581 Y63.315 E7.81742
G1 X86.696 Y61.204 E7.89650
G1 X87.708 Y59.351 E7.96646
G1 X88.863 Y57.308 E8.04420
G1 X89.995 Y55.389 E8.11803
G1 X91.402 Y57.771 E8.20971
G1 X92.616 Y59.937 E8.29197
G1 X94.419 Y63.317 E8.41887
G1 X95.613 Y65.666 E8.50617
G1 X96.440 Y67.353 E8.56840
G1 X97.135 Y68.837 E8.62269
M201 X1250 Y1250
M204 P1250 T1250
G1 X97.578 Y69.157 F9000.000
M201 X800 Y800
M204 P800 T800
G1 F1200.000
G1 X82.422 Y69.157 E9.12479
G1 X83.321 Y67.237 E9.19503
G1 X84.150 Y65.548 E9.25735
G1 X85.345 Y63.193 E9.34485
G1 X86.462 Y61.078 E9.42407
G1 X87.476 Y59.222 E9.49415
G1 X88.633 Y57.175 E9.57204
G1 X89.706 Y55.356 E9.64200
G1 X90.001 Y54.899 E9.66004
G1 X90.442 Y55.601 E9.68753
G1 X91.633 Y57.639 E9.76572
G1 X92.849 Y59.810 E9.84815
G1 X94.655 Y63.194 E9.97523
G1 X95.850 Y65.548 E10.06269
G1 X96.679 Y67.238 E10.12506
G1 X97.552 Y69.102 E10.19326
M201 X1250 Y1250
M204 P1250 T1250
G1 F7200.000
G1 X92.067 Y69.122 E7.15326
G1 E6.99326 F4200.00000
G92 E0
G1 Z0.500 F9000.000
G1 X102.915 Y102.752 F9000.000
G1 Z0.300 F9000.000
G1 E3.20000 F4200.00000
M201 X800 Y800
M204 P800 T800
G1 F1200.000
G1 X103.403 Y102.675 E3.21638
G1 X103.778 Y102.675 E3.22880
G1 X104.149 Y102.722 E3.24121
G1 X104.643 Y102.865 E3.25823
G1 X105.118 Y103.107 E3.27589
G1 X105.539 Y103.434 E3.29356
G1 X105.892 Y103.834 E3.31123
G1 X106.163 Y104.293 E3.32889
G1 X106.344 Y104.795 E3.34656
G1 X106.427 Y105.321 E3.36422
G1 X106.411 Y105.854 E3.38188
G1 X106.294 Y106.375 E3.39955
G1 X106.083 Y106.864 E3.41722
G1 X105.783 Y107.305 E3.43488
G1 X105.406 Y107.682 E3.45254
G1 X104.981 Y107.971 E3.46957
G1 X104.642 Y108.130 E3.48198
G1 X104.285 Y108.246 E3.49440
G1 X103.797 Y108.323 E3.51077
G1 X103.422 Y108.323 E3.52319
G1 X103.050 Y108.276 E3.53561
G1 X102.557 Y108.133 E3.55263
G1 X102.082 Y107.891 E3.57029
G1 X101.661 Y107.564 E3.58796
G1 X101.308 Y107.164 E3.60562
G1 X101.037 Y106.705 E3.62329
G1 X100.856 Y106.204 E3.64095
G1 X100.773 Y105.677 E3.65861
G1 X100.789 Y105.144 E3.67628
G1 X100.906 Y104.624 E3.69395
G1 X101.117 Y104.134 E3.71161
G1 X101.417 Y103.693 E3.72928
G1 X101.794 Y103.316 E3.74694
G1 X102.219 Y103.028 E3.76396
G1 X102.558 Y102.868 E3.77638
G1 X102.858 Y102.771 E3.78681
M201 X1250 Y1250
M204 P1250 T1250
G1 X102.977 Y103.011 F9000.000
M201 X800 Y800
M204 P800 T800
G1 F1200.000
G1 X103.424 Y102.940 E3.80180
G1 X103.761 Y102.940 E3.81297
G1 X104.095 Y102.983 E3.82414
G1 X104.545 Y103.113 E3.83963
G1 X104.975 Y103.332 E3.85563
G1 X105.357 Y103.629 E3.87164
G1 X105.676 Y103.991 E3.88764
G1 X105.922 Y104.407 E3.90364
G1 X106.085 Y104.861 E3.91964
G1 X106.161 Y105.338 E3.93564
G1 X106.146 Y105.821 E3.95164
G1 X106.041 Y106.292 E3.96764
G1 X105.849 Y106.735 E3.98365
G1 X105.577 Y107.135 E3.99965
G1 X105.236 Y107.476 E4.01565
G1 X104.849 Y107.739 E4.03115
G1 X104.544 Y107.883 E4.04231
G1 X104.223 Y107.987 E4.05348
G1 X103.776 Y108.058 E4.06847
G1 X103.439 Y108.058 E4.07965
G1 X103.105 Y108.016 E4.09082
G1 X102.655 Y107.885 E4.10631
G1 X102.225 Y107.666 E4.12231
G1 X101.843 Y107.370 E4.13832
G1 X101.524 Y107.007 E4.15432
G1 X101.278 Y106.592 E4.17032
G1 X101.114 Y106.137 E4.18632
G1 X101.039 Y105.660 E4.20232
G1 X101.054 Y105.178 E4.21832
G1 X101.159 Y104.706 E4.23432
G1 X101.351 Y104.263 E4.25032
G1 X101.623 Y103.863 E4.26632
G1 X101.964 Y103.522 E4.28232
G1 X102.351 Y103.259 E4.29782
G1 X102.656 Y103.115 E4.30899
G1 X102.920 Y103.030 E4.31817
M201 X1250 Y1250
M204 P1250 T1250
G1 X103.039 Y103.270 F9000.000
M201 X800 Y800
M204 P800 T800
G1 F1200.000
G1 X103.445 Y103.206 E4.33178
G1 X103.744 Y103.206 E4.34171
G1 X104.041 Y103.244 E4.35163
G1 X104.446 Y103.361 E4.36560
G1 X104.832 Y103.558 E4.37994
G1 X105.174 Y103.823 E4.39428
G1 X105.460 Y104.148 E4.40861
G1 X105.680 Y104.520 E4.42295
G1 X105.827 Y104.927 E4.43729
G1 X105.895 Y105.355 E4.45162
G1 X105.881 Y105.787 E4.46596
G1 X105.787 Y106.210 E4.48030
G1 X105.615 Y106.607 E4.49464
G1 X105.372 Y106.965 E4.50898
G1 X105.066 Y107.271 E4.52331
G1 X104.717 Y107.508 E4.53729
G1 X104.446 Y107.635 E4.54721
G1 X104.161 Y107.728 E4.55713
G1 X103.755 Y107.792 E4.57074
G1 X103.456 Y107.792 E4.58066
G1 X103.159 Y107.755 E4.59059
G1 X102.754 Y107.637 E4.60456
G1 X102.368 Y107.441 E4.61889
G1 X102.026 Y107.175 E4.63323
G1 X101.740 Y106.851 E4.64757
G1 X101.520 Y106.478 E4.66191
G1 X101.373 Y106.071 E4.67625
G1 X101.305 Y105.644 E4.69058
G1 X101.319 Y105.211 E4.70492
G1 X101.413 Y104.789 E4.71926
G1 X101.585 Y104.391 E4.73360
G1 X101.828 Y104.033 E4.74793
G1 X102.134 Y103.727 E4.76227
G1 X102.483 Y103.490 E4.77625
G1 X102.754 Y103.363 E4.78617
G1 X102.982 Y103.289 E4.79410
M201 X1250 Y1250
M204 P1250 T1250
G1 X103.101 Y103.529 F9000.000
M201 X800 Y800
M204 P800 T800
G1 F1200.000
G1 X103.466 Y103.472 E4.80632
G1 X103.728 Y103.472 E4.81500
G1 X103.987 Y103.505 E4.82368
G1 X104.348 Y103.609 E4.83613
G1 X104.689 Y103.783 E4.84880
G1 X104.991 Y104.017 E4.86148
G1 X105.244 Y104.304 E4.87415
G1 X105.439 Y104.634 E4.88682
G1 X105.569 Y104.994 E4.89950
G1 X105.628 Y105.371 E4.91217
G1 X105.617 Y105.754 E4.92484
G1 X105.533 Y106.127 E4.93752
