; generated by Slic3r 1.3.1-dev (Build 2d100c4) on 2020-05-22 at 09:30:57

; external perimeters extrusion width = 0.45mm (2.44mm^3/s)
; perimeters extrusion width = 0.45mm (3.26mm^3/s)
; infill extrusion width = 0.45mm (6.51mm^3/s)
; solid infill extrusion width = 0.45mm (6.51mm^3/s)
; top infill extrusion width = 0.40mm (2.86mm^3/s)

M107
G92 E0
M190 S60 ; set bed temperature and wait for it to be reached
;D3D:START:START
T0
M104 S215 T0

G21
G90
M107
T0
G28
G29
M109 T0 S215 T0
G0 F3000
M107
T0
G92 E0
G0 X0 Y149 Z0.1 F3600
G1 Y49 E6.5 F1200
G0 Z1
G92 E0
; Filament gcode

G21 ; set units to millimeters
G90 ; use absolute coordinates
M82 ; use absolute distances for extrusion
G92 E0
G1 Z0.300 F9000.000
G1 E-3.20000 F4200.00000
G92 E0
G1 Z0.500 F9000.000
G1 X73.338 Y72.783 F9000.000
G1 Z0.300 F9000.000
G1 E3.20000 F4200.00000
M201 X800 Y800
M204 P800 T800
G1 F1200.000
G1 X74.588 Y71.681 E3.25521
G1 X75.795 Y70.750 E3.30572
G1 X76.938 Y69.973 E3.35150
G1 X78.373 Y69.125 E3.40671
G1 X79.604 Y68.498 E3.45250
G1 X81.001 Y67.888 E3.50300
G1 X82.434 Y67.367 E3.55351
G1 X83.897 Y66.938 E3.60400
G1 X85.523 Y66.574 E3.65922
G1 X86.888 Y66.358 E3.70500
G1 X88.405 Y66.210 E3.75550
G1 X90.071 Y66.158 E3.81072
G1 X91.453 Y66.201 E3.85650
G1 X92.971 Y66.340 E3.90701
G1 X94.617 Y66.601 E3.96222
G1 X95.965 Y66.903 E4.00801
G1 X97.430 Y67.324 E4.05851
G1 X98.999 Y67.888 E4.11372
G1 X100.267 Y68.437 E4.15951
G1 X101.627 Y69.125 E4.21001
G1 X102.941 Y69.897 E4.26051
G1 X104.205 Y70.750 E4.31101
G1 X105.522 Y71.772 E4.36622
G1 X106.558 Y72.686 E4.41201
G1 X107.639 Y73.760 E4.46251
G1 X108.741 Y75.010 E4.51772
G1 X109.672 Y76.218 E4.56823
G1 X110.449 Y77.361 E4.61401
G1 X111.297 Y78.795 E4.66922
G1 X111.925 Y80.027 E4.71501
G1 X112.534 Y81.424 E4.76551
G1 X113.055 Y82.857 E4.81602
G1 X113.484 Y84.319 E4.86651
G1 X113.848 Y85.946 E4.92173
G1 X114.064 Y87.311 E4.96752
G1 X114.212 Y88.828 E5.01802
G1 X114.265 Y90.494 E5.07323
G1 X114.221 Y91.875 E5.11902
G1 X114.082 Y93.393 E5.16952
G1 X113.821 Y95.039 E5.22473
G1 X113.520 Y96.388 E5.27052
G1 X113.099 Y97.853 E5.32102
G1 X112.534 Y99.421 E5.37623
G1 X111.985 Y100.689 E5.42202
G1 X111.297 Y102.050 E5.47252
G1 X110.525 Y103.364 E5.52302
G1 X109.672 Y104.627 E5.57352
G1 X108.651 Y105.944 E5.62874
G1 X107.639 Y107.084 E5.67924
G1 X106.662 Y108.062 E5.72502
G1 X105.522 Y109.073 E5.77552
G1 X104.291 Y110.033 E5.82724
G1 X103.062 Y110.871 E5.87653
G1 X101.752 Y111.651 E5.92703
G1 X100.396 Y112.347 E5.97753
G1 X98.999 Y112.957 E6.02803
G1 X97.566 Y113.477 E6.07853
G1 X96.632 Y113.753 E6.11078
G1 X96.000 Y113.843 E6.13194
G1 X84.000 Y113.843 E6.52949
G1 X83.368 Y113.753 E6.55065
G1 X82.569 Y113.521 E6.57819
G1 X81.134 Y113.009 E6.62869
G1 X79.733 Y112.408 E6.67919
G1 X78.248 Y111.651 E6.73440
G1 X76.938 Y110.871 E6.78490
G1 X75.680 Y110.011 E6.83541
G1 X74.588 Y109.164 E6.88119
G1 X73.442 Y108.159 E6.93169
G1 X72.361 Y107.084 E6.98219
G1 X71.259 Y105.834 E7.03740
G1 X70.411 Y104.742 E7.08319
G1 X69.551 Y103.484 E7.13370
G1 X68.703 Y102.050 E7.18890
G1 X68.075 Y100.818 E7.23469
G1 X67.466 Y99.421 E7.28519
G1 X66.901 Y97.853 E7.34041
G1 X66.516 Y96.526 E7.38619
G1 X66.179 Y95.039 E7.43670
G1 X65.936 Y93.534 E7.48720
G1 X65.788 Y92.017 E7.53770
G1 X65.735 Y90.351 E7.59291
G1 X65.779 Y88.970 E7.63870
G1 X65.918 Y87.452 E7.68920
G1 X66.179 Y85.806 E7.74441
G1 X66.480 Y84.457 E7.79020
G1 X66.901 Y82.992 E7.84070
G1 X67.466 Y81.424 E7.89591
G1 X68.075 Y80.027 E7.94642
G1 X68.703 Y78.795 E7.99221
G1 X69.551 Y77.361 E8.04741
G1 X70.411 Y76.102 E8.09792
G1 X71.259 Y75.010 E8.14371
G1 X72.263 Y73.864 E8.19420
G1 X73.296 Y72.825 E8.24272
M201 X1250 Y1250
M204 P1250 T1250
G1 F7200.000
G1 X73.442 Y72.686 E8.13062
G1 F7200.000
G1 X74.478 Y71.772 E7.36472
G1 F7200.000
G1 X74.588 Y71.681 E7.28587
G1 F7200.000
G1 X75.680 Y70.834 E6.51999
G1 F7200.000
G1 X75.795 Y70.750 E6.44103
G1 F7200.000
G1 X76.938 Y69.973 E5.67514
G1 F7200.000
G1 X77.059 Y69.897 E5.59628
G1 F7200.000
G1 X77.670 Y69.536 E5.20272
G1 E5.04272 F4200.00000
G92 E0
G1 Z0.500 F9000.000
G1 X96.696 Y80.226 F9000.000
G1 Z0.300 F9000.000
G1 E3.20000 F4200.00000
M201 X800 Y800
M204 P800 T800
G1 F1200.000
G1 X83.304 Y80.226 E3.64369
G1 X83.304 Y110.642 E4.65136
G1 X82.158 Y110.230 E4.69172
G1 X80.929 Y109.698 E4.73605
G1 X79.737 Y109.091 E4.78039
G1 X78.585 Y108.409 E4.82473
G1 X77.478 Y107.657 E4.86907
G1 X76.421 Y106.837 E4.91340
G1 X75.417 Y105.952 E4.95774
G1 X74.470 Y105.006 E5.00208
G1 X73.585 Y104.002 E5.04642
G1 X72.765 Y102.944 E5.09075
G1 X72.013 Y101.837 E5.13509
G1 X71.332 Y100.685 E5.17943
G1 X70.724 Y99.493 E5.22377
G1 X70.193 Y98.265 E5.26811
G1 X69.739 Y97.006 E5.31244
G1 X69.366 Y95.720 E5.35678
G1 X69.074 Y94.414 E5.40112
G1 X68.865 Y93.092 E5.44546
G1 X68.739 Y91.760 E5.48979
G1 X68.697 Y90.422 E5.53413
G1 X68.739 Y89.085 E5.57847
G1 X68.865 Y87.752 E5.62281
G1 X69.074 Y86.431 E5.66714
G1 X69.366 Y85.124 E5.71148
G1 X69.739 Y83.839 E5.75582
G1 X70.193 Y82.580 E5.80016
G1 X70.724 Y81.352 E5.84449
G1 X71.332 Y80.159 E5.88883
G1 X72.013 Y79.007 E5.93317
G1 X72.765 Y77.901 E5.97751
G1 X73.585 Y76.843 E6.02184
G1 X74.470 Y75.839 E6.06618
G1 X75.417 Y74.893 E6.11052
G1 X76.421 Y74.008 E6.15486
G1 X77.478 Y73.188 E6.19920
G1 X78.585 Y72.435 E6.24353
G1 X79.737 Y71.754 E6.28787
G1 X80.929 Y71.146 E6.33221
G1 X82.158 Y70.615 E6.37655
G1 X83.417 Y70.162 E6.42088
G1 X84.702 Y69.788 E6.46522
G1 X86.008 Y69.496 E6.50956
G1 X87.330 Y69.287 E6.55390
G1 X88.662 Y69.161 E6.59824
G1 X90.000 Y69.119 E6.64257
G1 X91.338 Y69.161 E6.68691
G1 X92.670 Y69.287 E6.73125
G1 X93.992 Y69.496 E6.77559
G1 X95.298 Y69.788 E6.81992
G1 X96.583 Y70.162 E6.86426
G1 X97.842 Y70.615 E6.90860
G1 X99.071 Y71.146 E6.95294
G1 X100.263 Y71.754 E6.99728
G1 X101.415 Y72.435 E7.04161
G1 X102.522 Y73.188 E7.08595
G1 X103.579 Y74.008 E7.13029
G1 X104.583 Y74.893 E7.17462
G1 X105.530 Y75.839 E7.21896
G1 X106.415 Y76.843 E7.26330
G1 X107.235 Y77.901 E7.30764
G1 X107.987 Y79.007 E7.35197
G1 X108.668 Y80.159 E7.39631
G1 X109.276 Y81.352 E7.44065
G1 X109.807 Y82.580 E7.48499
G1 X110.261 Y83.839 E7.52933
G1 X110.634 Y85.124 E7.57366
G1 X110.926 Y86.431 E7.61800
G1 X111.135 Y87.752 E7.66234
G1 X111.261 Y89.085 E7.70668
G1 X111.303 Y90.422 E7.75101
G1 X111.261 Y91.760 E7.79535
G1 X111.135 Y93.092 E7.83969
G1 X110.926 Y94.414 E7.88403
G1 X110.634 Y95.720 E7.92836
G1 X110.261 Y97.006 E7.97270
G1 X109.807 Y98.265 E8.01704
G1 X109.276 Y99.493 E8.06138
G1 X108.668 Y100.685 E8.10572
G1 X107.987 Y101.837 E8.15005
G1 X107.235 Y102.944 E8.19439
G1 X106.415 Y104.002 E8.23873
G1 X105.530 Y105.006 E8.28307
G1 X104.583 Y105.952 E8.32740
G1 X103.579 Y106.837 E8.37174
G1 X102.522 Y107.657 E8.41608
G1 X101.415 Y108.409 E8.46042
G1 X100.263 Y109.091 E8.50475
G1 X99.071 Y109.698 E8.54909
G1 X97.842 Y110.230 E8.59343
G1 X96.696 Y110.642 E8.63378
G1 X96.696 Y80.286 E9.63947
M201 X1250 Y1250
M204 P1250 T1250
G1 X96.431 Y80.492 F9000.000
M201 X800 Y800
M204 P800 T800
G1 F1200.000
G1 X83.569 Y80.492 E10.06556
G1 X83.569 Y111.004 E11.07641
G1 X83.335 Y110.936 E11.08451
G1 X82.060 Y110.477 E11.12940
G1 X80.816 Y109.939 E11.17429
G1 X79.609 Y109.324 E11.21918
G1 X78.443 Y108.634 E11.26407
G1 X77.322 Y107.872 E11.30896
G1 X76.251 Y107.042 E11.35385
G1 X75.235 Y106.146 E11.39874
G1 X74.277 Y105.187 E11.44363
G1 X73.381 Y104.171 E11.48853
G1 X72.550 Y103.100 E11.53342
G1 X71.789 Y101.980 E11.57831
G1 X71.099 Y100.813 E11.62320
G1 X70.484 Y99.606 E11.66809
G1 X69.945 Y98.363 E11.71298
G1 X69.487 Y97.088 E11.75787
G1 X69.108 Y95.786 E11.80276
G1 X68.813 Y94.464 E11.84765
G1 X68.601 Y93.126 E11.89254
G1 X68.473 Y91.777 E11.93743
G1 X68.431 Y90.422 E11.98232
G1 X68.473 Y89.068 E12.02721
G1 X68.601 Y87.719 E12.07210
G1 X68.813 Y86.381 E12.11700
G1 X69.108 Y85.058 E12.16189
G1 X69.487 Y83.757 E12.20678
G1 X69.945 Y82.482 E12.25167
G1 X70.484 Y81.239 E12.29656
G1 X71.099 Y80.031 E12.34145
G1 X71.789 Y78.865 E12.38634
G1 X72.550 Y77.744 E12.43123
G1 X73.381 Y76.674 E12.47612
G1 X74.277 Y75.657 E12.52101
G1 X75.235 Y74.699 E12.56590
G1 X76.251 Y73.803 E12.61079
G1 X77.322 Y72.973 E12.65568
G1 X78.443 Y72.211 E12.70057
G1 X79.609 Y71.521 E12.74546
G1 X80.816 Y70.906 E12.79036
G1 X82.060 Y70.368 E12.83525
G1 X83.335 Y69.909 E12.88014
G1 X84.636 Y69.531 E12.92503
G1 X85.958 Y69.235 E12.96992
G1 X87.297 Y69.023 E13.01481
G1 X88.646 Y68.896 E13.05970
G1 X90.000 Y68.853 E13.10459
G1 X91.354 Y68.896 E13.14948
G1 X92.703 Y69.023 E13.19437
G1 X94.042 Y69.235 E13.23926
G1 X95.364 Y69.531 E13.28415
G1 X96.665 Y69.909 E13.32905
G1 X97.940 Y70.368 E13.37394
G1 X99.184 Y70.906 E13.41883
G1 X100.391 Y71.521 E13.46372
G1 X101.557 Y72.211 E13.50861
G1 X102.678 Y72.973 E13.55350
G1 X103.749 Y73.803 E13.59839
G1 X104.765 Y74.699 E13.64328
G1 X105.723 Y75.657 E13.68817
G1 X106.619 Y76.674 E13.73306
G1 X107.450 Y77.744 E13.77795
G1 X108.211 Y78.865 E13.82284
G1 X108.901 Y80.031 E13.86773
G1 X109.516 Y81.239 E13.91263
G1 X110.055 Y82.482 E13.95752
G1 X110.513 Y83.757 E14.00241
G1 X110.892 Y85.058 E14.04730
G1 X111.187 Y86.381 E14.09219
G1 X111.399 Y87.719 E14.13708
G1 X111.527 Y89.068 E14.18197
G1 X111.569 Y90.422 E14.22686
G1 X111.527 Y91.777 E14.27175
G1 X111.399 Y93.126 E14.31664
G1 X111.187 Y94.464 E14.36153
G1 X110.892 Y95.786 E14.40642
G1 X110.513 Y97.088 E14.45131
G1 X110.055 Y98.363 E14.49620
G1 X109.516 Y99.606 E14.54110
G1 X108.901 Y100.813 E14.58599
G1 X108.211 Y101.980 E14.63088
G1 X107.450 Y103.100 E14.67577
G1 X106.619 Y104.171 E14.72066
G1 X105.723 Y105.187 E14.76555
G1 X104.765 Y106.146 E14.81044
G1 X103.749 Y107.042 E14.85533
G1 X102.678 Y107.872 E14.90022
G1 X101.557 Y108.634 E14.94511
G1 X100.391 Y109.324 E14.99000
G1 X99.184 Y109.939 E15.03489
G1 X97.940 Y110.477 E15.07978
G1 X96.665 Y110.936 E15.12468
G1 X96.431 Y111.004 E15.13277
G1 X96.431 Y80.552 E16.14164
M201 X1250 Y1250
M204 P1250 T1250
G1 X96.165 Y80.757 F9000.000
M201 X800 Y800
M204 P800 T800
G1 F1200.000
G1 X83.835 Y80.757 E16.55012
G1 X83.835 Y111.358 E17.56390
G1 X83.253 Y111.189 E17.58399
G1 X81.962 Y110.724 E17.62944
G1 X80.703 Y110.179 E17.67488
G1 X79.481 Y109.556 E17.72033
G1 X78.300 Y108.858 E17.76577
G1 X77.166 Y108.087 E17.81121
G1 X76.082 Y107.247 E17.85666
G1 X75.053 Y106.339 E17.90210
G1 X74.083 Y105.369 E17.94754
G1 X73.176 Y104.340 E17.99299
G1 X72.335 Y103.257 E18.03843
G1 X71.564 Y102.122 E18.08387
G1 X70.866 Y100.941 E18.12932
G1 X70.243 Y99.719 E18.17476
G1 X69.698 Y98.460 E18.22021
G1 X69.234 Y97.170 E18.26565
G1 X68.851 Y95.853 E18.31109
G1 X68.552 Y94.514 E18.35654
G1 X68.337 Y93.159 E18.40198
G1 X68.208 Y91.793 E18.44743
G1 X68.165 Y90.422 E18.49287
G1 X68.208 Y89.051 E18.53831
G1 X68.337 Y87.686 E18.58376
G1 X68.552 Y86.331 E18.62920
G1 X68.851 Y84.992 E18.67465
G1 X69.234 Y83.675 E18.72009
G1 X69.698 Y82.384 E18.76553
G1 X70.243 Y81.126 E18.81098
G1 X70.866 Y79.903 E18.85642
G1 X71.564 Y78.723 E18.90187
G1 X72.335 Y77.588 E18.94731
G1 X73.176 Y76.504 E18.99275
G1 X74.083 Y75.475 E19.03820
G1 X75.053 Y74.505 E19.08364
G1 X76.082 Y73.598 E19.12908
G1 X77.166 Y72.758 E19.17453
G1 X78.300 Y71.987 E19.21997
G1 X79.481 Y71.288 E19.26541
G1 X80.703 Y70.666 E19.31086
G1 X81.962 Y70.121 E19.35630
G1 X83.253 Y69.656 E19.40175
G1 X84.570 Y69.273 E19.44719
G1 X85.909 Y68.974 E19.49263
G1 X87.263 Y68.760 E19.53808
G1 X88.629 Y68.631 E19.58352
G1 X90.000 Y68.587 E19.62897
G1 X91.371 Y68.631 E19.67441
G1 X92.737 Y68.760 E19.71985
G1 X94.091 Y68.974 E19.76530
G1 X95.430 Y69.273 E19.81074
G1 X96.747 Y69.656 E19.85619
G1 X98.038 Y70.121 E19.90163
G1 X99.297 Y70.666 E19.94707
G1 X100.519 Y71.288 E19.99252
G1 X101.700 Y71.987 E20.03796
G1 X102.834 Y72.758 E20.08340
G1 X103.918 Y73.598 E20.12885
G1 X104.947 Y74.505 E20.17429
G1 X105.917 Y75.475 E20.21974
G1 X106.824 Y76.504 E20.26518
G1 X107.665 Y77.588 E20.31062
G1 X108.436 Y78.723 E20.35607
G1 X109.134 Y79.903 E20.40151
G1 X109.757 Y81.126 E20.44696
G1 X110.302 Y82.384 E20.49240
G1 X110.766 Y83.675 E20.53784
G1 X111.149 Y84.992 E20.58329
G1 X111.448 Y86.331 E20.62873
G1 X111.663 Y87.686 E20.67417
G1 X111.792 Y89.051 E20.71962
G1 X111.835 Y90.422 E20.76506
G1 X111.792 Y91.793 E20.81051
G1 X111.663 Y93.159 E20.85595
G1 X111.448 Y94.514 E20.90139
G1 X111.149 Y95.853 E20.94684
G1 X110.766 Y97.170 E20.99228
G1 X110.302 Y98.460 E21.03772
G1 X109.757 Y99.719 E21.08317
G1 X109.134 Y100.941 E21.12861
G1 X108.436 Y102.122 E21.17406
G1 X107.665 Y103.257 E21.21950
G1 X106.824 Y104.340 E21.26494
G1 X105.917 Y105.369 E21.31039
G1 X104.947 Y106.339 E21.35583
G1 X103.918 Y107.247 E21.40128
G1 X102.834 Y108.087 E21.44672
G1 X101.700 Y108.858 E21.49216
G1 X100.519 Y109.556 E21.53761
G1 X99.297 Y110.179 E21.58305
G1 X98.038 Y110.724 E21.62850
G1 X96.747 Y111.189 E21.67394
G1 X96.165 Y111.358 E21.69403
G1 X96.165 Y80.817 E22.70582
M201 X1250 Y1250
M204 P1250 T1250
G1 F7200.000
G1 X90.679 Y80.791 E19.66582
G1 E19.50582 F4200.00000
G92 E0
G1 Z0.500 F9000.000
G1 X75.705 Y74.981 F9000.000
G1 Z0.300 F9000.000
G1 E3.20000 F4200.00000
M201 X800 Y800
M204 P800 T800
G1 F1200.000
G1 X74.559 Y76.127 E3.25381
G1 X73.687 Y77.116 E3.29757
G1 X72.823 Y78.239 E3.34460
G1 X77.816 Y73.246 E3.57901
G1 X78.956 Y72.482 E3.62456
G1 X72.060 Y79.379 E3.94835
G1 X71.515 Y80.300 E3.98388
G1 X79.878 Y71.937 E4.37650
G1 X80.660 Y71.531 E4.40577
G1 X71.109 Y81.083 E4.85420
G1 X70.756 Y81.812 E4.88110
G1 X81.390 Y71.178 E5.38034
G1 X82.053 Y70.891 E5.40434
G1 X70.469 Y82.476 E5.94822
G1 X70.222 Y83.098 E5.97046
G1 X82.676 Y70.645 E6.55515
G1 X83.264 Y70.433 E6.57590
G1 X70.010 Y83.687 E7.19815
G1 X69.823 Y84.250 E7.21786
G1 X83.828 Y70.246 E7.87536
G1 X84.358 Y70.091 E7.89370
G1 X69.669 Y84.781 E8.58335
G1 X69.516 Y85.310 E8.60163
G1 X84.887 Y69.939 E9.32328
G1 X85.372 Y69.830 E9.33977
G1 X69.408 Y85.795 E10.08926
G1 X69.300 Y86.279 E10.10575
G1 X85.857 Y69.722 E10.88310
G1 X86.328 Y69.628 E10.89904
G1 X69.205 Y86.750 E11.70292
G1 X69.134 Y87.197 E11.71795
G1 X86.775 Y69.557 E12.54615
G1 X87.222 Y69.486 E12.56118
G1 X69.064 Y87.645 E13.41371
G1 X69.007 Y88.078 E13.42820
G1 X87.655 Y69.429 E14.30371
G1 X88.071 Y69.390 E14.31757
G1 X68.968 Y88.493 E15.21444
G1 X68.928 Y88.909 E15.22830
G1 X88.487 Y69.351 E16.14653
G1 X88.895 Y69.319 E16.16012
G1 X68.897 Y89.317 E17.09897
G1 X68.885 Y89.706 E17.11188
G1 X89.283 Y69.307 E18.06956
G1 X89.672 Y69.295 E18.08247
G1 X68.873 Y90.094 E19.05897
G1 X68.860 Y90.483 E19.07187
G1 X90.060 Y69.283 E20.06719
G1 X90.428 Y69.292 E20.07940
G1 X68.869 Y90.850 E21.09155
G1 X68.881 Y91.215 E21.10367
G1 X90.793 Y69.303 E22.13243
G1 X91.158 Y69.315 E22.14455
G1 X68.892 Y91.580 E23.18989
G1 X68.909 Y91.940 E23.20183
G1 X91.517 Y69.332 E24.26324
G1 X91.861 Y69.364 E24.27471
G1 X68.942 Y92.283 E25.35074
G1 X68.974 Y92.627 E25.36221
G1 X92.205 Y69.397 E26.45285
G1 X92.549 Y69.429 E26.46432
G1 X69.007 Y92.971 E27.56959
G1 X69.048 Y93.307 E27.58081
G1 X92.884 Y69.470 E28.69990
G1 X93.209 Y69.522 E28.71082
G1 X69.099 Y93.632 E29.84276
G1 X69.151 Y93.957 E29.85368
G1 X82.935 Y80.173 E30.50083
G1 X82.935 Y80.064 E30.50443
G1 X83.043 Y80.064 E30.50804
G1 X93.534 Y69.573 E31.00057
G1 X93.859 Y69.625 E31.01149
G1 X83.420 Y80.064 E31.50160
G1 X83.796 Y80.064 E31.51409
G1 X94.177 Y69.683 E32.00144
G1 X94.484 Y69.752 E32.01191
G1 X84.173 Y80.064 E32.49603
G1 X84.549 Y80.064 E32.50852
G1 X94.792 Y69.821 E32.98941
G1 X95.100 Y69.890 E32.99988
G1 X84.926 Y80.064 E33.47754
G1 X85.302 Y80.064 E33.49003
G1 X95.404 Y69.962 E33.96429
G1 X95.695 Y70.047 E33.97437
G1 X85.678 Y80.064 E34.44465
G1 X86.055 Y80.064 E34.45715
G1 X95.987 Y70.132 E34.92345
G1 X96.279 Y70.216 E34.93353
G1 X86.431 Y80.064 E35.39585
G1 X86.808 Y80.064 E35.40835
G1 X96.570 Y70.301 E35.86669
G1 X96.849 Y70.399 E35.87649
G1 X87.184 Y80.064 E36.33024
G1 X87.560 Y80.064 E36.34273
G1 X97.126 Y70.499 E36.79180
G1 X97.402 Y70.598 E36.80157
G1 X87.937 Y80.064 E37.24596
G1 X88.313 Y80.064 E37.25846
G1 X97.679 Y70.698 E37.69817
G1 X97.950 Y70.803 E37.70783
G1 X88.690 Y80.064 E38.14261
G1 X89.066 Y80.064 E38.15510
G1 X98.213 Y70.917 E38.58454
G1 X98.476 Y71.031 E38.59404
G1 X89.443 Y80.064 E39.01815
G1 X89.819 Y80.064 E39.03064
G1 X98.739 Y71.144 E39.44941
