; generated by Slic3r 1.3.0 on 2020-07-29 at 17:52:09

; external perimeters extrusion width = 0.44mm (2.38mm^3/s)
; perimeters extrusion width = 0.56mm (4.14mm^3/s)
; infill extrusion width = 0.50mm (7.31mm^3/s)
; solid infill extrusion width = 0.56mm (8.27mm^3/s)
; top infill extrusion width = 0.56mm (4.14mm^3/s)

M107
M190 S60 ; set bed temperature and wait for it to be reached
;D3D:START:START
T0
M104 S215 T0

G21
G90
M107
T0
G28
G29
M109 T0 S215 T0
G0 F3000
M107
T0
G92 E0
G0 X0 Y149 Z0.1 F3600
G1 Y49 E6.5 F1200
G0 Z1
G92 E0
; Filament gcode

G21 ; set units to millimeters
G90 ; use absolute coordinates
M82 ; use absolute distances for extrusion
G92 E0
G1 Z0.300 F9000.000
G1 E-3.20000 F4200.00000
G92 E0
G1 Z0.500 F9000.000
G1 X81.585 Y81.140 F9000.000
G1 Z0.300 F9000.000
G1 E3.20000 F4200.00000
M201 X800 Y800
M204 P800 T800
G1 F1200
G1 X81.585 Y110.944 E4.18737
G1 X80.703 Y110.562 E4.21921
G1 X79.481 Y109.939 E4.26465
G1 X78.300 Y109.241 E4.31009
G1 X77.166 Y108.470 E4.35554
G1 X76.082 Y107.629 E4.40098
G1 X75.053 Y106.722 E4.44643
G1 X74.083 Y105.752 E4.49187
G1 X73.176 Y104.723 E4.53731
G1 X72.335 Y103.639 E4.58276
G1 X71.564 Y102.505 E4.62820
G1 X70.866 Y101.324 E4.67364
G1 X70.243 Y100.102 E4.71909
G1 X69.698 Y98.843 E4.76453
G1 X69.234 Y97.553 E4.80998
G1 X68.851 Y96.235 E4.85542
G1 X68.552 Y94.897 E4.90086
G1 X68.337 Y93.542 E4.94631
G1 X68.208 Y92.176 E4.99175
G1 X68.165 Y90.805 E5.03720
G1 X68.208 Y89.434 E5.08264
G1 X68.337 Y88.069 E5.12808
G1 X68.552 Y86.714 E5.17353
G1 X68.851 Y85.375 E5.21897
G1 X69.234 Y84.058 E5.26442
G1 X69.698 Y82.767 E5.30986
G1 X70.243 Y81.508 E5.35530
G1 X70.866 Y80.286 E5.40075
G1 X71.529 Y79.165 E5.44391
G1 X72.335 Y77.971 E5.49164
G1 X73.176 Y76.887 E5.53707
G1 X74.083 Y75.858 E5.58252
G1 X75.053 Y74.888 E5.62796
G1 X76.082 Y73.981 E5.67341
G1 X77.166 Y73.140 E5.71885
G1 X78.300 Y72.369 E5.76429
G1 X79.481 Y71.671 E5.80974
G1 X80.703 Y71.048 E5.85518
G1 X81.962 Y70.504 E5.90062
G1 X83.253 Y70.039 E5.94607
G1 X84.570 Y69.656 E5.99151
G1 X85.841 Y69.372 E6.03467
G1 X87.264 Y69.142 E6.08240
G1 X88.629 Y69.013 E6.12784
G1 X90.000 Y68.970 E6.17328
G1 X91.302 Y69.011 E6.21645
G1 X92.737 Y69.143 E6.26417
G1 X94.091 Y69.357 E6.30961
G1 X95.430 Y69.656 E6.35505
G1 X96.747 Y70.039 E6.40050
G1 X98.038 Y70.504 E6.44594
G1 X99.297 Y71.048 E6.49139
G1 X100.519 Y71.671 E6.53683
G1 X101.700 Y72.369 E6.58227
G1 X102.834 Y73.140 E6.62772
G1 X103.918 Y73.981 E6.67316
G1 X104.947 Y74.888 E6.71860
G1 X105.917 Y75.858 E6.76405
G1 X106.824 Y76.887 E6.80949
G1 X107.665 Y77.971 E6.85494
G1 X108.436 Y79.105 E6.90038
G1 X109.134 Y80.286 E6.94582
G1 X109.757 Y81.508 E6.99127
G1 X110.274 Y82.704 E7.03443
G1 X110.766 Y84.058 E7.08216
G1 X111.149 Y85.375 E7.12759
G1 X111.448 Y86.714 E7.17304
G1 X111.663 Y88.069 E7.21848
G1 X111.792 Y89.434 E7.26393
G1 X111.835 Y90.805 E7.30937
G1 X111.792 Y92.176 E7.35481
G1 X111.663 Y93.542 E7.40026
G1 X111.448 Y94.897 E7.44570
G1 X111.149 Y96.235 E7.49115
G1 X110.766 Y97.553 E7.53659
G1 X110.302 Y98.843 E7.58203
G1 X109.757 Y100.102 E7.62748
G1 X109.134 Y101.324 E7.67292
G1 X108.436 Y102.505 E7.71837
G1 X107.665 Y103.639 E7.76381
G1 X106.824 Y104.723 E7.80925
G1 X105.917 Y105.752 E7.85470
G1 X104.947 Y106.722 E7.90014
G1 X103.918 Y107.629 E7.94558
G1 X102.834 Y108.470 E7.99103
G1 X101.700 Y109.241 E8.03647
G1 X100.519 Y109.939 E8.08191
G1 X99.297 Y110.562 E8.12736
G1 X98.415 Y110.944 E8.15919
G1 X98.415 Y81.140 E9.14657
G1 X81.645 Y81.140 E9.70215
M201 X1250 Y1250
M204 P1250 T1250
G1 X81.423 Y80.939 F9000.000
M201 X800 Y800
M204 P800 T800
G1 F1200
G1 X68.532 Y93.830 E10.30731
G1 X68.584 Y94.155 E10.31823
G1 X81.423 Y81.315 E10.92098
G1 X81.423 Y81.692 E10.93348
G1 X68.635 Y94.480 E11.53381
G1 X68.686 Y94.804 E11.54473
G1 X81.423 Y82.068 E12.14265
G1 X81.423 Y82.445 E12.15515
G1 X68.748 Y95.120 E12.75020
G1 X68.816 Y95.427 E12.76067
G1 X81.423 Y82.821 E13.35249
G1 X81.423 Y83.197 E13.36499
G1 X68.885 Y95.735 E13.95358
G1 X68.954 Y96.043 E13.96405
G1 X81.423 Y83.574 E14.54942
G1 X81.423 Y83.950 E14.56191
G1 X69.027 Y96.346 E15.14386
G1 X69.111 Y96.638 E15.15395
G1 X81.423 Y84.327 E15.73192
G1 X81.423 Y84.703 E15.74441
G1 X69.196 Y96.930 E16.31841
G1 X69.281 Y97.221 E16.32849
G1 X81.423 Y85.079 E16.89851
G1 X81.423 Y85.456 E16.91100
G1 X69.366 Y97.513 E17.47704
G1 X69.462 Y97.793 E17.48687
G1 X81.423 Y85.832 E18.04838
G1 X81.423 Y86.209 E18.06087
G1 X69.562 Y98.070 E18.61770
G1 X69.661 Y98.346 E18.62747
G1 X81.423 Y86.585 E19.17962
G1 X81.423 Y86.961 E19.19211
G1 X69.761 Y98.623 E19.73959
G1 X69.863 Y98.897 E19.74930
G1 X81.423 Y87.338 E20.29198
G1 X81.423 Y87.714 E20.30447
G1 X69.977 Y99.160 E20.84181
G1 X70.091 Y99.423 E20.85131
G1 X81.423 Y88.091 E21.38331
G1 X81.423 Y88.467 E21.39581
G1 X70.204 Y99.685 E21.92247
G1 X70.318 Y99.948 E21.93198
G1 X81.423 Y88.843 E22.45330
G1 X81.423 Y89.220 E22.46580
G1 X70.438 Y100.205 E22.98150
G1 X70.565 Y100.454 E22.99079
G1 X81.423 Y89.596 E23.50054
G1 X81.423 Y89.973 E23.51303
G1 X70.692 Y100.703 E24.01681
G1 X70.819 Y100.953 E24.02610
G1 X81.423 Y90.349 E24.52391
G1 X81.423 Y90.725 E24.53641
G1 X70.946 Y101.202 E25.02825
G1 X71.081 Y101.444 E25.03744
G1 X81.423 Y91.102 E25.52295
G1 X81.423 Y91.478 E25.53545
G1 X71.221 Y101.680 E26.01440
G1 X71.361 Y101.917 E26.02352
G1 X81.423 Y91.855 E26.49590
G1 X81.423 Y92.231 E26.50840
G1 X71.500 Y102.153 E26.97421
G1 X71.640 Y102.390 E26.98333
G1 X81.423 Y92.607 E27.44258
G1 X81.423 Y92.984 E27.45508
G1 X71.789 Y102.618 E27.90737
G1 X71.941 Y102.842 E27.91636
G1 X81.423 Y93.360 E28.36150
G1 X81.423 Y93.737 E28.37399
G1 X72.093 Y103.066 E28.81198
G1 X72.245 Y103.290 E28.82098
G1 X81.423 Y94.113 E29.25181
G1 X81.423 Y94.489 E29.26431
G1 X72.398 Y103.514 E29.68800
G1 X72.558 Y103.730 E29.69693
G1 X81.423 Y94.866 E30.11308
G1 X81.423 Y95.242 E30.12558
G1 X72.723 Y103.942 E30.53401
G1 X72.887 Y104.154 E30.54292
G1 X81.423 Y95.619 E30.94363
G1 X81.423 Y95.995 E30.95613
G1 X73.052 Y104.366 E31.34912
G1 X73.216 Y104.578 E31.35803
G1 X81.423 Y96.371 E31.74330
G1 X81.423 Y96.748 E31.75580
G1 X73.388 Y104.783 E32.13300
G1 X73.564 Y104.983 E32.14186
G1 X81.423 Y97.124 E32.51078
G1 X81.423 Y97.501 E32.52328
G1 X73.741 Y105.183 E32.88393
G1 X73.917 Y105.383 E32.89278
G1 X81.423 Y97.877 E33.24515
G1 X81.423 Y98.253 E33.25764
G1 X74.093 Y105.583 E33.60173
G1 X74.276 Y105.776 E33.61057
G1 X81.423 Y98.630 E33.94607
G1 X81.423 Y99.006 E33.95857
G1 X74.464 Y105.964 E34.28524
G1 X74.653 Y106.153 E34.29407
G1 X81.423 Y99.383 E34.61191
G1 X81.423 Y99.759 E34.62440
G1 X74.841 Y106.341 E34.93340
G1 X75.029 Y106.529 E34.94224
G1 X81.423 Y100.135 E35.24240
G1 X81.423 Y100.512 E35.25489
G1 X75.223 Y106.712 E35.54597
G1 X75.423 Y106.888 E35.55482
G1 X81.423 Y100.888 E35.83651
G1 X81.423 Y101.265 E35.84900
G1 X75.623 Y107.065 E36.12130
G1 X75.823 Y107.241 E36.13015
G1 X81.423 Y101.641 E36.39305
G1 X81.423 Y102.017 E36.40555
G1 X76.023 Y107.417 E36.65906
G1 X76.227 Y107.589 E36.66793
G1 X81.423 Y102.394 E36.91184
G1 X81.423 Y102.770 E36.92434
G1 X76.439 Y107.754 E37.15830
G1 X76.651 Y107.918 E37.16720
G1 X81.423 Y103.146 E37.39121
G1 X81.423 Y103.523 E37.40371
G1 X76.863 Y108.083 E37.61777
G1 X77.075 Y108.247 E37.62667
G1 X81.423 Y103.899 E37.83078
G1 X81.423 Y104.276 E37.84328
G1 X77.291 Y108.407 E38.03725
G1 X77.515 Y108.560 E38.04624
G1 X81.423 Y104.652 E38.22970
G1 X81.423 Y105.028 E38.24219
G1 X77.739 Y108.712 E38.41512
G1 X77.963 Y108.864 E38.42412
G1 X81.423 Y105.405 E38.58653
G1 X81.423 Y105.781 E38.59902
G1 X78.187 Y109.017 E38.75091
G1 X78.415 Y109.165 E38.75994
G1 X81.423 Y106.158 E38.90112
G1 X81.423 Y106.534 E38.91362
G1 X78.652 Y109.305 E39.04369
G1 X78.888 Y109.445 E39.05282
G1 X81.423 Y106.910 E39.17179
G1 X81.423 Y107.287 E39.18428
G1 X79.125 Y109.585 E39.29215
G1 X79.362 Y109.724 E39.30128
G1 X81.423 Y107.663 E39.39804
G1 X81.423 Y108.040 E39.41054
G1 X79.603 Y109.859 E39.49596
G1 X79.852 Y109.986 E39.50525
G1 X81.423 Y108.416 E39.57897
G1 X81.423 Y108.792 E39.59147
G1 X80.102 Y110.113 E39.65348
G1 X80.351 Y110.240 E39.66277
G1 X81.423 Y109.169 E39.71308
G1 X81.423 Y109.545 E39.72558
G1 X80.600 Y110.368 E39.76418
G1 X80.857 Y110.487 E39.77358
G1 X81.423 Y109.922 E39.80014
G1 X81.423 Y110.298 E39.81263
G1 X81.120 Y110.601 E39.82685
M201 X1250 Y1250
M204 P1250 T1250
G1 F7200
G1 X81.423 Y110.298 E39.58947
G1 F7200
G1 X81.423 Y109.922 E39.38088
G1 F7200
G1 X80.857 Y110.487 E38.93761
G1 F7200
G1 X80.600 Y110.368 E38.78066
G1 F7200
G1 X81.423 Y109.545 E38.13622
G1 F7200
G1 X81.423 Y109.169 E37.92763
G1 F7200
G1 X80.351 Y110.240 E37.08779
G1 F7200
G1 X80.102 Y110.113 E36.93270
G1 F7200
G1 X80.288 Y109.927 E36.78685
G1 E36.62685 F4200.00000
G92 E0
G1 Z0.500 F9000.000
G1 X104.661 Y106.633 F9000.000
G1 Z0.300 F9000.000
G1 E3.20000 F4200.00000
M201 X800 Y800
M204 P800 T800
G1 F1200
G1 X105.828 Y105.466 E3.25479
G1 X106.723 Y104.451 E3.29972
G1 X107.587 Y103.330 E3.34671
G1 X102.524 Y108.393 E3.58440
G1 X101.372 Y109.168 E3.63051
G1 X108.363 Y102.177 E3.95870
G1 X108.908 Y101.256 E3.99423
G1 X100.451 Y109.713 E4.39124
G1 X99.656 Y110.131 E4.42105
G1 X109.326 Y100.462 E4.87501
G1 X109.691 Y99.720 E4.90245
G1 X98.915 Y110.497 E5.40836
G1 X98.577 Y110.643 E5.42057
G1 X98.577 Y110.458 E5.42671
G1 X109.978 Y99.057 E5.96195
G1 X110.237 Y98.421 E5.98472
G1 X98.577 Y110.081 E6.53212
G1 X98.577 Y109.705 E6.54461
G1 X110.449 Y97.833 E7.10194
G1 X110.649 Y97.257 E7.12219
G1 X98.577 Y109.329 E7.68890
G1 X98.577 Y108.952 E7.70139
G1 X110.803 Y96.727 E8.27534
G1 X110.957 Y96.196 E8.29368
G1 X98.577 Y108.576 E8.87486
G1 X98.577 Y108.199 E8.88736
G1 X111.077 Y95.700 E9.47415
G1 X111.185 Y95.215 E9.49064
G1 X98.577 Y107.823 E10.08253
G1 X98.577 Y107.447 E10.09502
G1 X111.292 Y94.732 E10.69195
G1 X111.363 Y94.284 E10.70698
G1 X98.577 Y107.070 E11.30723
G1 X98.577 Y106.694 E11.31972
G1 X111.434 Y93.837 E11.92330
G1 X111.504 Y93.391 E11.93829
G1 X98.577 Y106.317 E12.54514
G1 X98.577 Y105.941 E12.55763
G1 X111.543 Y92.975 E13.16632
G1 X111.582 Y92.559 E13.18019
G1 X98.577 Y105.565 E13.79073
G1 X98.577 Y105.188 E13.80322
G1 X111.622 Y92.144 E14.41560
G1 X111.640 Y91.749 E14.42871
G1 X98.577 Y104.812 E15.04193
G1 X98.577 Y104.435 E15.05443
G1 X111.652 Y91.361 E15.66823
G1 X111.664 Y90.972 E15.68113
G1 X98.577 Y104.059 E16.29551
G1 X98.577 Y103.683 E16.30800
G1 X111.669 Y90.591 E16.92261
G1 X111.658 Y90.226 E16.93473
G1 X98.577 Y103.306 E17.54880
G1 X98.577 Y102.930 E17.56129
G1 X111.646 Y89.861 E18.17482
G1 X111.635 Y89.496 E18.18694
G1 X98.577 Y102.553 E18.79994
G1 X98.577 Y102.177 E18.81243
G1 X111.611 Y89.144 E19.42430
G1 X111.578 Y88.800 E19.43577
G1 X98.577 Y101.801 E20.04611
G1 X98.577 Y101.424 E20.05860
G1 X111.546 Y88.456 E20.66742
G1 X111.513 Y88.112 E20.67889
G1 X98.577 Y101.048 E21.28617
G1 X98.577 Y100.671 E21.29867
G1 X111.468 Y87.781 E21.90384
G1 X111.416 Y87.456 E21.91476
G1 X98.577 Y100.295 E22.51751
G1 X98.577 Y99.919 E22.53000
G1 X111.365 Y87.131 E23.13034
G1 X111.314 Y86.806 E23.14126
G1 X98.577 Y99.542 E23.73917
G1 X98.577 Y99.166 E23.75167
G1 X111.252 Y86.491 E24.34672
G1 X111.184 Y86.183 E24.35719
G1 X98.577 Y98.789 E24.94901
G1 X98.577 Y98.413 E24.96151
G1 X111.115 Y85.875 E25.55011
G1 X111.046 Y85.568 E25.56057
G1 X98.577 Y98.037 E26.14594
G1 X98.577 Y97.660 E26.15843
G1 X110.973 Y85.264 E26.74039
G1 X110.889 Y84.972 E26.75047
G1 X98.577 Y97.284 E27.32844
G1 X98.577 Y96.907 E27.34094
G1 X110.804 Y84.681 E27.91493
G1 X110.719 Y84.389 E27.92501
G1 X98.577 Y96.531 E28.49503
G1 X98.577 Y96.155 E28.50753
G1 X110.634 Y84.097 E29.07357
G1 X110.537 Y83.818 E29.08338
G1 X98.577 Y95.778 E29.64486
G1 X98.577 Y95.402 E29.65736
G1 X110.437 Y83.542 E30.21413
G1 X110.337 Y83.266 E30.22388
G1 X98.577 Y95.025 E30.77594
G1 X98.577 Y94.649 E30.78843
G1 X110.236 Y82.990 E31.33579
G1 X110.136 Y82.714 E31.34554
G1 X98.577 Y94.273 E31.88818
G1 X98.577 Y93.896 E31.90067
G1 X110.023 Y82.450 E32.43801
G1 X109.909 Y82.188 E32.44752
G1 X98.577 Y93.520 E32.97952
G1 X98.577 Y93.143 E32.99201
G1 X109.796 Y81.925 E33.51868
G1 X109.682 Y81.662 E33.52818
G1 X98.577 Y92.767 E34.04951
G1 X98.577 Y92.391 E34.06200
G1 X109.562 Y81.406 E34.57771
G1 X109.435 Y81.156 E34.58700
G1 X98.577 Y92.014 E35.09674
G1 X98.577 Y91.638 E35.10924
G1 X109.308 Y80.907 E35.61301
G1 X109.181 Y80.658 E35.62230
G1 X98.577 Y91.261 E36.12012
G1 X98.577 Y90.885 E36.13261
G1 X109.054 Y80.408 E36.62446
G1 X108.919 Y80.167 E36.63364
G1 X98.577 Y90.509 E37.11916
G1 X98.577 Y90.132 E37.13166
G1 X108.779 Y79.930 E37.61061
G1 X108.639 Y79.694 E37.61973
G1 X98.577 Y89.756 E38.09211
G1 X98.577 Y89.379 E38.10461
G1 X108.500 Y79.457 E38.57042
G1 X108.360 Y79.221 E38.57954
G1 X98.577 Y89.003 E39.03879
G1 X98.577 Y88.627 E39.05129
G1 X108.211 Y78.993 E39.50358
G1 X108.059 Y78.768 E39.51257
G1 X98.577 Y88.250 E39.95771
G1 X98.577 Y87.874 E39.97021
G1 X107.907 Y78.544 E40.40820
G1 X107.755 Y78.320 E40.41719
G1 X98.577 Y87.497 E40.84803
G1 X98.577 Y87.121 E40.86052
G1 X107.602 Y78.096 E41.28422
G1 X107.442 Y77.880 E41.29315
G1 X98.577 Y86.745 E41.70930
G1 X98.577 Y86.368 E41.72179
G1 X107.277 Y77.668 E42.13023
G1 X107.113 Y77.456 E42.13914
G1 X98.577 Y85.992 E42.53985
G1 X98.577 Y85.616 E42.55235
G1 X106.948 Y77.244 E42.94534
G1 X106.784 Y77.032 E42.95425
G1 X98.577 Y85.239 E43.33952
G1 X98.577 Y84.863 E43.35202
G1 X106.612 Y76.828 E43.72923
G1 X106.436 Y76.628 E43.73808
G1 X98.577 Y84.486 E44.10701
G1 X98.577 Y84.110 E44.11950
G1 X106.259 Y76.428 E44.48015
G1 X106.083 Y76.228 E44.48900
G1 X98.577 Y83.734 E44.84137
G1 X98.577 Y83.357 E44.85386
G1 X105.907 Y76.028 E45.19795
G1 X105.827 Y75.937 E45.20198
G1 X105.724 Y75.834 E45.20680
G1 X98.577 Y82.981 E45.54230
G1 X98.577 Y82.604 E45.55480
G1 X105.536 Y75.646 E45.88147
G1 X105.347 Y75.458 E45.89030
G1 X98.577 Y82.228 E46.20814
G1 X98.577 Y81.852 E46.22063
G1 X105.159 Y75.270 E46.52963
G1 X104.971 Y75.081 E46.53847
G1 X98.577 Y81.475 E46.83863
G1 X98.577 Y81.099 E46.85113
G1 X104.778 Y74.899 E47.14221
G1 X104.577 Y74.722 E47.15106
G1 X98.322 Y80.978 E47.44474
G1 X97.945 Y80.978 E47.45724
G1 X104.377 Y74.546 E47.75920
G1 X104.177 Y74.369 E47.76805
G1 X97.569 Y80.978 E48.07830
G1 X97.193 Y80.978 E48.09079
G1 X103.977 Y74.193 E48.40932
G1 X103.773 Y74.021 E48.41818
G1 X96.816 Y80.978 E48.74478
G1 X96.440 Y80.978 E48.75727
G1 X103.561 Y73.857 E49.09158
G1 X103.349 Y73.692 E49.10049
G1 X96.063 Y80.978 E49.44252
G1 X95.687 Y80.978 E49.45502
G1 X103.137 Y73.528 E49.80477
G1 X102.925 Y73.363 E49.81367
G1 X95.311 Y80.978 E50.17114
G1 X94.934 Y80.978 E50.18364
G1 X102.709 Y73.203 E50.54865
G1 X102.485 Y73.051 E50.55764
G1 X94.558 Y80.978 E50.92980
G1 X94.181 Y80.978 E50.94229
G1 X102.261 Y72.898 E51.32160
G1 X102.037 Y72.746 E51.33059
G1 X93.805 Y80.978 E51.71705
G1 X93.429 Y80.978 E51.72954
G1 X101.813 Y72.594 E52.12315
G1 X101.585 Y72.445 E52.13218
G1 X93.052 Y80.978 E52.53274
G1 X92.676 Y80.978 E52.54524
G1 X101.348 Y72.306 E52.95237
G1 X101.112 Y72.166 E52.96149
G1 X92.299 Y80.978 E53.37519
G1 X91.923 Y80.978 E53.38769
G1 X100.875 Y72.026 E53.80795
G1 X100.639 Y71.886 E53.81708
G1 X91.547 Y80.978 E54.24391
G1 X91.170 Y80.978 E54.25640
G1 X100.397 Y71.751 E54.68957
G1 X100.148 Y71.624 E54.69886
G1 X90.794 Y80.978 E55.13799
G1 X90.417 Y80.978 E55.15048
G1 X99.898 Y71.497 E55.59558
G1 X99.649 Y71.370 E55.60487
G1 X90.041 Y80.978 E56.05593
G1 X89.665 Y80.978 E56.06842
G1 X99.400 Y71.243 E56.52544
G1 X99.143 Y71.123 E56.53485
G1 X89.288 Y80.978 E56.99749
G1 X88.912 Y80.978 E57.00998
G1 X98.880 Y71.009 E57.47797
G1 X98.618 Y70.896 E57.48747
G1 X88.535 Y80.978 E57.96079
G1 X88.159 Y80.978 E57.97328
G1 X98.355 Y70.782 E58.45194
G1 X98.092 Y70.668 E58.46144
G1 X87.783 Y80.978 E58.94543
G1 X87.406 Y80.978 E58.95793
G1 X97.818 Y70.566 E59.44672
G1 X97.541 Y70.467 E59.45649
G1 X87.030 Y80.978 E59.94995
G1 X86.653 Y80.978 E59.96245
G1 X97.264 Y70.367 E60.46060
G1 X96.988 Y70.267 E60.47036
G1 X86.277 Y80.978 E60.97319
G1 X85.901 Y80.978 E60.98568
G1 X96.708 Y70.171 E61.49304
G1 X96.416 Y70.086 E61.50312
G1 X85.524 Y80.978 E62.01445
G1 X85.148 Y80.978 E62.02695
G1 X96.124 Y70.001 E62.54226
G1 X95.833 Y69.917 E62.55234
