; generated by Slic3r 1.3.1-dev (Build 2d100c4) on 2020-06-05 at 21:57:09

; external perimeters extrusion width = 0.44mm (2.86mm^3/s)
; perimeters extrusion width = 0.56mm (4.14mm^3/s)
; infill extrusion width = 0.50mm (3.66mm^3/s)
; solid infill extrusion width = 0.56mm (3.10mm^3/s)
; top infill extrusion width = 0.56mm (3.10mm^3/s)

M107
G92 E0
;D3D:START:START
T0
M104 S215 T0

G21
G90
M107
T0
G28
G29
M109 T0 S215 T0
G0 F3000
M107
T0
G92 E0
G0 X0 Y149 Z0.1 F3600
G1 Y49 E6.5 F1200
G0 Z1
G92 E0
; Filament gcode

G21 ; set units to millimeters
G90 ; use absolute coordinates
M82 ; use absolute distances for extrusion
G92 E0
G1 Z0.300 F7800.000
G1 E-2.00000 F2400.00000
G92 E0
G1 X67.335 Y54.422 F7800.000
G1 E2.00000 F2400.00000
G1 F1800.000
G1 X82.665 Y54.422 E2.50788
G1 X82.665 Y105.914 E4.21377
G1 X67.335 Y105.914 E4.72165
G1 X67.335 Y54.482 E6.42556
G1 X67.840 Y53.891 F7800.000
G1 F1800.000
G1 X68.561 Y52.352 E6.48188
G1 X69.388 Y50.666 E6.54406
G1 X70.581 Y48.315 E6.63142
G1 X71.696 Y46.204 E6.71052
G1 X72.708 Y44.351 E6.78047
G1 X73.864 Y42.308 E6.85822
G1 X74.995 Y40.391 E6.93196
G1 X75.245 Y40.789 E6.94754
G1 X76.402 Y42.771 E7.02358
G1 X77.616 Y44.937 E7.10584
G1 X79.419 Y48.317 E7.23274
G1 X80.612 Y50.666 E7.32005
G1 X81.440 Y52.353 E7.38228
G1 X82.160 Y53.891 E7.43855
G1 X67.900 Y53.891 E7.91098
G1 X67.422 Y54.157 F7800.000
G1 F1800.000
G1 X68.321 Y52.237 E7.98122
G1 X69.150 Y50.548 E8.04355
G1 X70.345 Y48.193 E8.13104
G1 X71.462 Y46.078 E8.21026
G1 X72.476 Y44.222 E8.28035
G1 X73.634 Y42.175 E8.35824
G1 X74.707 Y40.357 E8.42820
G1 X75.001 Y39.901 E8.44616
G1 X75.472 Y40.652 E8.47551
G1 X76.633 Y42.639 E8.55176
G1 X77.849 Y44.810 E8.63419
G1 X79.655 Y48.194 E8.76127
G1 X80.850 Y50.548 E8.84873
G1 X81.679 Y52.238 E8.91110
G1 X82.578 Y54.157 E8.98129
G1 X67.482 Y54.157 E9.48140
G1 E7.48140 F2400.00000
G92 E0
G1 X87.483 Y88.490 F7800.000
G1 E2.00000 F2400.00000
G1 F1800.000
G1 X87.754 Y88.363 E2.00992
G1 X88.039 Y88.270 E2.01985
G1 X88.445 Y88.206 E2.03345
G1 X88.744 Y88.206 E2.04338
G1 X89.041 Y88.244 E2.05330
G1 X89.446 Y88.361 E2.06727
G1 X89.832 Y88.558 E2.08161
G1 X90.174 Y88.823 E2.09595
G1 X90.460 Y89.148 E2.11029
G1 X90.680 Y89.520 E2.12462
G1 X90.827 Y89.927 E2.13896
G1 X90.895 Y90.355 E2.15330
G1 X90.881 Y90.787 E2.16763
G1 X90.787 Y91.210 E2.18197
G1 X90.615 Y91.607 E2.19631
G1 X90.372 Y91.965 E2.21065
G1 X90.066 Y92.271 E2.22498
G1 X89.717 Y92.508 E2.23896
G1 X89.446 Y92.635 E2.24888
G1 X89.161 Y92.728 E2.25880
G1 X88.755 Y92.792 E2.27241
G1 X88.456 Y92.792 E2.28234
G1 X88.159 Y92.755 E2.29226
G1 X87.754 Y92.637 E2.30623
G1 X87.368 Y92.441 E2.32057
G1 X87.026 Y92.175 E2.33491
G1 X86.740 Y91.851 E2.34924
G1 X86.520 Y91.478 E2.36358
G1 X86.373 Y91.071 E2.37792
G1 X86.305 Y90.644 E2.39225
G1 X86.319 Y90.211 E2.40659
G1 X86.413 Y89.789 E2.42093
G1 X86.585 Y89.391 E2.43527
G1 X86.828 Y89.033 E2.44961
G1 X87.134 Y88.727 E2.46394
G1 X87.434 Y88.524 E2.47593
G1 X87.615 Y88.722 F7800.000
G1 F1800.000
G1 X87.852 Y88.610 E2.48461
G1 X88.101 Y88.529 E2.49328
G1 X88.466 Y88.472 E2.50550
G1 X88.728 Y88.472 E2.51418
G1 X88.987 Y88.505 E2.52286
G1 X89.348 Y88.609 E2.53531
G1 X89.689 Y88.783 E2.54798
G1 X89.991 Y89.017 E2.56066
G1 X90.244 Y89.304 E2.57333
G1 X90.439 Y89.634 E2.58600
G1 X90.569 Y89.994 E2.59868
G1 X90.628 Y90.371 E2.61135
G1 X90.617 Y90.754 E2.62402
G1 X90.533 Y91.127 E2.63670
G1 X90.381 Y91.478 E2.64937
G1 X90.166 Y91.795 E2.66205
G1 X89.896 Y92.065 E2.67472
G1 X89.585 Y92.276 E2.68717
G1 X89.348 Y92.388 E2.69585
G1 X89.099 Y92.469 E2.70452
G1 X88.734 Y92.527 E2.71674
G1 X88.472 Y92.527 E2.72542
G1 X88.213 Y92.494 E2.73410
G1 X87.852 Y92.389 E2.74655
G1 X87.511 Y92.215 E2.75922
G1 X87.209 Y91.981 E2.77190
G1 X86.956 Y91.694 E2.78457
G1 X86.761 Y91.365 E2.79724
G1 X86.631 Y91.005 E2.80992
G1 X86.572 Y90.627 E2.82259
G1 X86.583 Y90.244 E2.83526
G1 X86.667 Y89.871 E2.84794
G1 X86.819 Y89.520 E2.86061
G1 X87.034 Y89.204 E2.87329
G1 X87.304 Y88.933 E2.88596
G1 X87.566 Y88.756 E2.89642
G1 X87.747 Y88.953 F7800.000
G1 F1800.000
G1 X87.950 Y88.858 E2.90385
G1 X88.163 Y88.788 E2.91128
G1 X88.487 Y88.737 E2.92212
G1 X88.711 Y88.737 E2.92955
G1 X88.933 Y88.765 E2.93698
G1 X89.250 Y88.857 E2.94791
G1 X89.546 Y89.008 E2.95891
G1 X89.809 Y89.212 E2.96993
G1 X90.028 Y89.461 E2.98094
G1 X90.198 Y89.747 E2.99195
G1 X90.310 Y90.060 E3.00296
G1 X90.362 Y90.388 E3.01397
G1 X90.352 Y90.720 E3.02498
G1 X90.279 Y91.045 E3.03599
G1 X90.147 Y91.350 E3.04700
G1 X89.961 Y91.625 E3.05801
G1 X89.726 Y91.860 E3.06902
G1 X89.453 Y92.045 E3.07994
G1 X89.250 Y92.141 E3.08737
G1 X89.037 Y92.210 E3.09480
G1 X88.713 Y92.261 E3.10564
G1 X88.489 Y92.261 E3.11307
G1 X88.267 Y92.233 E3.12050
G1 X87.950 Y92.141 E3.13143
G1 X87.654 Y91.990 E3.14244
G1 X87.391 Y91.786 E3.15345
G1 X87.172 Y91.537 E3.16446
G1 X87.002 Y91.251 E3.17547
G1 X86.890 Y90.938 E3.18648
G1 X86.838 Y90.610 E3.19749
G1 X86.848 Y90.278 E3.20850
G1 X86.921 Y89.954 E3.21951
G1 X87.053 Y89.648 E3.23052
G1 X87.239 Y89.374 E3.24153
G1 X87.474 Y89.139 E3.25254
G1 X87.698 Y88.987 E3.26148
G1 E1.26148 F2400.00000
G92 E0
G1 X63.695 Y90.355 F7800.000
G1 E2.00000 F2400.00000
G1 F1800.000
G1 X63.681 Y90.787 E2.01434
G1 X63.587 Y91.210 E2.02868
G1 X63.415 Y91.607 E2.04302
G1 X63.172 Y91.965 E2.05735
G1 X62.866 Y92.271 E2.07169
G1 X62.517 Y92.508 E2.08566
G1 X62.246 Y92.635 E2.09559
G1 X61.961 Y92.728 E2.10551
G1 X61.555 Y92.792 E2.11911
G1 X61.256 Y92.792 E2.12904
G1 X60.959 Y92.755 E2.13896
G1 X60.554 Y92.637 E2.15294
G1 X60.168 Y92.441 E2.16727
G1 X59.826 Y92.175 E2.18161
G1 X59.540 Y91.851 E2.19595
G1 X59.320 Y91.478 E2.21029
G1 X59.173 Y91.071 E2.22462
G1 X59.105 Y90.644 E2.23896
G1 X59.119 Y90.211 E2.25330
G1 X59.213 Y89.789 E2.26764
G1 X59.385 Y89.391 E2.28197
G1 X59.628 Y89.033 E2.29631
G1 X59.934 Y88.727 E2.31065
G1 X60.283 Y88.490 E2.32462
G1 X60.554 Y88.363 E2.33454
G1 X60.839 Y88.270 E2.34447
G1 X61.245 Y88.206 E2.35807
G1 X61.544 Y88.206 E2.36800
G1 X61.841 Y88.244 E2.37792
G1 X62.246 Y88.361 E2.39189
G1 X62.632 Y88.558 E2.40623
G1 X62.974 Y88.823 E2.42057
G1 X63.260 Y89.148 E2.43491
G1 X63.480 Y89.520 E2.44924
G1 X63.627 Y89.927 E2.46358
G1 X63.685 Y90.295 E2.47593
G1 X63.428 Y90.371 F7800.000
G1 F1800.000
G1 X63.417 Y90.754 E2.48860
G1 X63.333 Y91.127 E2.50128
G1 X63.181 Y91.478 E2.51395
G1 X62.966 Y91.795 E2.52663
G1 X62.696 Y92.065 E2.53930
G1 X62.385 Y92.276 E2.55175
G1 X62.148 Y92.388 E2.56043
G1 X61.899 Y92.469 E2.56910
G1 X61.534 Y92.527 E2.58132
G1 X61.272 Y92.527 E2.59000
G1 X61.013 Y92.494 E2.59868
G1 X60.652 Y92.389 E2.61113
G1 X60.311 Y92.215 E2.62380
G1 X60.009 Y91.981 E2.63648
G1 X59.756 Y91.694 E2.64915
G1 X59.561 Y91.365 E2.66182
G1 X59.431 Y91.005 E2.67450
G1 X59.372 Y90.627 E2.68717
G1 X59.383 Y90.244 E2.69984
G1 X59.467 Y89.871 E2.71252
G1 X59.619 Y89.520 E2.72519
G1 X59.834 Y89.204 E2.73787
G1 X60.104 Y88.933 E2.75054
G1 X60.415 Y88.722 E2.76299
G1 X60.652 Y88.610 E2.77167
G1 X60.901 Y88.529 E2.78034
G1 X61.266 Y88.472 E2.79256
G1 X61.528 Y88.472 E2.80124
G1 X61.787 Y88.505 E2.80992
G1 X62.148 Y88.609 E2.82237
G1 X62.489 Y88.783 E2.83504
G1 X62.791 Y89.017 E2.84772
G1 X63.044 Y89.304 E2.86039
G1 X63.239 Y89.634 E2.87306
G1 X63.369 Y89.994 E2.88574
G1 X63.419 Y90.312 E2.89642
G1 X63.162 Y90.388 F7800.000
G1 F1800.000
G1 X63.152 Y90.720 E2.90743
G1 X63.079 Y91.045 E2.91844
G1 X62.947 Y91.350 E2.92945
G1 X62.760 Y91.625 E2.94046
G1 X62.526 Y91.860 E2.95147
G1 X62.253 Y92.045 E2.96240
G1 X62.050 Y92.141 E2.96983
G1 X61.837 Y92.210 E2.97726
G1 X61.513 Y92.261 E2.98809
G1 X61.289 Y92.261 E2.99553
G1 X61.067 Y92.233 E3.00296
G1 X60.750 Y92.141 E3.01388
G1 X60.454 Y91.990 E3.02489
G1 X60.191 Y91.786 E3.03590
G1 X59.972 Y91.537 E3.04691
G1 X59.802 Y91.251 E3.05792
G1 X59.690 Y90.938 E3.06893
G1 X59.638 Y90.610 E3.07994
G1 X59.648 Y90.278 E3.09095
G1 X59.721 Y89.954 E3.10196
G1 X59.853 Y89.648 E3.11297
G1 X60.039 Y89.374 E3.12398
G1 X60.274 Y89.139 E3.13499
G1 X60.547 Y88.953 E3.14592
G1 X60.750 Y88.858 E3.15335
G1 X60.963 Y88.788 E3.16078
G1 X61.287 Y88.737 E3.17162
G1 X61.511 Y88.737 E3.17905
G1 X61.733 Y88.765 E3.18648
G1 X62.050 Y88.857 E3.19740
G1 X62.346 Y89.008 E3.20841
G1 X62.609 Y89.212 E3.21942
G1 X62.828 Y89.461 E3.23043
G1 X62.998 Y89.747 E3.24144
G1 X63.110 Y90.060 E3.25245
G1 X63.153 Y90.329 E3.26148
G1 E1.26148 F2400.00000
G92 E0
G1 X66.804 Y106.445 F7800.000
G1 E2.00000 F2400.00000
G1 F1800.000
G1 X83.196 Y106.445 E2.54307
G1 X83.196 Y56.424 E4.20026
G1 X83.323 Y56.397 E4.20454
G1 X84.440 Y58.931 E4.29627
G1 X85.296 Y60.967 E4.36943
G1 X86.138 Y63.058 E4.44412
G1 X87.360 Y66.284 E4.55841
G1 X88.508 Y69.588 E4.67428
G1 X89.219 Y71.817 E4.75180
G1 X89.553 Y72.932 E4.79038
G1 X90.182 Y75.180 E4.86770
G1 X90.470 Y76.297 E4.90590
G1 X90.996 Y78.535 E4.98209
G1 X91.444 Y80.759 E5.05725
G1 X91.635 Y81.854 E5.09407
G1 X91.950 Y84.037 E5.16714
G1 X92.169 Y86.182 E5.23858
G1 X92.239 Y87.232 E5.27343
G1 X92.284 Y88.272 E5.30793
G1 X92.301 Y89.300 E5.34198
G1 X92.291 Y90.310 E5.37545
G1 X92.253 Y91.307 E5.40850
G1 X92.186 Y92.284 E5.44094
G1 X92.090 Y93.246 E5.47296
G1 X91.966 Y94.187 E5.50442
G1 X91.812 Y95.108 E5.53533
G1 X91.629 Y96.010 E5.56583
G1 X91.418 Y96.888 E5.59576
G1 X91.176 Y97.746 E5.62529
G1 X90.907 Y98.579 E5.65429
G1 X90.609 Y99.389 E5.68288
G1 X90.283 Y100.175 E5.71106
G1 X89.929 Y100.936 E5.73888
G1 X89.549 Y101.669 E5.76624
G1 X89.141 Y102.378 E5.79333
G1 X88.708 Y103.059 E5.82006
G1 X88.249 Y103.712 E5.84650
G1 X87.766 Y104.337 E5.87266
G1 X87.260 Y104.933 E5.89858
G1 X86.731 Y105.499 E5.92423
G1 X86.180 Y106.036 E5.94974
G1 X85.607 Y106.543 E5.97508
G1 X85.013 Y107.021 E6.00033
G1 X84.400 Y107.466 E6.02543
G1 X83.770 Y107.880 E6.05040
G1 X83.121 Y108.263 E6.07536
G1 X82.454 Y108.614 E6.10035
G1 X81.773 Y108.932 E6.12525
G1 X81.074 Y109.218 E6.15027
G1 X80.361 Y109.471 E6.17532
G1 X79.635 Y109.690 E6.20047
G1 X78.893 Y109.877 E6.22580
G1 X78.138 Y110.030 E6.25132
G1 X77.370 Y110.149 E6.27706
G1 X76.589 Y110.234 E6.30312
G1 X75.791 Y110.286 E6.32961
G1 X75.005 Y110.300 E6.35564
G1 X74.209 Y110.285 E6.38200
G1 X73.411 Y110.234 E6.40849
G1 X72.630 Y110.149 E6.43455
G1 X71.862 Y110.030 E6.46029
G1 X71.107 Y109.877 E6.48581
G1 X70.365 Y109.690 E6.51114
G1 X69.638 Y109.470 E6.53631
G1 X68.924 Y109.217 E6.56140
G1 X68.227 Y108.932 E6.58635
G1 X67.544 Y108.613 E6.61134
G1 X66.878 Y108.262 E6.63628
G1 X66.230 Y107.880 E6.66121
G1 X65.598 Y107.466 E6.68622
G1 X64.985 Y107.019 E6.71136
G1 X64.392 Y106.542 E6.73657
G1 X63.819 Y106.035 E6.76191
G1 X63.269 Y105.499 E6.78738
G1 X62.739 Y104.932 E6.81308
G1 X62.233 Y104.336 E6.83899
G1 X61.750 Y103.711 E6.86515
G1 X61.292 Y103.058 E6.89158
G1 X60.858 Y102.376 E6.91835
G1 X60.451 Y101.669 E6.94537
G1 X60.070 Y100.934 E6.97281
G1 X59.716 Y100.173 E7.00059
G1 X59.390 Y99.388 E7.02877
G1 X59.093 Y98.579 E7.05732
G1 X58.823 Y97.744 E7.08640
G1 X58.582 Y96.888 E7.11585
G1 X58.370 Y96.007 E7.14586
G1 X58.188 Y95.108 E7.17627
G1 X58.034 Y94.186 E7.20723
G1 X57.909 Y93.243 E7.23873
G1 X57.814 Y92.284 E7.27067
G1 X57.747 Y91.304 E7.30320
G1 X57.709 Y90.310 E7.33616
G1 X57.699 Y89.297 E7.36971
G1 X57.716 Y88.271 E7.40373
G1 X57.761 Y87.232 E7.43818
G1 X57.831 Y86.182 E7.47303
G1 X58.050 Y84.037 E7.54447
G1 X58.365 Y81.854 E7.61753
G1 X58.556 Y80.758 E7.65441
G1 X59.004 Y78.535 E7.72952
G1 X59.530 Y76.297 E7.80571
G1 X59.818 Y75.178 E7.84397
G1 X60.447 Y72.931 E7.92128
G1 X60.782 Y71.815 E7.95987
G1 X61.492 Y69.588 E8.03733
G1 X62.641 Y66.282 E8.15326
G1 X63.863 Y63.056 E8.26755
G1 X64.704 Y60.967 E8.34217
G1 X65.560 Y58.931 E8.41533
G1 X66.677 Y56.397 E8.50707
G1 X66.804 Y56.424 E8.51135
G1 X66.804 Y106.385 E10.16655
G1 X67.069 Y106.180 F7800.000
G1 F1800.000
G1 X82.931 Y106.180 E10.69202
G1 X82.931 Y55.205 E12.38080
G1 X83.055 Y55.177 E12.38504
G1 X83.388 Y55.888 E12.41104
G1 X84.684 Y58.826 E12.51743
G1 X85.541 Y60.866 E12.59073
G1 X86.385 Y62.961 E12.66558
G1 X87.609 Y66.193 E12.78008
G1 X88.760 Y69.504 E12.89618
G1 X89.473 Y71.739 E12.97389
G1 X89.808 Y72.859 E13.01263
G1 X90.439 Y75.111 E13.09012
G1 X90.728 Y76.233 E13.12851
G1 X91.256 Y78.479 E13.20494
G1 X91.705 Y80.710 E13.28035
G1 X91.897 Y81.813 E13.31742
G1 X92.214 Y84.005 E13.39079
G1 X92.434 Y86.160 E13.46257
G1 X92.505 Y87.217 E13.49768
G1 X92.549 Y88.264 E13.53240
G1 X92.567 Y89.299 E13.56669
G1 X92.557 Y90.317 E13.60040
G1 X92.518 Y91.321 E13.63370
G1 X92.451 Y92.306 E13.66641
G1 X92.354 Y93.276 E13.69871
G1 X92.228 Y94.227 E13.73046
G1 X92.073 Y95.156 E13.76168
G1 X91.889 Y96.067 E13.79249
G1 X91.675 Y96.955 E13.82274
G1 X91.431 Y97.823 E13.85261
G1 X91.158 Y98.666 E13.88195
G1 X90.857 Y99.486 E13.91090
G1 X90.526 Y100.282 E13.93944
G1 X90.167 Y101.053 E13.96763
G1 X89.782 Y101.797 E13.99538
G1 X89.368 Y102.516 E14.02286
G1 X88.929 Y103.206 E14.04999
G1 X88.463 Y103.869 E14.07682
G1 X87.973 Y104.504 E14.10339
G1 X87.458 Y105.109 E14.12972
G1 X86.921 Y105.685 E14.15578
G1 X86.361 Y106.231 E14.18171
G1 X85.779 Y106.746 E14.20747
G1 X85.174 Y107.232 E14.23315
G1 X84.552 Y107.685 E14.25867
G1 X83.911 Y108.105 E14.28406
G1 X83.251 Y108.495 E14.30945
G1 X82.572 Y108.852 E14.33485
G1 X81.879 Y109.175 E14.36018
G1 X81.169 Y109.466 E14.38562
G1 X80.444 Y109.723 E14.41109
G1 X79.706 Y109.946 E14.43665
G1 X78.952 Y110.136 E14.46240
G1 X78.185 Y110.291 E14.48832
G1 X77.405 Y110.412 E14.51447
G1 X76.612 Y110.499 E14.54091
G1 X75.801 Y110.551 E14.56781
G1 X75.005 Y110.565 E14.59420
G1 X74.198 Y110.551 E14.62092
G1 X73.388 Y110.499 E14.64781
G1 X72.595 Y110.412 E14.67426
G1 X71.815 Y110.291 E14.70041
G1 X71.048 Y110.136 E14.72633
G1 X70.294 Y109.946 E14.75208
G1 X69.555 Y109.723 E14.77766
G1 X68.830 Y109.465 E14.80317
G1 X68.121 Y109.175 E14.82855
G1 X67.426 Y108.851 E14.85395
G1 X66.748 Y108.494 E14.87932
G1 X66.089 Y108.105 E14.90467
G1 X65.447 Y107.684 E14.93011
G1 X64.823 Y107.230 E14.95567
G1 X64.221 Y106.745 E14.98130
G1 X63.638 Y106.230 E15.00706
G1 X63.079 Y105.685 E15.03294
G1 X62.541 Y105.108 E15.05906
G1 X62.026 Y104.503 E15.08538
G1 X61.536 Y103.868 E15.11195
G1 X61.071 Y103.205 E15.13878
G1 X60.631 Y102.514 E15.16595
G1 X60.218 Y101.797 E15.19335
G1 X59.832 Y101.051 E15.22118
G1 X59.473 Y100.280 E15.24933
G1 X59.143 Y99.485 E15.27787
G1 X58.842 Y98.666 E15.30678
G1 X58.568 Y97.821 E15.33620
G1 X58.325 Y96.955 E15.36599
G1 X58.111 Y96.065 E15.39632
G1 X57.927 Y95.156 E15.42705
G1 X57.771 Y94.225 E15.45831
G1 X57.646 Y93.274 E15.49010
G1 X57.549 Y92.306 E15.52232
G1 X57.482 Y91.319 E15.55512
G1 X57.443 Y90.317 E15.58833
G1 X57.433 Y89.297 E15.62213
G1 X57.451 Y88.263 E15.65637
G1 X57.495 Y87.217 E15.69105
G1 X57.566 Y86.160 E15.72616
G1 X57.786 Y84.005 E15.79793
G1 X58.103 Y81.813 E15.87131
G1 X58.295 Y80.709 E15.90843
G1 X58.744 Y78.479 E15.98379
G1 X59.272 Y76.233 E16.06022
G1 X59.562 Y75.109 E16.09867
G1 X60.192 Y72.857 E16.17615
G1 X60.528 Y71.737 E16.21489
G1 X61.240 Y69.504 E16.29254
G1 X62.391 Y66.192 E16.40871
G1 X63.616 Y62.960 E16.52321
G1 X64.459 Y60.866 E16.59799
G1 X65.316 Y58.826 E16.67130
G1 X66.612 Y55.888 E16.77769
G1 X66.945 Y55.177 E16.80369
G1 X67.069 Y55.205 E16.80792
G1 X67.069 Y106.120 E18.49472
G1 E16.49472 F2400.00000
G92 E0
G1 X75.111 Y39.577 F7800.000
G1 E2.00000 F2400.00000
G1 F1800.000
G1 X75.699 Y40.514 E2.03666
G1 X76.863 Y42.507 E2.11313
G1 X78.082 Y44.683 E2.19574
G1 X79.891 Y48.071 E2.32300
G1 X81.088 Y50.429 E2.41060
G1 X81.919 Y52.123 E2.47311
G1 X83.630 Y55.778 E2.60680
G1 X84.928 Y58.721 E2.71337
G1 X85.787 Y60.765 E2.78682
G1 X86.633 Y62.865 E2.86181
G1 X87.859 Y66.103 E2.97653
G1 X89.012 Y69.420 E3.09287
G1 X89.726 Y71.660 E3.17077
G1 X90.064 Y72.785 E3.20967
G1 X90.695 Y75.042 E3.28732
G1 X90.986 Y76.169 E3.32590
G1 X91.515 Y78.422 E3.40256
G1 X91.966 Y80.661 E3.47823
G1 X92.159 Y81.771 E3.51554
G1 X92.477 Y83.972 E3.58923
G1 X92.698 Y86.138 E3.66135
G1 X92.770 Y87.203 E3.69671
G1 X92.815 Y88.257 E3.73166
G1 X92.833 Y89.298 E3.76618
G1 X92.822 Y90.323 E3.80013
G1 X92.783 Y91.335 E3.83369
G1 X92.715 Y92.329 E3.86666
G1 X92.618 Y93.307 E3.89924
G1 X92.491 Y94.266 E3.93128
G1 X92.335 Y95.204 E3.96280
G1 X92.148 Y96.125 E3.99393
G1 X91.932 Y97.022 E4.02450
G1 X91.685 Y97.900 E4.05471
