; generated by Slic3r 1.3.1-dev (Build 2d100c4) on 2020-08-24 at 08:17:19

; external perimeters extrusion width = 0.44mm (2.38mm^3/s)
; perimeters extrusion width = 0.56mm (4.14mm^3/s)
; infill extrusion width = 0.50mm (7.31mm^3/s)
; solid infill extrusion width = 0.56mm (8.27mm^3/s)
; top infill extrusion width = 0.56mm (4.14mm^3/s)

M107
G92 E0
M190 S60 ; set bed temperature and wait for it to be reached
;D3D:START:START
T0
M104 S215 T0

G21
G90
M107
T0
G28
G29
M109 T0 S215 T0
G0 F3000
M107
T0
G92 E0
G0 X0 Y149 Z0.1 F3600
G1 Y49 E6.5 F1200
G0 Z1
G92 E0
; Filament gcode

G21 ; set units to millimeters
G90 ; use absolute coordinates
M82 ; use absolute distances for extrusion
G92 E0
G1 Z0.300 F9000.000
G1 E-3.20000 F4200.00000
G92 E0
G1 Z0.500 F9000.000
G1 X59.086 Y82.335 F9000.000
G1 Z0.300 F9000.000
G1 E3.20000 F4200.00000
M201 X800 Y800
M204 P800 T800
G1 F1200.000
G1 X110.578 Y82.335 E4.90590
G1 X110.578 Y97.665 E5.41377
G1 X59.086 Y97.665 E7.11967
G1 X59.086 Y82.395 E7.62556
M201 X1250 Y1250
M204 P1250 T1250
G1 F7200.000
G1 X64.572 Y82.389 E4.58556
G1 E4.42556 F4200.00000
G92 E0
G1 Z0.500 F9000.000
G1 X73.149 Y101.740 F9000.000
G1 Z0.300 F9000.000
G1 E3.20000 F4200.00000
M201 X800 Y800
M204 P800 T800
G1 F1200.000
G1 X73.522 Y101.519 E3.21434
G1 X73.929 Y101.373 E3.22867
G1 X74.356 Y101.305 E3.24301
G1 X74.789 Y101.319 E3.25734
G1 X75.211 Y101.413 E3.27168
G1 X75.609 Y101.585 E3.28602
G1 X75.967 Y101.828 E3.30036
G1 X76.272 Y102.134 E3.31470
G1 X76.516 Y102.492 E3.32904
G1 X76.683 Y102.879 E3.34301
G1 X76.758 Y103.170 E3.35294
G1 X76.795 Y103.467 E3.36286
G1 X76.782 Y103.888 E3.37682
G1 X76.688 Y104.310 E3.39116
G1 X76.516 Y104.708 E3.40550
G1 X76.272 Y105.066 E3.41984
G1 X75.967 Y105.372 E3.43418
G1 X75.609 Y105.615 E3.44852
G1 X75.218 Y105.784 E3.46262
G1 X74.859 Y105.872 E3.47486
G1 X74.620 Y105.894 E3.48280
G1 X74.161 Y105.876 E3.49802
G1 X73.784 Y105.784 E3.51090
G1 X73.393 Y105.615 E3.52500
G1 X73.035 Y105.372 E3.53934
G1 X72.729 Y105.066 E3.55367
G1 X72.486 Y104.708 E3.56801
G1 X72.318 Y104.321 E3.58198
G1 X72.244 Y104.030 E3.59191
G1 X72.206 Y103.733 E3.60183
G1 X72.220 Y103.312 E3.61580
G1 X72.314 Y102.889 E3.63014
G1 X72.482 Y102.502 E3.64411
G1 X72.642 Y102.250 E3.65404
G1 X72.833 Y102.019 E3.66396
G1 X73.104 Y101.779 E3.67595
M201 X1250 Y1250
M204 P1250 T1250
G1 X73.306 Y101.956 F9000.000
M201 X800 Y800
M204 P800 T800
G1 F1200.000
G1 X73.635 Y101.761 E3.68862
G1 X73.995 Y101.631 E3.70129
G1 X74.373 Y101.572 E3.71397
G1 X74.756 Y101.583 E3.72664
G1 X75.129 Y101.667 E3.73932
G1 X75.480 Y101.819 E3.75199
G1 X75.796 Y102.034 E3.76467
G1 X76.067 Y102.304 E3.77734
G1 X76.282 Y102.621 E3.79001
G1 X76.431 Y102.966 E3.80246
G1 X76.496 Y103.219 E3.81114
G1 X76.529 Y103.479 E3.81981
G1 X76.517 Y103.855 E3.83226
G1 X76.434 Y104.228 E3.84494
G1 X76.282 Y104.579 E3.85761
G1 X76.067 Y104.896 E3.87029
G1 X75.796 Y105.166 E3.88296
G1 X75.480 Y105.381 E3.89563
G1 X75.133 Y105.531 E3.90816
G1 X74.815 Y105.609 E3.91901
G1 X74.613 Y105.628 E3.92572
G1 X74.198 Y105.612 E3.93947
G1 X73.869 Y105.531 E3.95072
G1 X73.522 Y105.381 E3.96325
G1 X73.205 Y105.166 E3.97592
G1 X72.935 Y104.896 E3.98859
G1 X72.720 Y104.579 E4.00127
G1 X72.570 Y104.234 E4.01372
G1 X72.505 Y103.981 E4.02240
G1 X72.473 Y103.721 E4.03107
G1 X72.484 Y103.345 E4.04352
G1 X72.568 Y102.972 E4.05619
G1 X72.717 Y102.627 E4.06864
G1 X72.857 Y102.406 E4.07732
G1 X73.024 Y102.204 E4.08599
G1 X73.261 Y101.995 E4.09646
M201 X1250 Y1250
M204 P1250 T1250
G1 X73.463 Y102.171 F9000.000
M201 X800 Y800
M204 P800 T800
G1 F1200.000
G1 X73.749 Y102.002 E4.10747
G1 X74.062 Y101.890 E4.11848
G1 X74.390 Y101.838 E4.12949
G1 X74.722 Y101.848 E4.14050
G1 X75.046 Y101.921 E4.15151
G1 X75.351 Y102.053 E4.16252
G1 X75.626 Y102.239 E4.17353
G1 X75.861 Y102.474 E4.18454
G1 X76.048 Y102.749 E4.19555
G1 X76.179 Y103.052 E4.20647
G1 X76.235 Y103.269 E4.21391
G1 X76.263 Y103.492 E4.22133
G1 X76.253 Y103.821 E4.23226
G1 X76.180 Y104.146 E4.24327
G1 X76.048 Y104.451 E4.25428
G1 X75.861 Y104.726 E4.26529
G1 X75.626 Y104.960 E4.27630
G1 X75.351 Y105.147 E4.28731
G1 X75.048 Y105.279 E4.29827
G1 X74.771 Y105.347 E4.30773
G1 X74.606 Y105.362 E4.31321
G1 X74.236 Y105.348 E4.32549
G1 X73.954 Y105.279 E4.33510
G1 X73.650 Y105.147 E4.34606
G1 X73.375 Y104.960 E4.35707
G1 X73.140 Y104.726 E4.36808
G1 X72.954 Y104.451 E4.37909
G1 X72.823 Y104.148 E4.39001
G1 X72.767 Y103.931 E4.39744
G1 X72.739 Y103.708 E4.40487
G1 X72.749 Y103.379 E4.41580
G1 X72.822 Y103.054 E4.42681
G1 X72.952 Y102.752 E4.43773
G1 X73.073 Y102.562 E4.44516
G1 X73.216 Y102.390 E4.45259
G1 X73.418 Y102.211 E4.46153
M201 X1250 Y1250
M204 P1250 T1250
G1 F7200.000
G1 X73.749 Y102.002 E4.24457
G1 F7200.000
G1 X74.062 Y101.890 E4.06043
G1 F7200.000
G1 X74.390 Y101.838 E3.87629
G1 F7200.000
G1 X74.722 Y101.848 E3.69211
G1 F7200.000
G1 X75.046 Y101.921 E3.50793
G1 F7200.000
G1 X75.351 Y102.053 E3.32374
G1 F7200.000
G1 X75.626 Y102.239 E3.13955
G1 F7200.000
G1 X75.861 Y102.474 E2.95541
G1 F7200.000
G1 X76.048 Y102.749 E2.77122
G1 F7200.000
G1 X76.179 Y103.052 E2.58849
G1 F7200.000
G1 X76.235 Y103.269 E2.46418
G1 F7200.000
G1 X76.263 Y103.492 E2.33991
G1 F7200.000
G1 X76.253 Y103.821 E2.15721
G1 F7200.000
G1 X76.180 Y104.146 E1.97302
G1 F7200.000
G1 X76.048 Y104.451 E1.78884
G1 F7200.000
G1 X75.861 Y104.726 E1.60464
G1 F7200.000
G1 X75.628 Y104.959 E1.42153
G1 E1.26153 F4200.00000
G92 E0
G1 Z0.500 F9000.000
G1 X74.357 Y78.693 F9000.000
G1 Z0.300 F9000.000
G1 E3.20000 F4200.00000
M201 X800 Y800
M204 P800 T800
G1 F1200.000
G1 X74.059 Y78.656 E3.20992
G1 X73.654 Y78.538 E3.22389
G1 X73.269 Y78.341 E3.23823
G1 X72.927 Y78.076 E3.25257
G1 X72.641 Y77.751 E3.26691
G1 X72.420 Y77.379 E3.28124
G1 X72.274 Y76.972 E3.29558
G1 X72.206 Y76.544 E3.30992
G1 X72.220 Y76.112 E3.32425
G1 X72.314 Y75.689 E3.33860
G1 X72.482 Y75.302 E3.35257
G1 X72.642 Y75.050 E3.36249
G1 X72.833 Y74.819 E3.37241
G1 X73.149 Y74.540 E3.38639
G1 X73.522 Y74.319 E3.40073
G1 X73.929 Y74.173 E3.41506
G1 X74.346 Y74.107 E3.42903
G1 X74.645 Y74.107 E3.43896
G1 X74.942 Y74.144 E3.44888
G1 X75.347 Y74.262 E3.46285
G1 X75.733 Y74.459 E3.47719
G1 X76.075 Y74.724 E3.49153
G1 X76.361 Y75.048 E3.50587
G1 X76.581 Y75.421 E3.52020
G1 X76.728 Y75.828 E3.53454
G1 X76.796 Y76.256 E3.54888
G1 X76.782 Y76.688 E3.56321
G1 X76.688 Y77.111 E3.57755
G1 X76.516 Y77.508 E3.59189
G1 X76.272 Y77.866 E3.60623
G1 X75.967 Y78.172 E3.62057
G1 X75.618 Y78.409 E3.63454
G1 X75.347 Y78.536 E3.64446
G1 X75.062 Y78.629 E3.65439
G1 X74.656 Y78.693 E3.66799
G1 X74.417 Y78.693 E3.67593
M201 X1250 Y1250
M204 P1250 T1250
G1 X74.373 Y78.427 F9000.000
M201 X800 Y800
M204 P800 T800
G1 F1200.000
G1 X74.113 Y78.395 E3.68461
G1 X73.753 Y78.290 E3.69705
G1 X73.412 Y78.116 E3.70973
G1 X73.109 Y77.882 E3.72240
G1 X72.856 Y77.595 E3.73508
G1 X72.662 Y77.265 E3.74775
G1 X72.532 Y76.905 E3.76042
G1 X72.472 Y76.528 E3.77310
G1 X72.484 Y76.145 E3.78577
G1 X72.568 Y75.772 E3.79845
G1 X72.717 Y75.427 E3.81089
G1 X72.857 Y75.206 E3.81957
G1 X73.024 Y75.004 E3.82824
G1 X73.306 Y74.756 E3.84070
G1 X73.635 Y74.561 E3.85337
G1 X73.995 Y74.431 E3.86604
G1 X74.366 Y74.373 E3.87849
G1 X74.628 Y74.373 E3.88717
G1 X74.888 Y74.405 E3.89585
G1 X75.249 Y74.510 E3.90829
G1 X75.590 Y74.684 E3.92097
G1 X75.892 Y74.918 E3.93364
G1 X76.145 Y75.205 E3.94632
G1 X76.340 Y75.535 E3.95899
G1 X76.469 Y75.895 E3.97166
G1 X76.529 Y76.272 E3.98434
G1 X76.517 Y76.655 E3.99701
G1 X76.434 Y77.028 E4.00968
G1 X76.282 Y77.379 E4.02236
G1 X76.067 Y77.696 E4.03503
G1 X75.796 Y77.966 E4.04771
G1 X75.486 Y78.177 E4.06016
G1 X75.249 Y78.289 E4.06883
G1 X75.000 Y78.370 E4.07751
G1 X74.635 Y78.427 E4.08973
G1 X74.433 Y78.427 E4.09642
M201 X1250 Y1250
M204 P1250 T1250
G1 X74.390 Y78.162 F9000.000
M201 X800 Y800
M204 P800 T800
G1 F1200.000
G1 X74.167 Y78.134 E4.10385
G1 X73.851 Y78.042 E4.11478
G1 X73.555 Y77.891 E4.12578
G1 X73.292 Y77.687 E4.13680
G1 X73.072 Y77.438 E4.14781
G1 X72.903 Y77.152 E4.15882
G1 X72.791 Y76.839 E4.16983
G1 X72.739 Y76.511 E4.18084
G1 X72.749 Y76.179 E4.19185
G1 X72.822 Y75.854 E4.20286
G1 X72.952 Y75.552 E4.21378
G1 X73.073 Y75.362 E4.22121
G1 X73.216 Y75.190 E4.22864
G1 X73.463 Y74.971 E4.23957
G1 X73.749 Y74.802 E4.25058
G1 X74.062 Y74.690 E4.26159
G1 X74.387 Y74.638 E4.27251
G1 X74.612 Y74.638 E4.27994
G1 X74.834 Y74.666 E4.28737
G1 X75.151 Y74.758 E4.29830
G1 X75.447 Y74.909 E4.30931
G1 X75.710 Y75.113 E4.32032
G1 X75.929 Y75.362 E4.33133
G1 X76.099 Y75.648 E4.34234
G1 X76.211 Y75.961 E4.35335
G1 X76.263 Y76.289 E4.36436
G1 X76.253 Y76.621 E4.37537
G1 X76.180 Y76.946 E4.38638
G1 X76.048 Y77.251 E4.39739
G1 X75.861 Y77.526 E4.40840
G1 X75.626 Y77.761 E4.41941
G1 X75.354 Y77.946 E4.43033
G1 X75.151 Y78.041 E4.43776
G1 X74.937 Y78.111 E4.44519
G1 X74.614 Y78.162 E4.45603
G1 X74.450 Y78.162 E4.46148
M201 X1250 Y1250
M204 P1250 T1250
G1 F7200.000
G1 X74.167 Y78.134 E4.30416
G1 F7200.000
G1 X73.851 Y78.042 E4.12143
G1 F7200.000
G1 X73.555 Y77.891 E3.93728
G1 F7200.000
G1 X73.292 Y77.687 E3.75308
G1 F7200.000
G1 X73.072 Y77.438 E3.56892
G1 F7200.000
G1 X72.903 Y77.152 E3.38475
G1 F7200.000
G1 X72.791 Y76.839 E3.20058
G1 F7200.000
G1 X72.739 Y76.511 E3.01642
G1 F7200.000
G1 X72.749 Y76.179 E2.83225
G1 F7200.000
G1 X72.822 Y75.854 E2.64806
G1 F7200.000
G1 X72.952 Y75.552 E2.46533
G1 F7200.000
G1 X73.073 Y75.362 E2.34104
G1 F7200.000
G1 X73.216 Y75.190 E2.21677
G1 F7200.000
G1 X73.463 Y74.971 E2.03402
G1 F7200.000
G1 X73.749 Y74.802 E1.84981
G1 F7200.000
G1 X74.062 Y74.690 E1.66567
G1 F7200.000
G1 X74.387 Y74.638 E1.48297
G1 F7200.000
G1 X74.498 Y74.638 E1.42148
G1 E1.26148 F4200.00000
G92 E0
G1 Z0.500 F9000.000
G1 X58.555 Y81.804 F9000.000
G1 Z0.300 F9000.000
G1 E3.20000 F4200.00000
M201 X800 Y800
M204 P800 T800
G1 F1200.000
G1 X58.555 Y98.196 E3.74307
G1 X108.580 Y98.196 E5.40038
G1 X108.607 Y98.322 E5.40464
G1 X105.058 Y99.869 E5.53291
G1 X102.993 Y100.719 E5.60688
G1 X100.876 Y101.552 E5.68225
G1 X98.716 Y102.360 E5.75866
G1 X96.521 Y103.135 E5.83577
G1 X94.302 Y103.869 E5.91322
G1 X92.063 Y104.555 E5.99077
G1 X90.946 Y104.875 E6.02927
G1 X88.701 Y105.471 E6.10623
G1 X86.465 Y105.996 E6.18234
G1 X84.241 Y106.444 E6.25750
G1 X83.146 Y106.635 E6.29432
G1 X80.959 Y106.951 E6.36752
G1 X78.821 Y107.169 E6.43870
G1 X77.768 Y107.240 E6.47368
G1 X76.728 Y107.284 E6.50818
G1 X75.700 Y107.301 E6.54223
G1 X74.690 Y107.291 E6.57570
G1 X73.693 Y107.253 E6.60874
G1 X72.716 Y107.186 E6.64119
G1 X71.754 Y107.090 E6.67321
G1 X70.813 Y106.966 E6.70467
G1 X69.892 Y106.812 E6.73558
G1 X68.990 Y106.629 E6.76608
G1 X68.112 Y106.418 E6.79601
G1 X67.254 Y106.177 E6.82554
G1 X66.421 Y105.907 E6.85454
G1 X65.611 Y105.609 E6.88313
G1 X64.825 Y105.283 E6.91131
G1 X64.064 Y104.929 E6.93912
G1 X63.331 Y104.549 E6.96649
G1 X62.622 Y104.141 E6.99358
G1 X61.941 Y103.708 E7.02031
G1 X61.288 Y103.249 E7.04675
G1 X60.663 Y102.767 E7.07291
G1 X60.067 Y102.260 E7.09883
G1 X59.501 Y101.731 E7.12448
G1 X58.964 Y101.180 E7.14999
G1 X58.457 Y100.607 E7.17533
G1 X57.979 Y100.013 E7.20058
G1 X57.534 Y99.401 E7.22568
G1 X57.120 Y98.770 E7.25065
G1 X56.737 Y98.121 E7.27561
G1 X56.386 Y97.454 E7.30060
G1 X56.068 Y96.773 E7.32550
G1 X55.782 Y96.075 E7.35049
G1 X55.529 Y95.361 E7.37557
G1 X55.310 Y94.635 E7.40072
G1 X55.123 Y93.893 E7.42605
G1 X54.970 Y93.138 E7.45157
G1 X54.851 Y92.371 E7.47731
G1 X54.766 Y91.589 E7.50336
G1 X54.714 Y90.792 E7.52982
G1 X54.701 Y89.952 E7.55766
G1 X54.714 Y89.209 E7.58227
G1 X54.766 Y88.411 E7.60876
G1 X54.851 Y87.629 E7.63481
G1 X54.970 Y86.862 E7.66055
G1 X55.123 Y86.107 E7.68607
G1 X55.310 Y85.365 E7.71140
G1 X55.530 Y84.637 E7.73658
G1 X55.783 Y83.924 E7.76165
G1 X56.068 Y83.227 E7.78661
G1 X56.387 Y82.544 E7.81159
G1 X56.738 Y81.878 E7.83654
G1 X57.120 Y81.230 E7.86146
G1 X57.534 Y80.598 E7.88648
G1 X57.981 Y79.985 E7.91162
G1 X58.458 Y79.392 E7.93682
G1 X58.965 Y78.819 E7.96217
G1 X59.501 Y78.269 E7.98763
G1 X60.068 Y77.739 E8.01333
G1 X60.664 Y77.233 E8.03925
G1 X61.289 Y76.750 E8.06541
G1 X61.942 Y76.292 E8.09184
G1 X62.624 Y75.858 E8.11861
G1 X63.331 Y75.451 E8.14562
G1 X64.066 Y75.070 E8.17307
G1 X64.826 Y74.716 E8.20084
G1 X65.612 Y74.390 E8.22902
G1 X66.421 Y74.093 E8.25758
G1 X67.256 Y73.823 E8.28665
G1 X68.112 Y73.582 E8.31610
G1 X68.993 Y73.370 E8.34611
G1 X69.892 Y73.188 E8.37653
G1 X70.814 Y73.034 E8.40748
G1 X71.757 Y72.909 E8.43899
G1 X72.716 Y72.814 E8.47092
G1 X73.696 Y72.747 E8.50345
G1 X74.685 Y72.709 E8.53626
G1 X76.734 Y72.716 E8.60413
G1 X77.768 Y72.760 E8.63843
G1 X78.818 Y72.831 E8.67328
G1 X80.963 Y73.050 E8.74472
G1 X83.146 Y73.365 E8.81778
G1 X84.242 Y73.556 E8.85466
G1 X86.465 Y74.004 E8.92976
G1 X88.703 Y74.530 E9.00595
G1 X89.822 Y74.818 E9.04422
G1 X92.069 Y75.447 E9.12153
G1 X93.185 Y75.782 E9.16012
G1 X95.412 Y76.492 E9.23758
G1 X98.718 Y77.641 E9.35351
G1 X101.944 Y78.863 E9.46780
G1 X104.033 Y79.704 E9.54242
G1 X106.070 Y80.560 E9.61562
G1 X108.607 Y81.678 E9.70746
G1 X108.580 Y81.804 E9.71172
G1 X58.615 Y81.804 E11.36704
M201 X1250 Y1250
M204 P1250 T1250
G1 X58.820 Y82.069 F9000.000
M201 X800 Y800
M204 P800 T800
G1 F1200.000
G1 X58.820 Y97.931 E11.89252
G1 X109.810 Y97.931 E13.58177
G1 X109.837 Y98.056 E13.58603
G1 X108.152 Y98.820 E13.64731
G1 X105.161 Y100.114 E13.75527
G1 X103.093 Y100.966 E13.82938
G1 X100.971 Y101.800 E13.90491
G1 X98.807 Y102.610 E13.98147
G1 X96.607 Y103.386 E14.05874
G1 X94.382 Y104.122 E14.13639
G1 X92.139 Y104.809 E14.21411
G1 X91.017 Y105.131 E14.25278
G1 X88.766 Y105.729 E14.32995
G1 X86.521 Y106.256 E14.40633
G1 X84.290 Y106.705 E14.48174
G1 X83.187 Y106.897 E14.51881
G1 X80.993 Y107.214 E14.59227
G1 X78.842 Y107.433 E14.66388
G1 X77.783 Y107.505 E14.69907
G1 X76.736 Y107.549 E14.73379
G1 X75.701 Y107.567 E14.76808
G1 X74.683 Y107.557 E14.80179
G1 X73.679 Y107.518 E14.83509
G1 X72.694 Y107.451 E14.86780
G1 X71.724 Y107.354 E14.90010
G1 X70.773 Y107.228 E14.93185
G1 X69.844 Y107.074 E14.96307
G1 X68.933 Y106.889 E14.99388
G1 X68.045 Y106.675 E15.02413
G1 X67.177 Y106.431 E15.05400
G1 X66.334 Y106.158 E15.08334
G1 X65.514 Y105.857 E15.11229
G1 X64.718 Y105.526 E15.14083
G1 X63.947 Y105.168 E15.16902
G1 X63.203 Y104.782 E15.19677
G1 X62.484 Y104.368 E15.22425
G1 X61.794 Y103.929 E15.25138
G1 X61.131 Y103.463 E15.27821
G1 X60.496 Y102.973 E15.30478
G1 X59.891 Y102.458 E15.33111
G1 X59.315 Y101.921 E15.35718
G1 X58.769 Y101.361 E15.38310
G1 X58.254 Y100.779 E15.40886
G1 X57.768 Y100.175 E15.43453
G1 X57.315 Y99.552 E15.46006
G1 X56.895 Y98.911 E15.48545
G1 X56.505 Y98.251 E15.51084
G1 X56.148 Y97.572 E15.53625
G1 X55.825 Y96.879 E15.56157
G1 X55.534 Y96.170 E15.58698
G1 X55.277 Y95.444 E15.61248
G1 X55.054 Y94.706 E15.63804
G1 X54.864 Y93.952 E15.66378
G1 X54.709 Y93.185 E15.68971
G1 X54.588 Y92.405 E15.71585
G1 X54.501 Y91.612 E15.74230
G1 X54.449 Y90.803 E15.76917
G1 X54.435 Y89.951 E15.79737
G1 X54.449 Y89.198 E15.82233
G1 X54.501 Y88.388 E15.84922
G1 X54.588 Y87.595 E15.87566
G1 X54.709 Y86.815 E15.90181
G1 X54.864 Y86.048 E15.92773
G1 X55.054 Y85.294 E15.95347
G1 X55.277 Y84.555 E15.97908
G1 X55.535 Y83.830 E16.00456
G1 X55.825 Y83.121 E16.02994
G1 X56.149 Y82.426 E16.05535
G1 X56.506 Y81.748 E16.08072
G1 X56.895 Y81.089 E16.10606
G1 X57.316 Y80.447 E16.13150
G1 X57.770 Y79.823 E16.15706
G1 X58.255 Y79.220 E16.18269
G1 X58.770 Y78.638 E16.20845
G1 X59.315 Y78.079 E16.23434
G1 X59.892 Y77.541 E16.26045
G1 X60.497 Y77.026 E16.28678
G1 X61.132 Y76.536 E16.31335
G1 X61.795 Y76.071 E16.34018
G1 X62.486 Y75.630 E16.36734
G1 X63.203 Y75.218 E16.39475
G1 X63.949 Y74.831 E16.42257
G1 X64.719 Y74.473 E16.45072
G1 X65.515 Y74.143 E16.47926
G1 X66.334 Y73.842 E16.50818
G1 X67.179 Y73.568 E16.53760
G1 X68.045 Y73.325 E16.56738
G1 X68.935 Y73.111 E16.59772
G1 X69.844 Y72.926 E16.62845
G1 X70.775 Y72.771 E16.65970
G1 X71.726 Y72.646 E16.69150
G1 X72.694 Y72.549 E16.72371
G1 X73.681 Y72.482 E16.75651
G1 X74.680 Y72.443 E16.78963
G1 X76.740 Y72.451 E16.85786
G1 X77.783 Y72.495 E16.89244
G1 X78.840 Y72.566 E16.92755
G1 X80.995 Y72.786 E16.99932
G1 X83.187 Y73.103 E17.07270
G1 X84.291 Y73.295 E17.10982
G1 X86.521 Y73.744 E17.18518
G1 X88.767 Y74.272 E17.26161
G1 X89.891 Y74.562 E17.30005
