; generated by Slic3r 1.3.0 on 2020-08-25 at 18:20:19

; external perimeters extrusion width = 0.44mm (2.86mm^3/s)
; perimeters extrusion width = 0.56mm (4.14mm^3/s)
; infill extrusion width = 0.50mm (3.66mm^3/s)
; solid infill extrusion width = 0.56mm (3.10mm^3/s)
; top infill extrusion width = 0.56mm (3.10mm^3/s)

M107
;D3D:START:START
T0
M104 S215 T0

G21
G90
M107
T0
G28
G29
M109 T0 S215 T0
G0 F3000
M107
T0
G92 E0
G0 X0 Y149 Z0.1 F3600
G1 Y49 E6.5 F1200
G0 Z1
G92 E0
; Filament gcode

G21 ; set units to millimeters
G90 ; use absolute coordinates
M82 ; use absolute distances for extrusion
G92 E0
G1 Z0.300 F7800.000
G1 E-2.00000 F2400.00000
G92 E0
G1 X58.463 Y87.171 F7800.000
G1 E2.00000 F2400.00000
G1 F1800
G1 X58.749 Y87.002 E2.01101
G1 X59.064 Y86.889 E2.02211
G1 X59.495 Y86.834 E2.03648
G1 X59.832 Y86.865 E2.04769
G1 X60.151 Y86.958 E2.05871
G1 X60.447 Y87.109 E2.06972
G1 X60.710 Y87.313 E2.08073
G1 X60.928 Y87.560 E2.09165
G1 X61.048 Y87.750 E2.09908
G1 X61.143 Y87.952 E2.10651
G1 X61.235 Y88.269 E2.11744
G1 X61.267 Y88.600 E2.12845
G1 X61.235 Y88.931 E2.13946
G1 X61.140 Y89.256 E2.15068
G1 X60.931 Y89.636 E2.16505
G1 X60.710 Y89.887 E2.17615
G1 X60.447 Y90.091 E2.18716
G1 X60.150 Y90.242 E2.19820
G1 X59.771 Y90.347 E2.21123
G1 X59.501 Y90.365 E2.22020
G1 X59.231 Y90.347 E2.22917
G1 X58.854 Y90.243 E2.24210
G1 X58.650 Y90.147 E2.24957
G1 X58.461 Y90.027 E2.25700
G1 X58.214 Y89.809 E2.26793
G1 X58.010 Y89.546 E2.27894
G1 X57.859 Y89.250 E2.28994
G1 X57.766 Y88.931 E2.30096
G1 X57.735 Y88.600 E2.31197
G1 X57.766 Y88.269 E2.32298
G1 X57.859 Y87.950 E2.33399
G1 X58.010 Y87.654 E2.34500
G1 X58.214 Y87.391 E2.35601
G1 X58.418 Y87.211 E2.36503
G1 E0.36503 F2400.00000
G92 E0
G1 X44.086 Y82.665 F7800.000
G1 E2.00000 F2400.00000
G1 F1800
G1 X44.086 Y67.335 E2.50788
G1 X95.578 Y67.335 E4.21377
G1 X95.578 Y82.665 E4.72165
G1 X44.146 Y82.665 E6.42556
G1 E4.42556 F2400.00000
G92 E0
G1 X58.461 Y62.827 F7800.000
G1 E2.00000 F2400.00000
G1 F1800
G1 X58.214 Y62.609 E2.01092
G1 X58.010 Y62.346 E2.02193
G1 X57.859 Y62.050 E2.03294
G1 X57.766 Y61.731 E2.04395
G1 X57.735 Y61.400 E2.05496
G1 X57.766 Y61.069 E2.06598
G1 X57.859 Y60.750 E2.07699
G1 X58.010 Y60.454 E2.08799
G1 X58.214 Y60.191 E2.09900
G1 X58.463 Y59.971 E2.11002
G1 X58.749 Y59.802 E2.12103
G1 X59.064 Y59.689 E2.13212
G1 X59.495 Y59.634 E2.14650
G1 X59.832 Y59.665 E2.15771
G1 X60.151 Y59.758 E2.16872
G1 X60.447 Y59.909 E2.17973
G1 X60.710 Y60.113 E2.19075
G1 X60.929 Y60.362 E2.20176
G1 X61.101 Y60.654 E2.21297
G1 X61.235 Y61.067 E2.22735
G1 X61.267 Y61.400 E2.23844
G1 X61.236 Y61.728 E2.24937
G1 X61.180 Y61.946 E2.25680
G1 X61.097 Y62.154 E2.26423
G1 X60.929 Y62.438 E2.27515
G1 X60.710 Y62.687 E2.28616
G1 X60.447 Y62.891 E2.29717
G1 X60.151 Y63.042 E2.30818
G1 X59.832 Y63.134 E2.31919
G1 X59.501 Y63.166 E2.33020
G1 X59.170 Y63.134 E2.34121
G1 X58.853 Y63.042 E2.35214
G1 X58.512 Y62.859 E2.36499
G1 E0.36499 F2400.00000
G92 E0
G1 X110.580 Y75.003 F7800.000
G1 E2.00000 F2400.00000
G1 F1800
G1 X110.100 Y75.325 E2.01916
G1 X107.957 Y76.597 E2.10170
G1 X105.317 Y78.082 E2.20206
G1 X102.663 Y79.508 E2.30189
G1 X100.383 Y80.681 E2.38681
G1 X97.876 Y81.919 E2.47944
G1 X95.167 Y83.198 E2.57872
G1 X93.260 Y84.063 E2.64808
G1 X90.266 Y85.358 E2.75613
G1 X88.193 Y86.211 E2.83040
G1 X86.066 Y87.048 E2.90613
G1 X83.899 Y87.859 E2.98279
G1 X81.693 Y88.638 E3.06029
G1 X79.463 Y89.375 E3.13812
G1 X77.216 Y90.063 E3.21596
G1 X76.088 Y90.387 E3.25485
G1 X73.830 Y90.986 E3.33224
G1 X71.578 Y91.515 E3.40888
G1 X69.340 Y91.966 E3.48450
G1 X68.229 Y92.159 E3.52186
G1 X66.027 Y92.478 E3.59558
G1 X63.863 Y92.698 E3.66763
G1 X62.797 Y92.770 E3.70303
G1 X61.743 Y92.815 E3.73797
G1 X60.704 Y92.833 E3.77240
G1 X59.677 Y92.822 E3.80645
G1 X58.666 Y92.783 E3.83996
G1 X57.672 Y92.715 E3.87298
G1 X55.735 Y92.491 E3.93757
G1 X54.796 Y92.335 E3.96911
G1 X54.130 Y92.200 E3.99162
G1 X52.977 Y91.932 E4.03083
G1 X52.101 Y91.686 E4.06097
G1 X51.248 Y91.410 E4.09070
G1 X50.417 Y91.104 E4.12000
G1 X49.611 Y90.770 E4.14891
G1 X48.831 Y90.407 E4.17743
G1 X48.076 Y90.015 E4.20560
G1 X47.348 Y89.596 E4.23343
G1 X46.647 Y89.150 E4.26095
G1 X45.974 Y88.678 E4.28819
G1 X45.330 Y88.180 E4.31516
G1 X44.715 Y87.658 E4.34190
G1 X44.130 Y87.111 E4.36843
G1 X43.575 Y86.542 E4.39477
G1 X43.051 Y85.950 E4.42095
G1 X42.558 Y85.337 E4.44700
G1 X42.097 Y84.704 E4.47294
G1 X41.669 Y84.051 E4.49881
G1 X41.273 Y83.380 E4.52462
G1 X40.911 Y82.691 E4.55040
G1 X40.581 Y81.986 E4.57620
G1 X40.286 Y81.264 E4.60203
G1 X40.025 Y80.528 E4.62792
G1 X39.798 Y79.777 E4.65392
G1 X39.605 Y79.011 E4.68008
G1 X39.447 Y78.232 E4.70641
G1 X39.324 Y77.440 E4.73295
G1 X39.236 Y76.635 E4.75979
G1 X39.184 Y75.813 E4.78707
G1 X39.169 Y75.000 E4.81401
G1 X39.184 Y74.187 E4.84096
G1 X39.236 Y73.365 E4.86824
G1 X39.324 Y72.560 E4.89508
G1 X39.447 Y71.768 E4.92162
G1 X39.605 Y70.989 E4.94795
G1 X39.798 Y70.223 E4.97411
G1 X40.025 Y69.472 E5.00011
G1 X40.286 Y68.736 E5.02600
G1 X40.581 Y68.014 E5.05183
G1 X40.911 Y67.309 E5.07762
G1 X41.273 Y66.620 E5.10341
G1 X41.669 Y65.949 E5.12922
G1 X42.097 Y65.296 E5.15509
G1 X42.558 Y64.663 E5.18103
G1 X43.051 Y64.050 E5.20708
G1 X43.575 Y63.458 E5.23326
G1 X44.130 Y62.889 E5.25960
G1 X44.715 Y62.342 E5.28613
G1 X45.330 Y61.820 E5.31287
G1 X45.974 Y61.322 E5.33984
G1 X46.647 Y60.850 E5.36707
G1 X47.348 Y60.404 E5.39460
G1 X48.076 Y59.985 E5.42243
G1 X48.831 Y59.593 E5.45059
G1 X49.611 Y59.230 E5.47912
G1 X50.417 Y58.896 E5.50802
G1 X51.248 Y58.590 E5.53733
G1 X52.101 Y58.314 E5.56706
G1 X52.978 Y58.068 E5.59722
G1 X53.876 Y57.852 E5.62784
G1 X54.796 Y57.665 E5.65892
G1 X55.735 Y57.509 E5.69048
G1 X56.694 Y57.382 E5.72253
G1 X57.672 Y57.285 E5.75506
G1 X58.666 Y57.217 E5.78808
G1 X59.677 Y57.178 E5.82159
G1 X60.704 Y57.167 E5.85564
G1 X61.743 Y57.185 E5.89007
G1 X62.797 Y57.230 E5.92501
G1 X63.862 Y57.302 E5.96038
G1 X66.028 Y57.522 E6.03249
G1 X68.229 Y57.841 E6.10618
G1 X69.340 Y58.034 E6.14354
G1 X71.578 Y58.485 E6.21916
G1 X73.831 Y59.014 E6.29582
G1 X74.958 Y59.305 E6.33440
G1 X77.215 Y59.936 E6.41206
G1 X78.342 Y60.274 E6.45101
G1 X80.579 Y60.987 E6.52880
G1 X83.896 Y62.140 E6.64514
G1 X87.135 Y63.367 E6.75991
G1 X89.235 Y64.213 E6.83491
G1 X91.279 Y65.072 E6.90836
G1 X94.222 Y66.370 E7.01492
G1 X97.877 Y68.081 E7.14861
G1 X99.571 Y68.912 E7.21112
G1 X101.929 Y70.109 E7.29873
G1 X104.047 Y71.228 E7.37810
G1 X105.907 Y72.244 E7.44831
G1 X108.203 Y73.545 E7.53574
G1 X109.981 Y74.601 E7.60426
G1 X110.530 Y74.969 E7.62615
G1 X110.000 Y75.106 F7800.000
G1 F1800
G1 X110.207 Y74.899 E7.63587
G1 X109.981 Y74.748 E7.64488
G1 X109.045 Y75.684 E7.68884
G1 X108.119 Y76.234 E7.72462
G1 X109.747 Y74.606 E7.80109
G1 X109.511 Y74.466 E7.81021
G1 X107.230 Y76.747 E7.91734
G1 X106.369 Y77.231 E7.95014
G1 X109.274 Y74.326 E8.08660
G1 X109.038 Y74.185 E8.09573
G1 X105.508 Y77.715 E8.26152
G1 X104.671 Y78.175 E8.29323
G1 X108.802 Y74.045 E8.48723
G1 X108.565 Y73.905 E8.49635
G1 X103.858 Y78.612 E8.71746
G1 X103.044 Y79.049 E8.74812
G1 X108.329 Y73.764 E8.99633
G1 X108.091 Y73.625 E9.00547
G1 X102.240 Y79.477 E9.28028
G1 X101.465 Y79.876 E9.30925
G1 X107.851 Y73.489 E9.60920
G1 X107.611 Y73.353 E9.61837
G1 X100.689 Y80.275 E9.94347
G1 X99.923 Y80.664 E9.97199
G1 X107.371 Y73.217 E10.32176
G1 X107.130 Y73.080 E10.33094
G1 X99.179 Y81.032 E10.70437
G1 X98.435 Y81.399 E10.73193
G1 X106.890 Y72.944 E11.12903
G1 X106.650 Y72.808 E11.13820
G1 X97.691 Y81.767 E11.55896
G1 X96.976 Y82.105 E11.58522
G1 X106.409 Y72.672 E12.02826
G1 X106.169 Y72.536 E12.03743
G1 X96.263 Y82.442 E12.50270
G1 X95.740 Y82.689 E12.52190
G1 X95.740 Y82.588 E12.52524
G1 X105.929 Y72.399 E13.00377
G1 X105.686 Y72.266 E13.01298
G1 X95.740 Y82.212 E13.48011
G1 X95.740 Y81.835 E13.49261
G1 X105.442 Y72.133 E13.94830
G1 X105.199 Y72.000 E13.95751
G1 X95.740 Y81.458 E14.40176
G1 X95.740 Y81.082 E14.41427
G1 X104.955 Y71.867 E14.84708
G1 X104.712 Y71.734 E14.85630
G1 X95.740 Y80.705 E15.27767
G1 X95.740 Y80.329 E15.29017
G1 X104.468 Y71.600 E15.70011
G1 X104.225 Y71.467 E15.70933
G1 X95.740 Y79.952 E16.10782
G1 X95.740 Y79.576 E16.12033
G1 X103.980 Y71.335 E16.50736
G1 X103.734 Y71.205 E16.51662
G1 X95.740 Y79.199 E16.89208
G1 X95.740 Y78.822 E16.90458
G1 X103.488 Y71.075 E17.26847
G1 X103.241 Y70.945 E17.27772
G1 X95.740 Y78.446 E17.63003
G1 X95.740 Y78.069 E17.64253
G1 X102.995 Y70.815 E17.98327
G1 X102.748 Y70.684 E17.99252
G1 X95.740 Y77.693 E18.32168
G1 X95.740 Y77.316 E18.33419
G1 X102.502 Y70.554 E18.65177
G1 X102.255 Y70.424 E18.66102
G1 X95.740 Y76.940 E18.96703
G1 X95.740 Y76.563 E18.97953
G1 X102.009 Y70.294 E19.27397
G1 X101.760 Y70.166 E19.28325
G1 X95.740 Y76.187 E19.56601
G1 X95.740 Y75.810 E19.57852
G1 X101.511 Y70.039 E19.84955
G1 X101.261 Y69.912 E19.85885
G1 X95.740 Y75.433 E20.11816
G1 X95.740 Y75.057 E20.13066
G1 X101.011 Y69.786 E20.37824
G1 X100.761 Y69.659 E20.38754
G1 X95.740 Y74.680 E20.62339
G1 X95.740 Y74.304 E20.63589
G1 X100.512 Y69.532 E20.86001
G1 X100.262 Y69.405 E20.86931
G1 X95.740 Y73.927 E21.08169
G1 X95.740 Y73.551 E21.09420
G1 X100.012 Y69.278 E21.29485
G1 X99.762 Y69.152 E21.30416
G1 X95.740 Y73.174 E21.49308
G1 X95.740 Y72.798 E21.50559
G1 X99.512 Y69.025 E21.68276
G1 X99.260 Y68.901 E21.69211
G1 X95.740 Y72.421 E21.85741
G1 X95.740 Y72.044 E21.86992
G1 X99.007 Y68.777 E22.02336
G1 X98.754 Y68.653 E22.03271
G1 X95.740 Y71.668 E22.17428
G1 X95.740 Y71.291 E22.18679
G1 X98.502 Y68.530 E22.31650
G1 X98.249 Y68.406 E22.32584
G1 X95.740 Y70.915 E22.44369
G1 X95.740 Y70.538 E22.45620
G1 X97.996 Y68.282 E22.56218
G1 X97.742 Y68.160 E22.57155
G1 X95.740 Y70.162 E22.66558
G1 X95.740 Y69.785 E22.67808
G1 X97.485 Y68.039 E22.76006
G1 X97.229 Y67.919 E22.76947
G1 X95.740 Y69.408 E22.83941
G1 X95.740 Y69.032 E22.85191
G1 X96.972 Y67.799 E22.90980
G1 X96.716 Y67.679 E22.91921
G1 X95.740 Y68.655 E22.96505
G1 X95.740 Y68.279 E22.97756
G1 X96.460 Y67.559 E23.01136
G1 X96.203 Y67.439 E23.02077
G1 X95.740 Y67.902 E23.04252
G1 X95.740 Y67.526 E23.05503
G1 X95.947 Y67.319 E23.06474
G1 X94.711 Y67.173 F7800.000
G1 F1800
G1 X95.005 Y66.878 E23.07854
G1 X94.749 Y66.758 E23.08791
G1 X94.335 Y67.173 E23.10733
G1 X93.959 Y67.173 E23.11978
G1 X94.493 Y66.638 E23.14482
G1 X94.238 Y66.519 E23.15419
G1 X93.583 Y67.173 E23.18485
G1 X93.208 Y67.173 E23.19730
G1 X93.977 Y66.403 E23.23337
G1 X93.716 Y66.288 E23.24281
G1 X92.832 Y67.173 E23.28427
G1 X92.456 Y67.173 E23.29672
G1 X93.456 Y66.173 E23.34357
G1 X93.195 Y66.058 E23.35302
G1 X92.080 Y67.173 E23.40526
G1 X91.705 Y67.173 E23.41771
G1 X92.934 Y65.943 E23.47534
G1 X92.673 Y65.828 E23.48478
G1 X91.329 Y67.173 E23.54780
G1 X90.953 Y67.173 E23.56026
G1 X92.413 Y65.713 E23.62867
G1 X92.152 Y65.598 E23.63811
G1 X90.577 Y67.173 E23.71192
G1 X90.201 Y67.173 E23.72437
G1 X91.891 Y65.483 E23.80356
G1 X91.630 Y65.368 E23.81301
G1 X89.826 Y67.173 E23.89759
G1 X89.450 Y67.173 E23.91004
G1 X91.369 Y65.253 E24.00002
G1 X91.106 Y65.141 E24.00951
G1 X89.074 Y67.173 E24.10475
G1 X88.698 Y67.173 E24.11721
G1 X90.842 Y65.029 E24.21767
G1 X90.577 Y64.918 E24.22718
G1 X88.322 Y67.173 E24.33285
G1 X87.947 Y67.173 E24.34531
G1 X90.312 Y64.807 E24.45619
G1 X90.048 Y64.696 E24.46570
G1 X87.571 Y67.173 E24.58180
G1 X87.195 Y67.173 E24.59425
G1 X89.783 Y64.585 E24.71556
G1 X89.519 Y64.473 E24.72507
G1 X86.819 Y67.173 E24.85160
G1 X86.444 Y67.173 E24.86405
G1 X89.254 Y64.362 E24.99578
G1 X88.986 Y64.254 E25.00535
G1 X86.068 Y67.173 E25.14215
G1 X85.692 Y67.173 E25.15460
G1 X88.718 Y64.146 E25.29646
G1 X88.451 Y64.038 E25.30603
G1 X85.316 Y67.173 E25.45294
G1 X84.940 Y67.173 E25.46540
G1 X88.183 Y63.930 E25.61736
G1 X87.915 Y63.823 E25.62693
G1 X84.565 Y67.173 E25.78395
G1 X84.189 Y67.173 E25.79641
G1 X87.647 Y63.715 E25.95849
G1 X87.379 Y63.607 E25.96806
G1 X83.813 Y67.173 E26.13519
G1 X83.437 Y67.173 E26.14765
G1 X87.110 Y63.499 E26.31981
G1 X86.838 Y63.396 E26.32947
G1 X83.061 Y67.173 E26.50647
G1 X82.686 Y67.173 E26.51892
G1 X86.565 Y63.293 E26.70077
G1 X86.293 Y63.190 E26.71042
G1 X82.310 Y67.173 E26.89710
G1 X81.934 Y67.173 E26.90956
G1 X86.020 Y63.087 E27.10108
G1 X85.748 Y62.983 E27.11074
G1 X81.558 Y67.173 E27.30710
G1 X81.183 Y67.173 E27.31955
G1 X85.475 Y62.880 E27.52075
G1 X85.203 Y62.777 E27.53041
G1 X80.807 Y67.173 E27.73644
G1 X80.431 Y67.173 E27.74890
G1 X84.930 Y62.674 E27.95977
G1 X84.658 Y62.570 E27.96943
G1 X80.055 Y67.173 E28.18515
G1 X79.679 Y67.173 E28.19760
G1 X84.385 Y62.467 E28.41815
G1 X84.112 Y62.364 E28.42781
G1 X79.304 Y67.173 E28.65320
G1 X78.928 Y67.173 E28.66566
G1 X83.838 Y62.262 E28.89582
G1 X83.559 Y62.165 E28.90560
G1 X78.552 Y67.173 E29.14030
G1 X78.176 Y67.173 E29.15275
G1 X83.281 Y62.068 E29.39200
G1 X83.002 Y61.971 E29.40178
G1 X77.800 Y67.173 E29.64557
G1 X77.425 Y67.173 E29.65802
G1 X82.723 Y61.874 E29.90635
G1 X82.444 Y61.778 E29.91613
G1 X77.049 Y67.173 E30.16901
G1 X76.673 Y67.173 E30.18146
G1 X82.165 Y61.681 E30.43887
G1 X81.886 Y61.584 E30.44866
G1 X76.297 Y67.173 E30.71062
G1 X75.921 Y67.173 E30.72307
G1 X81.607 Y61.487 E30.98957
G1 X81.329 Y61.390 E30.99936
G1 X75.546 Y67.173 E31.27040
G1 X75.170 Y67.173 E31.28285
G1 X81.050 Y61.293 E31.55844
G1 X80.771 Y61.196 E31.56822
G1 X74.794 Y67.173 E31.84835
G1 X74.418 Y67.173 E31.86081
G1 X80.490 Y61.101 E32.14537
G1 X80.205 Y61.011 E32.15528
G1 X74.043 Y67.173 E32.44410
G1 X73.667 Y67.173 E32.45656
G1 X79.920 Y60.920 E32.74963
G1 X79.635 Y60.829 E32.75955
G1 X73.291 Y67.173 E33.05688
G1 X72.915 Y67.173 E33.06934
G1 X79.350 Y60.738 E33.37093
G1 X79.065 Y60.647 E33.38084
G1 X72.539 Y67.173 E33.68669
G1 X72.164 Y67.173 E33.69915
G1 X78.780 Y60.556 E34.00925
G1 X78.495 Y60.466 E34.01917
G1 X71.788 Y67.173 E34.33353
G1 X71.412 Y67.173 E34.34599
G1 X78.208 Y60.377 E34.66450
G1 X77.919 Y60.290 E34.67450
G1 X71.036 Y67.173 E34.99709
G1 X70.660 Y67.173 E35.00954
G1 X77.630 Y60.204 E35.33618
G1 X77.341 Y60.117 E35.34619
G1 X70.285 Y67.173 E35.67690
G1 X69.909 Y67.173 E35.68935
G1 X77.048 Y60.033 E36.02398
G1 X76.755 Y59.951 E36.03409
G1 X69.533 Y67.173 E36.37257
G1 X69.157 Y67.173 E36.38502
G1 X76.461 Y59.869 E36.72735
G1 X76.167 Y59.787 E36.73746
G1 X68.782 Y67.173 E37.08363
G1 X68.406 Y67.173 E37.09609
G1 X75.874 Y59.705 E37.44612
G1 X75.580 Y59.623 E37.45622
G1 X68.030 Y67.173 E37.81010
G1 X67.654 Y67.173 E37.82255
G1 X75.286 Y59.540 E38.18028
G1 X74.993 Y59.458 E38.19039
G1 X67.278 Y67.173 E38.55196
G1 X66.903 Y67.173 E38.56442
G1 X74.694 Y59.381 E38.92961
G1 X74.395 Y59.304 E38.93983
G1 X66.527 Y67.173 E39.30864
G1 X66.151 Y67.173 E39.32109
G1 X74.097 Y59.227 E39.69351
G1 X73.797 Y59.151 E39.70377
G1 X65.775 Y67.173 E40.07974
G1 X65.399 Y67.173 E40.09219
G1 X73.492 Y59.080 E40.47151
G1 X73.188 Y59.008 E40.48187
G1 X65.024 Y67.173 E40.86454
G1 X64.648 Y67.173 E40.87699
G1 X72.884 Y58.937 E41.26302
G1 X72.580 Y58.865 E41.27338
G1 X64.272 Y67.173 E41.66275
G1 X63.896 Y67.173 E41.67520
G1 X72.275 Y58.794 E42.06792
G1 X71.971 Y58.722 E42.07828
G1 X63.521 Y67.173 E42.47435
G1 X63.145 Y67.173 E42.48681
G1 X71.667 Y58.651 E42.88623
G1 X71.355 Y58.587 E42.89677
G1 X62.769 Y67.173 E43.29920
G1 X62.393 Y67.173 E43.31166
G1 X71.042 Y58.524 E43.71704
G1 X70.729 Y58.461 E43.72761
G1 X62.017 Y67.173 E44.13595
G1 X61.642 Y67.173 E44.14840
G1 X70.417 Y58.398 E44.55969
G1 X70.104 Y58.335 E44.57026
G1 X61.266 Y67.173 E44.98450
G1 X60.890 Y67.173 E44.99695
G1 X69.791 Y58.272 E45.41414
G1 X69.478 Y58.209 E45.42472
G1 X60.514 Y67.173 E45.84486
G1 X60.138 Y67.173 E45.85731
G1 X69.160 Y58.151 E46.28016
G1 X68.840 Y58.095 E46.29092
G1 X59.763 Y67.173 E46.71638
G1 X59.387 Y67.173 E46.72883
G1 X68.520 Y58.040 E47.15690
G1 X68.198 Y57.986 E47.16773
G1 X59.011 Y67.173 E47.59830
G1 X58.635 Y67.173 E47.61076
G1 X67.869 Y57.939 E48.04355
G1 X67.541 Y57.891 E48.05454
G1 X58.260 Y67.173 E48.48956
G1 X57.884 Y67.173 E48.50202
G1 X67.213 Y57.844 E48.93926
G1 X66.884 Y57.796 E48.95026
G1 X57.508 Y67.173 E49.38972
G1 X57.132 Y67.173 E49.40218
G1 X66.556 Y57.749 E49.84387
G1 X66.228 Y57.701 E49.85487
G1 X56.756 Y67.173 E50.29878
G1 X56.381 Y67.173 E50.31124
G1 X60.382 Y63.171 E50.49878
G1 X59.985 Y63.293 E50.51254
G1 X59.874 Y63.304 E50.51624
