; generated by Slic3r 1.3.1-dev (Build 2d100c4) on 2020-05-22 at 09:29:32

; external perimeters extrusion width = 0.45mm (2.44mm^3/s)
; perimeters extrusion width = 0.45mm (3.26mm^3/s)
; infill extrusion width = 0.45mm (6.51mm^3/s)
; solid infill extrusion width = 0.45mm (6.51mm^3/s)
; top infill extrusion width = 0.40mm (2.86mm^3/s)

M107
G92 E0
M190 S60 ; set bed temperature and wait for it to be reached
;D3D:START:START
T0
M104 S215 T0

G21
G90
M107
T0
G28
G29
M109 T0 S215 T0
G0 F3000
M107
T0
G92 E0
G0 X0 Y149 Z0.1 F3600
G1 Y49 E6.5 F1200
G0 Z1
G92 E0
; Filament gcode

G21 ; set units to millimeters
G90 ; use absolute coordinates
M82 ; use absolute distances for extrusion
G92 E0
G1 Z0.300 F9000.000
G1 E-3.20000 F4200.00000
G92 E0
G1 Z0.500 F9000.000
G1 X69.231 Y67.987 F9000.000
G1 Z0.300 F9000.000
G1 E3.20000 F4200.00000
M201 X800 Y800
M204 P800 T800
G1 F1200.000
G1 X70.763 Y66.635 E3.26770
G1 X72.153 Y65.557 E3.32598
G1 X73.723 Y64.485 E3.38897
G1 X75.482 Y63.445 E3.45666
G1 X77.050 Y62.646 E3.51494
G1 X78.793 Y61.887 E3.57793
G1 X80.715 Y61.195 E3.64563
G1 X82.405 Y60.704 E3.70391
G1 X84.259 Y60.285 E3.76689
G1 X86.278 Y59.965 E3.83459
G1 X88.171 Y59.791 E3.89758
G1 X90.071 Y59.736 E3.96057
G1 X91.971 Y59.800 E4.02356
G1 X93.864 Y59.983 E4.08655
G1 X95.601 Y60.258 E4.14482
G1 X97.458 Y60.669 E4.20781
G1 X99.420 Y61.239 E4.27551
G1 X101.075 Y61.835 E4.33379
G1 X102.822 Y62.585 E4.39677
G1 X104.642 Y63.513 E4.46447
G1 X106.156 Y64.409 E4.52275
G1 X107.731 Y65.474 E4.58573
G1 X109.346 Y66.726 E4.65344
G1 X110.666 Y67.889 E4.71171
G1 X112.013 Y69.231 E4.77470
G1 X113.365 Y70.763 E4.84240
G1 X114.443 Y72.153 E4.90068
G1 X115.515 Y73.723 E4.96367
G1 X116.555 Y75.482 E5.03136
G1 X117.354 Y77.050 E5.08964
G1 X118.113 Y78.793 E5.15263
G1 X118.805 Y80.715 E5.22033
G1 X119.296 Y82.405 E5.27860
G1 X119.715 Y84.259 E5.34159
G1 X120.035 Y86.277 E5.40929
G1 X120.209 Y88.171 E5.47228
G1 X120.264 Y90.071 E5.53527
G1 X120.209 Y91.829 E5.59354
G1 X120.035 Y93.723 E5.65653
G1 X119.742 Y95.601 E5.71952
G1 X119.331 Y97.458 E5.78251
G1 X118.761 Y99.420 E5.85021
G1 X118.165 Y101.075 E5.90849
G1 X117.415 Y102.822 E5.97147
G1 X116.487 Y104.642 E6.03917
G1 X115.591 Y106.156 E6.09745
G1 X114.526 Y107.731 E6.16043
G1 X113.274 Y109.346 E6.22814
G1 X112.111 Y110.666 E6.28641
G1 X110.769 Y112.013 E6.34940
G1 X109.236 Y113.365 E6.41710
G1 X107.847 Y114.443 E6.47537
G1 X106.277 Y115.515 E6.53837
G1 X104.518 Y116.555 E6.60606
G1 X102.950 Y117.354 E6.66434
G1 X101.207 Y118.113 E6.72733
G1 X99.285 Y118.805 E6.79503
G1 X97.458 Y119.331 E6.85802
G1 X95.601 Y119.742 E6.92100
G1 X93.723 Y120.035 E6.98399
G1 X91.971 Y120.200 E7.04227
G1 X89.929 Y120.264 E7.10997
G1 X88.171 Y120.209 E7.16824
G1 X86.277 Y120.035 E7.23123
G1 X84.399 Y119.742 E7.29422
G1 X82.542 Y119.331 E7.35721
G1 X80.580 Y118.761 E7.42491
G1 X78.925 Y118.165 E7.48318
G1 X77.178 Y117.415 E7.54617
G1 X75.358 Y116.487 E7.61387
G1 X73.844 Y115.591 E7.67214
G1 X72.269 Y114.526 E7.73513
G1 X70.654 Y113.274 E7.80284
G1 X69.231 Y112.013 E7.86582
G1 X67.987 Y110.769 E7.92410
G1 X66.635 Y109.236 E7.99180
G1 X65.557 Y107.847 E8.05007
G1 X64.485 Y106.277 E8.11306
G1 X63.445 Y104.518 E8.18076
G1 X62.646 Y102.950 E8.23904
G1 X61.887 Y101.207 E8.30203
G1 X61.195 Y99.285 E8.36973
G1 X60.669 Y97.458 E8.43271
G1 X60.258 Y95.601 E8.49570
G1 X59.983 Y93.864 E8.55398
G1 X59.800 Y91.971 E8.61697
G1 X59.736 Y89.929 E8.68467
G1 X59.791 Y88.171 E8.74294
G1 X59.965 Y86.277 E8.80593
G1 X60.285 Y84.259 E8.87363
G1 X60.704 Y82.405 E8.93662
G1 X61.195 Y80.715 E8.99489
G1 X61.887 Y78.793 E9.06259
G1 X62.646 Y77.050 E9.12558
G1 X63.445 Y75.482 E9.18386
G1 X64.485 Y73.723 E9.25155
G1 X65.474 Y72.269 E9.30983
G1 X66.635 Y70.763 E9.37282
G1 X67.889 Y69.334 E9.43581
G1 X69.188 Y68.029 E9.49681
M201 X1250 Y1250
M204 P1250 T1250
G1 F7200.000
G1 X69.334 Y67.889 E9.38475
G1 F7200.000
G1 X70.654 Y66.726 E8.40997
G1 F7200.000
G1 X70.763 Y66.635 E8.33103
G1 F7200.000
G1 X72.153 Y65.557 E7.35625
G1 F7200.000
G1 X72.269 Y65.474 E7.27735
G1 F7200.000
G1 X73.493 Y64.641 E6.45681
G1 E6.29681 F4200.00000
G92 E0
G1 Z0.500 F9000.000
G1 X96.777 Y96.364 F9000.000
G1 Z0.300 F9000.000
G1 E3.20000 F4200.00000
M201 X800 Y800
M204 P800 T800
G1 F1200.000
G1 X96.364 Y96.777 E3.21935
G1 X95.926 Y97.163 E3.23870
G1 X95.464 Y97.521 E3.25805
G1 X94.981 Y97.849 E3.27739
G1 X94.479 Y98.147 E3.29674
G1 X93.958 Y98.412 E3.31609
G1 X93.422 Y98.644 E3.33544
G1 X92.873 Y98.842 E3.35479
G1 X92.312 Y99.005 E3.37414
G1 X91.742 Y99.132 E3.39348
G1 X91.165 Y99.223 E3.41283
G1 X90.584 Y99.278 E3.43218
G1 X90.000 Y99.297 E3.45153
G1 X89.416 Y99.278 E3.47088
G1 X88.835 Y99.223 E3.49023
G1 X88.258 Y99.132 E3.50958
G1 X87.688 Y99.005 E3.52892
G1 X87.127 Y98.842 E3.54827
G1 X86.578 Y98.644 E3.56762
G1 X86.042 Y98.412 E3.58697
G1 X85.521 Y98.147 E3.60632
G1 X85.019 Y97.849 E3.62567
G1 X84.536 Y97.521 E3.64501
G1 X84.074 Y97.163 E3.66436
G1 X83.636 Y96.777 E3.68371
G1 X83.223 Y96.364 E3.70306
G1 X82.837 Y95.926 E3.72241
G1 X82.479 Y95.464 E3.74176
G1 X82.151 Y94.981 E3.76111
G1 X81.853 Y94.479 E3.78045
G1 X81.588 Y93.958 E3.79980
G1 X81.356 Y93.422 E3.81915
G1 X81.158 Y92.873 E3.83850
G1 X80.995 Y92.312 E3.85785
G1 X80.868 Y91.742 E3.87720
G1 X80.777 Y91.165 E3.89655
G1 X80.722 Y90.584 E3.91589
G1 X80.703 Y90.000 E3.93524
G1 X80.722 Y89.416 E3.95459
G1 X80.777 Y88.835 E3.97394
G1 X80.868 Y88.258 E3.99329
G1 X80.995 Y87.688 E4.01264
G1 X81.158 Y87.127 E4.03198
G1 X81.356 Y86.578 E4.05133
G1 X81.588 Y86.042 E4.07068
G1 X81.853 Y85.521 E4.09003
G1 X82.151 Y85.019 E4.10938
G1 X82.479 Y84.536 E4.12873
G1 X82.837 Y84.074 E4.14808
G1 X83.223 Y83.636 E4.16742
G1 X83.636 Y83.223 E4.18677
G1 X84.074 Y82.837 E4.20612
G1 X84.536 Y82.479 E4.22547
G1 X85.019 Y82.151 E4.24482
G1 X85.521 Y81.853 E4.26417
G1 X86.042 Y81.588 E4.28352
G1 X86.578 Y81.356 E4.30286
G1 X87.127 Y81.158 E4.32221
G1 X87.688 Y80.995 E4.34156
G1 X88.258 Y80.868 E4.36091
G1 X88.835 Y80.777 E4.38026
G1 X89.416 Y80.722 E4.39961
G1 X90.000 Y80.703 E4.41895
G1 X90.584 Y80.722 E4.43830
G1 X91.165 Y80.777 E4.45765
G1 X91.742 Y80.868 E4.47700
G1 X92.312 Y80.995 E4.49635
G1 X92.873 Y81.158 E4.51570
G1 X93.422 Y81.356 E4.53505
G1 X93.958 Y81.588 E4.55439
G1 X94.479 Y81.853 E4.57374
G1 X94.981 Y82.151 E4.59309
G1 X95.464 Y82.479 E4.61244
G1 X95.926 Y82.837 E4.63179
G1 X96.364 Y83.223 E4.65114
G1 X96.777 Y83.636 E4.67048
G1 X97.163 Y84.074 E4.68983
G1 X97.521 Y84.536 E4.70918
G1 X97.849 Y85.019 E4.72853
G1 X98.147 Y85.521 E4.74788
G1 X98.412 Y86.042 E4.76723
G1 X98.644 Y86.578 E4.78658
G1 X98.842 Y87.127 E4.80592
G1 X99.005 Y87.688 E4.82527
G1 X99.132 Y88.258 E4.84462
G1 X99.223 Y88.835 E4.86397
G1 X99.278 Y89.416 E4.88332
G1 X99.297 Y90.000 E4.90267
G1 X99.278 Y90.584 E4.92201
G1 X99.223 Y91.165 E4.94136
G1 X99.132 Y91.742 E4.96071
G1 X99.005 Y92.312 E4.98006
G1 X98.842 Y92.873 E4.99941
G1 X98.644 Y93.422 E5.01876
G1 X98.412 Y93.958 E5.03811
G1 X98.147 Y94.479 E5.05745
G1 X97.849 Y94.981 E5.07680
G1 X97.521 Y95.464 E5.09615
G1 X97.163 Y95.926 E5.11550
G1 X96.817 Y96.319 E5.13286
M201 X1250 Y1250
M204 P1250 T1250
G1 X96.583 Y96.182 F9000.000
M201 X800 Y800
M204 P800 T800
G1 F1200.000
G1 X96.182 Y96.583 E5.15166
G1 X95.756 Y96.958 E5.17045
G1 X95.308 Y97.306 E5.18925
G1 X94.839 Y97.625 E5.20804
G1 X94.351 Y97.914 E5.22684
G1 X93.845 Y98.171 E5.24563
G1 X93.324 Y98.397 E5.26443
G1 X92.791 Y98.589 E5.28322
G1 X92.246 Y98.747 E5.30202
G1 X91.692 Y98.871 E5.32081
G1 X91.132 Y98.960 E5.33961
G1 X90.567 Y99.013 E5.35841
G1 X90.000 Y99.031 E5.37720
G1 X89.433 Y99.013 E5.39600
G1 X88.868 Y98.960 E5.41479
G1 X88.308 Y98.871 E5.43359
G1 X87.754 Y98.747 E5.45238
G1 X87.209 Y98.589 E5.47118
G1 X86.676 Y98.397 E5.48997
G1 X86.155 Y98.171 E5.50877
G1 X85.649 Y97.914 E5.52756
G1 X85.161 Y97.625 E5.54636
G1 X84.692 Y97.306 E5.56515
G1 X84.244 Y96.958 E5.58395
G1 X83.818 Y96.583 E5.60275
G1 X83.417 Y96.182 E5.62154
G1 X83.042 Y95.756 E5.64034
G1 X82.694 Y95.308 E5.65913
G1 X82.375 Y94.839 E5.67793
G1 X82.086 Y94.351 E5.69672
G1 X81.829 Y93.845 E5.71552
G1 X81.603 Y93.324 E5.73431
G1 X81.411 Y92.791 E5.75311
G1 X81.253 Y92.246 E5.77190
G1 X81.129 Y91.692 E5.79070
G1 X81.040 Y91.132 E5.80949
G1 X80.987 Y90.567 E5.82829
G1 X80.969 Y90.000 E5.84709
G1 X80.987 Y89.433 E5.86588
G1 X81.040 Y88.868 E5.88468
G1 X81.129 Y88.308 E5.90347
G1 X81.253 Y87.754 E5.92227
G1 X81.411 Y87.209 E5.94106
G1 X81.603 Y86.676 E5.95986
G1 X81.829 Y86.155 E5.97865
G1 X82.086 Y85.649 E5.99745
G1 X82.375 Y85.161 E6.01624
G1 X82.694 Y84.692 E6.03504
G1 X83.042 Y84.244 E6.05383
G1 X83.417 Y83.818 E6.07263
G1 X83.818 Y83.417 E6.09143
G1 X84.244 Y83.042 E6.11022
G1 X84.692 Y82.694 E6.12902
G1 X85.161 Y82.375 E6.14781
G1 X85.649 Y82.086 E6.16661
G1 X86.155 Y81.829 E6.18540
G1 X86.676 Y81.603 E6.20420
G1 X87.209 Y81.411 E6.22299
G1 X87.754 Y81.253 E6.24179
G1 X88.308 Y81.129 E6.26058
G1 X88.868 Y81.040 E6.27938
G1 X89.433 Y80.987 E6.29817
G1 X90.000 Y80.969 E6.31697
G1 X90.567 Y80.987 E6.33577
G1 X91.132 Y81.040 E6.35456
G1 X91.692 Y81.129 E6.37336
G1 X92.246 Y81.253 E6.39215
G1 X92.791 Y81.411 E6.41095
G1 X93.324 Y81.603 E6.42974
G1 X93.845 Y81.829 E6.44854
G1 X94.351 Y82.086 E6.46733
G1 X94.839 Y82.375 E6.48613
G1 X95.308 Y82.694 E6.50492
G1 X95.756 Y83.042 E6.52372
G1 X96.182 Y83.417 E6.54251
G1 X96.583 Y83.818 E6.56131
G1 X96.958 Y84.244 E6.58011
G1 X97.306 Y84.692 E6.59890
G1 X97.625 Y85.161 E6.61770
G1 X97.914 Y85.649 E6.63649
G1 X98.171 Y86.155 E6.65529
G1 X98.397 Y86.676 E6.67408
G1 X98.589 Y87.209 E6.69288
G1 X98.747 Y87.754 E6.71167
G1 X98.871 Y88.308 E6.73047
G1 X98.960 Y88.868 E6.74926
G1 X99.013 Y89.433 E6.76806
G1 X99.031 Y90.000 E6.78685
G1 X99.013 Y90.567 E6.80565
G1 X98.960 Y91.132 E6.82445
G1 X98.871 Y91.692 E6.84324
G1 X98.747 Y92.246 E6.86204
G1 X98.589 Y92.791 E6.88083
G1 X98.397 Y93.324 E6.89963
G1 X98.171 Y93.845 E6.91842
G1 X97.914 Y94.351 E6.93722
G1 X97.625 Y94.839 E6.95601
G1 X97.306 Y95.308 E6.97481
G1 X96.958 Y95.756 E6.99360
G1 X96.623 Y96.137 E7.01041
M201 X1250 Y1250
M204 P1250 T1250
G1 X96.389 Y96.000 F9000.000
M201 X800 Y800
M204 P800 T800
G1 F1200.000
G1 X96.000 Y96.389 E7.02865
G1 X95.587 Y96.754 E7.04690
G1 X95.152 Y97.091 E7.06514
G1 X94.697 Y97.401 E7.08338
G1 X94.223 Y97.681 E7.10162
G1 X93.732 Y97.931 E7.11987
G1 X93.227 Y98.150 E7.13811
G1 X92.709 Y98.336 E7.15635
G1 X92.180 Y98.490 E7.17459
G1 X91.642 Y98.610 E7.19283
G1 X91.099 Y98.696 E7.21108
G1 X90.550 Y98.748 E7.22932
G1 X90.000 Y98.765 E7.24756
G1 X89.450 Y98.748 E7.26580
G1 X88.901 Y98.696 E7.28405
G1 X88.358 Y98.610 E7.30229
G1 X87.820 Y98.490 E7.32053
G1 X87.291 Y98.336 E7.33877
G1 X86.773 Y98.150 E7.35702
G1 X86.268 Y97.931 E7.37526
G1 X85.777 Y97.681 E7.39350
G1 X85.303 Y97.401 E7.41174
G1 X84.848 Y97.091 E7.42998
G1 X84.413 Y96.754 E7.44823
G1 X84.000 Y96.389 E7.46647
G1 X83.611 Y96.000 E7.48471
G1 X83.246 Y95.587 E7.50295
G1 X82.909 Y95.152 E7.52120
G1 X82.599 Y94.697 E7.53944
G1 X82.319 Y94.223 E7.55768
G1 X82.069 Y93.732 E7.57592
G1 X81.850 Y93.227 E7.59417
G1 X81.664 Y92.709 E7.61241
G1 X81.510 Y92.180 E7.63065
G1 X81.390 Y91.642 E7.64889
G1 X81.304 Y91.099 E7.66713
G1 X81.252 Y90.550 E7.68538
G1 X81.235 Y90.000 E7.70362
G1 X81.252 Y89.450 E7.72186
G1 X81.304 Y88.901 E7.74010
G1 X81.390 Y88.358 E7.75835
G1 X81.510 Y87.820 E7.77659
G1 X81.664 Y87.291 E7.79483
G1 X81.850 Y86.773 E7.81307
G1 X82.069 Y86.268 E7.83132
G1 X82.319 Y85.777 E7.84956
G1 X82.599 Y85.303 E7.86780
G1 X82.909 Y84.848 E7.88604
G1 X83.246 Y84.413 E7.90428
G1 X83.611 Y84.000 E7.92253
G1 X84.000 Y83.611 E7.94077
G1 X84.413 Y83.246 E7.95901
G1 X84.848 Y82.909 E7.97725
G1 X85.303 Y82.599 E7.99550
G1 X85.777 Y82.319 E8.01374
G1 X86.268 Y82.069 E8.03198
G1 X86.773 Y81.850 E8.05022
G1 X87.291 Y81.664 E8.06847
G1 X87.820 Y81.510 E8.08671
G1 X88.358 Y81.390 E8.10495
G1 X88.901 Y81.304 E8.12319
G1 X89.450 Y81.252 E8.14143
G1 X90.000 Y81.235 E8.15968
G1 X90.550 Y81.252 E8.17792
G1 X91.099 Y81.304 E8.19616
G1 X91.642 Y81.390 E8.21440
G1 X92.180 Y81.510 E8.23265
G1 X92.709 Y81.664 E8.25089
G1 X93.227 Y81.850 E8.26913
G1 X93.732 Y82.069 E8.28737
G1 X94.223 Y82.319 E8.30562
G1 X94.697 Y82.599 E8.32386
G1 X95.152 Y82.909 E8.34210
G1 X95.587 Y83.246 E8.36034
G1 X96.000 Y83.611 E8.37858
G1 X96.389 Y84.000 E8.39683
G1 X96.754 Y84.413 E8.41507
G1 X97.091 Y84.848 E8.43331
G1 X97.401 Y85.303 E8.45155
G1 X97.681 Y85.777 E8.46980
G1 X97.931 Y86.268 E8.48804
G1 X98.150 Y86.773 E8.50628
G1 X98.336 Y87.291 E8.52452
G1 X98.490 Y87.820 E8.54277
G1 X98.610 Y88.358 E8.56101
G1 X98.696 Y88.901 E8.57925
G1 X98.748 Y89.450 E8.59749
G1 X98.765 Y90.000 E8.61573
G1 X98.748 Y90.550 E8.63398
G1 X98.696 Y91.099 E8.65222
G1 X98.610 Y91.642 E8.67046
G1 X98.490 Y92.180 E8.68870
G1 X98.336 Y92.709 E8.70695
G1 X98.150 Y93.227 E8.72519
G1 X97.931 Y93.732 E8.74343
G1 X97.681 Y94.223 E8.76167
G1 X97.401 Y94.697 E8.77991
G1 X97.091 Y95.152 E8.79816
G1 X96.754 Y95.587 E8.81640
G1 X96.429 Y95.955 E8.83265
M201 X1250 Y1250
M204 P1250 T1250
G1 F7200.000
G1 X96.000 Y96.389 E8.49432
G1 F7200.000
G1 X95.587 Y96.754 E8.18918
G1 F7200.000
G1 X95.152 Y97.091 E7.88402
G1 F7200.000
G1 X94.697 Y97.401 E7.57888
G1 F7200.000
G1 X94.223 Y97.681 E7.27374
G1 F7200.000
G1 X93.732 Y97.931 E6.96860
G1 F7200.000
G1 X93.227 Y98.150 E6.66345
G1 F7200.000
G1 X92.709 Y98.336 E6.35831
G1 F7200.000
G1 X92.180 Y98.490 E6.05316
G1 F7200.000
G1 X91.721 Y98.592 E5.79265
G1 E5.63265 F4200.00000
G92 E0
G1 Z0.500 F9000.000
G1 X109.903 Y108.690 F9000.000
G1 Z0.300 F9000.000
G1 E3.20000 F4200.00000
M201 X800 Y800
M204 P800 T800
G1 F1200.000
G1 X108.690 Y109.903 E3.25683
G1 X107.404 Y111.038 E3.31365
G1 X106.049 Y112.089 E3.37048
G1 X104.630 Y113.053 E3.42730
G1 X103.154 Y113.926 E3.48413
G1 X101.625 Y114.705 E3.54095
G1 X100.051 Y115.386 E3.59778
G1 X98.437 Y115.967 E3.65460
G1 X96.790 Y116.446 E3.71143
G1 X95.116 Y116.820 E3.76825
G1 X93.422 Y117.088 E3.82508
G1 X91.714 Y117.249 E3.88190
G1 X90.000 Y117.303 E3.93873
G1 X88.286 Y117.249 E3.99555
G1 X86.578 Y117.088 E4.05238
G1 X84.884 Y116.820 E4.10920
G1 X83.210 Y116.446 E4.16603
G1 X81.563 Y115.967 E4.22285
G1 X79.949 Y115.386 E4.27968
G1 X78.375 Y114.705 E4.33650
G1 X76.846 Y113.926 E4.39333
G1 X75.370 Y113.053 E4.45015
G1 X73.951 Y112.089 E4.50698
G1 X72.596 Y111.038 E4.56380
G1 X71.310 Y109.903 E4.62063
G1 X70.097 Y108.690 E4.67745
G1 X68.962 Y107.404 E4.73428
G1 X67.911 Y106.049 E4.79110
G1 X66.947 Y104.630 E4.84793
G1 X66.074 Y103.154 E4.90476
G1 X65.295 Y101.625 E4.96158
G1 X64.614 Y100.051 E5.01840
G1 X64.033 Y98.437 E5.07523
G1 X63.554 Y96.790 E5.13205
G1 X63.180 Y95.116 E5.18888
G1 X62.912 Y93.422 E5.24571
G1 X62.751 Y91.714 E5.30253
G1 X62.697 Y90.000 E5.35936
G1 X62.751 Y88.286 E5.41618
G1 X62.912 Y86.578 E5.47301
G1 X63.180 Y84.884 E5.52983
G1 X63.554 Y83.210 E5.58666
G1 X64.033 Y81.563 E5.64348
G1 X64.614 Y79.949 E5.70031
G1 X65.295 Y78.375 E5.75713
G1 X66.074 Y76.846 E5.81396
G1 X66.947 Y75.370 E5.87078
G1 X67.911 Y73.951 E5.92761
G1 X68.962 Y72.596 E5.98443
G1 X70.097 Y71.310 E6.04126
G1 X71.310 Y70.097 E6.09808
G1 X72.596 Y68.962 E6.15491
G1 X73.951 Y67.911 E6.21173
G1 X75.370 Y66.947 E6.26856
G1 X76.846 Y66.074 E6.32538
G1 X78.375 Y65.295 E6.38221
G1 X79.949 Y64.614 E6.43903
G1 X81.563 Y64.033 E6.49586
G1 X83.210 Y63.554 E6.55268
G1 X84.884 Y63.180 E6.60951
G1 X86.578 Y62.912 E6.66633
G1 X88.286 Y62.751 E6.72316
G1 X90.000 Y62.697 E6.77998
G1 X91.714 Y62.751 E6.83681
G1 X93.422 Y62.912 E6.89363
G1 X95.116 Y63.180 E6.95046
G1 X96.790 Y63.554 E7.00729
G1 X98.437 Y64.033 E7.06411
G1 X100.051 Y64.614 E7.12094
G1 X101.625 Y65.295 E7.17776
G1 X103.154 Y66.074 E7.23459
G1 X104.630 Y66.947 E7.29141
G1 X106.049 Y67.911 E7.34824
G1 X107.404 Y68.962 E7.40506
G1 X108.690 Y70.097 E7.46189
G1 X109.903 Y71.310 E7.51871
G1 X111.038 Y72.596 E7.57554
G1 X112.089 Y73.951 E7.63236
G1 X113.053 Y75.370 E7.68919
G1 X113.926 Y76.846 E7.74601
G1 X114.705 Y78.375 E7.80284
G1 X115.386 Y79.949 E7.85966
G1 X115.967 Y81.563 E7.91649
G1 X116.446 Y83.210 E7.97331
G1 X116.820 Y84.884 E8.03014
G1 X117.088 Y86.578 E8.08696
G1 X117.249 Y88.286 E8.14379
G1 X117.303 Y90.000 E8.20061
G1 X117.249 Y91.714 E8.25744
