; generated by Slic3r 1.3.0 on 2020-11-13 at 18:11:44

; external perimeters extrusion width = 0.44mm (2.86mm^3/s)
; perimeters extrusion width = 0.56mm (4.14mm^3/s)
; infill extrusion width = 0.50mm (3.66mm^3/s)
; solid infill extrusion width = 0.56mm (3.10mm^3/s)
; top infill extrusion width = 0.56mm (3.10mm^3/s)

M107
;D3D:START:START
T0
M104 S215 T0

G21
G90
M107
T0
G28
G29
M109 T0 S215 T0
G0 F3000
M107
T0
G92 E0
G0 X0 Y149 Z0.1 F3600
G1 Y49 E6.5 F1200
G0 Z1
G92 E0
; Filament gcode

G21 ; set units to millimeters
G90 ; use absolute coordinates
M82 ; use absolute distances for extrusion
G92 E0
G1 Z0.300 F7800.000
G1 E-2.00000 F2400.00000
G92 E0
G1 X69.171 Y68.793 F7800.000
G1 E2.00000 F2400.00000
G1 F1800
G1 X69.572 Y68.439 E2.01772
G1 X69.995 Y68.111 E2.03544
G1 X70.437 Y67.810 E2.05317
G1 X70.898 Y67.538 E2.07089
G1 X71.374 Y67.295 E2.08861
G1 X71.865 Y67.083 E2.10633
G1 X72.369 Y66.902 E2.12405
G1 X72.882 Y66.752 E2.14178
G1 X73.404 Y66.636 E2.15950
G1 X73.933 Y66.552 E2.17722
G1 X74.465 Y66.502 E2.19494
G1 X74.934 Y66.487 E2.21047
G1 X75.534 Y66.502 E2.23036
G1 X76.067 Y66.552 E2.24810
G1 X76.596 Y66.636 E2.26583
G1 X77.118 Y66.752 E2.28355
G1 X77.631 Y66.902 E2.30127
G1 X78.135 Y67.083 E2.31899
G1 X78.626 Y67.295 E2.33671
G1 X79.102 Y67.538 E2.35444
G1 X79.563 Y67.810 E2.37216
G1 X80.005 Y68.111 E2.38988
G1 X80.428 Y68.439 E2.40760
G1 X80.829 Y68.793 E2.42532
G1 X81.207 Y69.171 E2.44305
G1 X81.561 Y69.572 E2.46077
G1 X81.889 Y69.995 E2.47849
G1 X82.190 Y70.437 E2.49621
G1 X82.462 Y70.898 E2.51393
G1 X82.705 Y71.374 E2.53166
G1 X82.917 Y71.865 E2.54938
G1 X83.098 Y72.369 E2.56710
G1 X83.248 Y72.882 E2.58482
G1 X83.364 Y73.404 E2.60254
G1 X83.448 Y73.933 E2.62027
G1 X83.498 Y74.465 E2.63799
G1 X83.515 Y75.000 E2.65571
G1 X83.498 Y75.535 E2.67343
G1 X83.448 Y76.068 E2.69117
G1 X83.350 Y76.660 E2.71106
G1 X83.248 Y77.118 E2.72659
G1 X83.098 Y77.631 E2.74432
G1 X82.917 Y78.135 E2.76204
G1 X82.705 Y78.626 E2.77976
G1 X82.462 Y79.102 E2.79748
G1 X82.190 Y79.563 E2.81520
G1 X81.889 Y80.005 E2.83294
G1 X81.526 Y80.467 E2.85240
G1 X81.207 Y80.829 E2.86837
G1 X80.829 Y81.208 E2.88610
G1 X80.386 Y81.593 E2.90556
G1 X80.005 Y81.889 E2.92153
G1 X79.563 Y82.190 E2.93925
G1 X79.102 Y82.462 E2.95697
G1 X78.626 Y82.705 E2.97470
G1 X78.134 Y82.917 E2.99243
G1 X77.580 Y83.113 E3.01189
G1 X77.118 Y83.248 E3.02786
G1 X76.596 Y83.364 E3.04558
G1 X76.067 Y83.448 E3.06330
G1 X75.535 Y83.498 E3.08102
G1 X75.000 Y83.515 E3.09875
G1 X74.465 Y83.498 E3.11647
G1 X73.933 Y83.448 E3.13419
G1 X73.404 Y83.364 E3.15193
G1 X72.819 Y83.229 E3.17182
G1 X72.369 Y83.098 E3.18735
G1 X71.865 Y82.917 E3.20509
G1 X71.316 Y82.675 E3.22498
G1 X70.898 Y82.462 E3.24051
G1 X70.437 Y82.190 E3.25824
G1 X69.995 Y81.889 E3.27596
G1 X69.572 Y81.561 E3.29370
G1 X69.124 Y81.160 E3.31359
G1 X68.793 Y80.829 E3.32912
G1 X68.439 Y80.428 E3.34684
G1 X68.111 Y80.005 E3.36456
G1 X67.810 Y79.563 E3.38229
G1 X67.538 Y79.102 E3.40001
G1 X67.295 Y78.626 E3.41773
G1 X67.083 Y78.135 E3.43545
G1 X66.902 Y77.631 E3.45317
G1 X66.752 Y77.118 E3.47090
G1 X66.636 Y76.595 E3.48864
G1 X66.546 Y76.001 E3.50853
G1 X66.502 Y75.535 E3.52406
G1 X66.485 Y75.000 E3.54178
G1 X66.502 Y74.465 E3.55950
G1 X66.552 Y73.933 E3.57722
G1 X66.636 Y73.404 E3.59495
G1 X66.752 Y72.882 E3.61267
G1 X66.902 Y72.369 E3.63039
G1 X67.083 Y71.865 E3.64811
G1 X67.295 Y71.374 E3.66583
G1 X67.538 Y70.898 E3.68356
G1 X67.810 Y70.437 E3.70128
G1 X68.111 Y69.995 E3.71900
G1 X68.398 Y69.625 E3.73453
G1 X68.792 Y69.171 E3.75442
G1 X69.129 Y68.835 E3.77017
G1 E1.77017 F2400.00000
G92 E0
G1 X55.946 Y54.709 F7800.000
G1 E2.00000 F2400.00000
G1 F1800
G1 X57.244 Y53.564 E2.05735
G1 X58.639 Y52.481 E2.11586
G1 X60.085 Y51.498 E2.17379
G1 X61.590 Y50.608 E2.23172
G1 X63.148 Y49.814 E2.28966
G1 X64.753 Y49.120 E2.34759
G1 X66.399 Y48.527 E2.40552
G1 X68.078 Y48.040 E2.46345
G1 X69.784 Y47.658 E2.52138
G1 X71.511 Y47.385 E2.57931
G1 X73.252 Y47.220 E2.63724
G1 X74.982 Y47.166 E2.69459
G1 X76.748 Y47.220 E2.75311
G1 X78.489 Y47.385 E2.81104
G1 X80.216 Y47.658 E2.86897
G1 X81.922 Y48.040 E2.92690
G1 X83.601 Y48.527 E2.98483
G1 X85.247 Y49.120 E3.04276
G1 X86.852 Y49.814 E3.10069
G1 X88.410 Y50.608 E3.15862
G1 X89.915 Y51.498 E3.21655
G1 X91.361 Y52.481 E3.27449
G1 X92.743 Y53.553 E3.33242
G1 X94.054 Y54.709 E3.39035
G1 X95.291 Y55.946 E3.44828
G1 X96.436 Y57.244 E3.50563
G1 X97.519 Y58.639 E3.56414
G1 X98.502 Y60.085 E3.62208
G1 X99.392 Y61.590 E3.68001
G1 X100.186 Y63.148 E3.73794
G1 X100.880 Y64.753 E3.79587
G1 X101.473 Y66.399 E3.85380
G1 X101.960 Y68.078 E3.91173
G1 X102.342 Y69.784 E3.96966
G1 X102.615 Y71.511 E4.02759
G1 X102.780 Y73.252 E4.08552
G1 X102.835 Y75.000 E4.14346
G1 X102.780 Y76.748 E4.20139
G1 X102.615 Y78.489 E4.25932
G1 X102.342 Y80.216 E4.31725
G1 X101.960 Y81.922 E4.37518
G1 X101.473 Y83.601 E4.43311
G1 X100.880 Y85.247 E4.49104
G1 X100.178 Y86.867 E4.54955
G1 X99.392 Y88.410 E4.60690
G1 X98.502 Y89.915 E4.66483
G1 X97.519 Y91.361 E4.72277
G1 X96.447 Y92.743 E4.78070
G1 X95.291 Y94.054 E4.83863
G1 X94.054 Y95.291 E4.89656
G1 X92.743 Y96.447 E4.95449
G1 X91.346 Y97.529 E5.01300
G1 X89.915 Y98.502 E5.07036
G1 X88.410 Y99.392 E5.12829
G1 X86.852 Y100.186 E5.18622
G1 X85.247 Y100.880 E5.24415
G1 X83.601 Y101.473 E5.30208
G1 X81.922 Y101.960 E5.36001
G1 X80.216 Y102.342 E5.41794
G1 X78.489 Y102.615 E5.47587
G1 X76.748 Y102.780 E5.53381
G1 X75.000 Y102.835 E5.59174
G1 X73.252 Y102.780 E5.64967
G1 X71.511 Y102.615 E5.70760
G1 X69.784 Y102.342 E5.76553
G1 X68.078 Y101.960 E5.82346
G1 X66.399 Y101.473 E5.88139
G1 X64.753 Y100.880 E5.93932
G1 X63.133 Y100.178 E5.99783
G1 X61.590 Y99.392 E6.05519
G1 X60.085 Y98.502 E6.11312
G1 X58.639 Y97.519 E6.17105
G1 X57.257 Y96.447 E6.22898
G1 X55.946 Y95.291 E6.28691
G1 X54.709 Y94.054 E6.34484
G1 X53.553 Y92.743 E6.40277
G1 X52.481 Y91.361 E6.46071
G1 X51.498 Y89.915 E6.51864
G1 X50.608 Y88.410 E6.57657
G1 X49.814 Y86.852 E6.63450
G1 X49.120 Y85.247 E6.69243
G1 X48.527 Y83.601 E6.75036
G1 X48.040 Y81.922 E6.80829
G1 X47.658 Y80.216 E6.86622
G1 X47.385 Y78.489 E6.92416
G1 X47.220 Y76.748 E6.98209
G1 X47.165 Y75.000 E7.04002
G1 X47.220 Y73.252 E7.09795
G1 X47.385 Y71.511 E7.15588
G1 X47.658 Y69.784 E7.21381
G1 X48.040 Y68.078 E7.27174
G1 X48.527 Y66.399 E7.32967
G1 X49.120 Y64.753 E7.38761
G1 X49.814 Y63.148 E7.44554
G1 X50.608 Y61.590 E7.50347
G1 X51.498 Y60.085 E7.56140
G1 X52.481 Y58.639 E7.61933
G1 X53.553 Y57.257 E7.67726
G1 X54.709 Y55.946 E7.73519
G1 X55.903 Y54.752 E7.79114
G1 X56.026 Y55.005 F7800.000
G1 F1800
G1 X54.798 Y56.233 E7.84882
G1 X56.233 Y54.798 E7.91621
G1 X57.517 Y53.666 E7.97305
G1 X58.523 Y52.885 E8.01534
G1 X52.883 Y58.524 E8.28017
G1 X52.593 Y58.899 E8.29590
G1 X51.972 Y59.812 E8.33256
G1 X59.812 Y51.972 E8.70070
G1 X60.331 Y51.619 E8.72155
G1 X60.845 Y51.315 E8.74139
G1 X51.315 Y60.845 E9.18892
G1 X50.770 Y61.767 E9.22447
G1 X61.767 Y50.770 E9.74087
G1 X62.544 Y50.370 E9.76989
G1 X50.370 Y62.543 E10.34158
G1 X49.979 Y63.311 E10.37019
G1 X63.311 Y49.979 E10.99630
G1 X63.982 Y49.684 E11.02063
G1 X49.684 Y63.982 E11.69207
G1 X49.397 Y64.646 E11.71608
G1 X64.646 Y49.397 E12.43218
G1 X65.269 Y49.150 E12.45445
G1 X49.150 Y65.269 E13.21141
G1 X48.938 Y65.858 E13.23218
G1 X65.858 Y48.938 E14.02672
G1 X66.446 Y48.727 E14.04748
G1 X48.727 Y66.446 E14.87960
G1 X48.559 Y66.990 E14.89851
G1 X66.990 Y48.559 E15.76407
G1 X67.521 Y48.405 E15.78242
G1 X48.405 Y67.521 E16.68013
G1 X48.251 Y68.051 E16.69848
G1 X68.051 Y48.251 E17.62835
G1 X68.553 Y48.125 E17.64553
G1 X48.125 Y68.553 E18.60485
G1 X48.017 Y69.038 E18.62134
G1 X69.038 Y48.017 E19.60852
G1 X69.523 Y47.908 E19.62502
G1 X47.908 Y69.523 E20.64007
G1 X47.806 Y70.002 E20.65635
G1 X70.002 Y47.806 E21.69874
G1 X70.450 Y47.735 E21.71378
G1 X47.735 Y70.450 E22.78051
G1 X47.664 Y70.897 E22.79555
G1 X70.897 Y47.664 E23.88661
G1 X71.345 Y47.593 E23.90165
G1 X47.593 Y71.345 E25.01705
G1 X47.532 Y71.782 E25.03171
G1 X71.782 Y47.532 E26.17050
G1 X72.198 Y47.493 E26.18436
G1 X47.493 Y72.198 E27.34452
G1 X47.454 Y72.613 E27.35839
G1 X72.613 Y47.454 E28.53992
G1 X73.029 Y47.414 E28.55379
G1 X47.414 Y73.029 E29.75669
G1 X47.380 Y73.440 E29.77039
G1 X73.440 Y47.380 E30.99422
G1 X73.829 Y47.368 E31.00713
G1 X47.368 Y73.829 E32.24979
G1 X47.355 Y74.218 E32.26270
G1 X74.218 Y47.355 E33.52419
G1 X74.607 Y47.343 E33.53711
G1 X47.343 Y74.607 E34.81742
G1 X47.331 Y74.995 E34.83034
G1 X74.995 Y47.331 E36.12949
G1 X75.366 Y47.337 E36.14180
G1 X47.336 Y75.367 E37.45813
G1 X47.347 Y75.732 E37.47025
G1 X75.731 Y47.348 E38.80320
G1 X76.097 Y47.359 E38.81533
G1 X47.359 Y76.097 E40.16488
G1 X47.370 Y76.462 E40.17701
G1 X76.462 Y47.370 E41.54318
G1 X76.827 Y47.382 E41.55531
G1 X47.382 Y76.827 E42.93810
G1 X47.414 Y77.171 E42.94958
G1 X77.171 Y47.414 E44.34703
G1 X77.515 Y47.446 E44.35851
G1 X47.446 Y77.515 E45.77058
G1 X47.479 Y77.859 E45.78206
G1 X77.860 Y47.479 E47.20876
G1 X78.204 Y47.511 E47.22024
G1 X47.511 Y78.203 E48.66157
G1 X47.544 Y78.548 E48.67304
G1 X78.548 Y47.544 E50.12900
G1 X78.873 Y47.595 E50.13995
G1 X47.595 Y78.873 E51.60881
G1 X47.646 Y79.198 E51.61974
G1 X79.198 Y47.646 E53.10145
G1 X79.523 Y47.698 E53.11238
G1 X47.698 Y79.523 E54.60694
G1 X47.749 Y79.848 E54.61787
G1 X79.848 Y47.749 E56.12527
G1 X80.173 Y47.801 E56.13620
G1 X47.801 Y80.173 E57.65644
G1 X47.864 Y80.486 E57.66705
G1 X80.486 Y47.864 E59.19899
G1 X80.794 Y47.933 E59.20947
G1 X47.933 Y80.794 E60.75264
G1 X48.002 Y81.102 E60.76311
G1 X81.102 Y48.002 E62.31750
G1 X81.409 Y48.071 E62.32797
G1 X48.071 Y81.409 E63.89358
G1 X48.139 Y81.717 E63.90405
G1 X81.717 Y48.139 E65.48089
G1 X82.021 Y48.212 E65.49127
G1 X48.212 Y82.021 E67.07901
G1 X48.296 Y82.313 E67.08910
G1 X82.313 Y48.296 E68.68656
G1 X82.605 Y48.381 E68.69665
G1 X48.381 Y82.605 E70.30383
G1 X48.466 Y82.897 E70.31392
G1 X82.897 Y48.466 E71.93082
G1 X83.188 Y48.551 E71.94091
G1 X48.551 Y83.188 E73.56753
G1 X48.635 Y83.480 E73.57762
G1 X83.480 Y48.635 E75.21396
G1 X83.764 Y48.728 E75.22388
G1 X48.728 Y83.764 E76.86923
G1 X48.827 Y84.041 E76.87900
G1 X84.041 Y48.827 E78.53266
G1 X84.318 Y48.927 E78.54244
G1 X48.927 Y84.318 E80.20442
G1 X49.027 Y84.595 E80.21419
G1 X84.595 Y49.027 E81.88450
G1 X84.872 Y49.127 E81.89427
G1 X49.127 Y84.872 E83.57289
G1 X49.226 Y85.148 E83.58266
G1 X85.148 Y49.226 E85.26961
G1 X85.417 Y49.335 E85.27921
G1 X49.335 Y85.417 E86.97365
G1 X49.448 Y85.679 E86.98316
G1 X85.679 Y49.448 E88.68460
G1 X85.942 Y49.562 E88.69411
G1 X49.562 Y85.942 E90.40255
G1 X49.676 Y86.205 E90.41206
G1 X86.205 Y49.676 E92.12751
G1 X86.468 Y49.790 E92.13702
G1 X49.790 Y86.468 E93.85946
G1 X49.903 Y86.731 E93.86897
G1 X86.731 Y49.903 E95.59842
G1 X86.986 Y50.025 E95.60780
G1 X50.025 Y86.986 E97.34352
G1 X50.152 Y87.235 E97.35282
G1 X87.235 Y50.152 E99.09428
G1 X87.484 Y50.279 E99.10358
G1 X69.824 Y67.939 E99.93293
G1 X70.192 Y67.689 E99.94769
G1 X70.798 Y67.341 E99.97092
G1 X87.734 Y50.406 E100.76623
G1 X87.983 Y50.533 E100.77552
G1 X71.511 Y67.005 E101.54908
G1 X72.117 Y66.776 E101.57059
G1 X88.233 Y50.660 E102.32742
G1 X88.477 Y50.792 E102.33665
G1 X72.654 Y66.616 E103.07973
G1 X73.144 Y66.502 E103.09643
G1 X88.714 Y50.932 E103.82761
G1 X88.950 Y51.072 E103.83673
G1 X73.600 Y66.423 E104.55762
G1 X74.029 Y66.370 E104.57200
G1 X89.187 Y51.212 E105.28382
G1 X89.424 Y51.352 E105.29295
G1 X74.439 Y66.337 E105.99666
G1 X74.827 Y66.325 E106.00957
G1 X89.660 Y51.492 E106.70614
G1 X89.896 Y51.633 E106.71525
G1 X75.195 Y66.334 E107.40561
G1 X75.555 Y66.350 E107.41758
G1 X90.120 Y51.785 E108.10155
G1 X90.344 Y51.938 E108.11055
G1 X75.899 Y66.382 E108.78890
G1 X76.229 Y66.429 E108.79998
G1 X90.568 Y52.090 E109.47334
G1 X90.792 Y52.242 E109.48234
G1 X76.554 Y66.481 E110.15099
G1 X76.862 Y66.549 E110.16146
G1 X91.016 Y52.395 E110.82619
G1 X91.241 Y52.547 E110.83519
G1 X77.165 Y66.623 E111.49621
G1 X77.456 Y66.708 E111.50629
G1 X91.456 Y52.708 E112.16374
G1 X91.668 Y52.872 E112.17265
G1 X77.741 Y66.799 E112.82669
G1 X78.018 Y66.899 E112.83646
G1 X91.880 Y53.037 E113.48745
G1 X92.092 Y53.201 E113.49636
G1 X78.286 Y67.007 E114.14471
G1 X78.549 Y67.121 E114.15422
G1 X92.305 Y53.366 E114.80018
G1 X92.517 Y53.530 E114.80909
G1 X78.803 Y67.244 E115.45309
G1 X79.052 Y67.371 E115.46238
G1 X92.726 Y53.698 E116.10449
G1 X92.926 Y53.874 E116.11335
G1 X79.293 Y67.507 E116.75356
G1 X79.529 Y67.647 E116.76269
G1 X93.126 Y54.050 E117.40119
G1 X93.326 Y54.227 E117.41005
G1 X79.757 Y67.795 E118.04724
G1 X79.982 Y67.948 E118.05624
G1 X93.526 Y54.403 E118.69230
G1 X93.726 Y54.580 E118.70115
G1 X80.198 Y68.108 E119.33646
G1 X80.410 Y68.272 E119.34537
G1 X93.926 Y54.756 E119.98011
G1 X93.976 Y54.800 E119.98230
G1 X94.117 Y54.941 E119.98896
G1 X80.615 Y68.444 E120.62306
G1 X80.815 Y68.621 E120.63192
G1 X94.306 Y55.130 E121.26546
G1 X94.494 Y55.318 E121.27430
G1 X81.008 Y68.803 E121.90759
G1 X81.197 Y68.992 E121.91643
G1 X94.682 Y55.506 E122.54972
G1 X94.870 Y55.694 E122.55856
G1 X81.380 Y69.185 E123.19211
G1 X81.556 Y69.385 E123.20097
G1 X95.059 Y55.883 E123.83507
G1 X95.200 Y56.024 E123.84172
G1 X95.244 Y56.074 E123.84391
G1 X81.728 Y69.590 E124.47866
G1 X81.892 Y69.802 E124.48757
G1 X95.420 Y56.274 E125.12287
G1 X95.597 Y56.474 E125.13173
G1 X82.052 Y70.018 E125.76779
G1 X82.205 Y70.243 E125.77679
G1 X95.773 Y56.674 E126.41398
G1 X95.950 Y56.874 E126.42284
G1 X82.353 Y70.471 E127.06134
G1 X82.493 Y70.707 E127.07047
G1 X96.126 Y57.074 E127.71068
G1 X96.303 Y57.274 E127.71954
G1 X82.629 Y70.948 E128.36165
G1 X82.756 Y71.197 E128.37094
G1 X96.469 Y57.484 E129.01491
G1 X96.634 Y57.696 E129.02382
G1 X82.879 Y71.451 E129.66975
G1 X82.993 Y71.714 E129.67926
G1 X96.798 Y57.908 E130.32759
G1 X96.963 Y58.120 E130.33650
G1 X83.101 Y71.982 E130.98748
G1 X83.201 Y72.259 E130.99725
G1 X97.128 Y58.332 E131.65127
G1 X97.292 Y58.544 E131.66018
G1 X83.292 Y72.544 E132.31763
G1 X83.377 Y72.835 E132.32772
G1 X97.453 Y58.759 E132.98874
G1 X97.605 Y58.984 E132.99774
G1 X83.451 Y73.138 E133.66247
G1 X83.519 Y73.446 E133.67294
G1 X97.758 Y59.208 E134.34159
G1 X97.910 Y59.432 E134.35059
G1 X83.571 Y73.771 E135.02395
G1 X83.618 Y74.101 E135.03503
G1 X98.062 Y59.656 E135.71337
G1 X98.215 Y59.880 E135.72237
G1 X83.650 Y74.445 E136.40635
G1 X83.668 Y74.804 E136.41827
G1 X98.367 Y60.104 E137.10855
G1 X98.508 Y60.340 E137.11767
G1 X83.675 Y75.173 E137.81423
G1 X83.663 Y75.562 E137.82715
G1 X98.648 Y60.577 E138.53086
G1 X98.788 Y60.813 E138.53999
G1 X83.630 Y75.971 E139.25181
G1 X83.576 Y76.402 E139.26624
G1 X98.928 Y61.050 E139.98721
G1 X99.068 Y61.286 E139.99634
G1 X83.498 Y76.856 E140.72752
G1 X83.384 Y77.346 E140.74422
G1 X99.208 Y61.523 E141.48730
G1 X99.340 Y61.767 E141.49653
G1 X83.224 Y77.884 E142.25336
G1 X82.994 Y78.489 E142.27487
G1 X99.467 Y62.017 E143.04844
G1 X99.594 Y62.266 E143.05773
G1 X82.659 Y79.202 E143.85305
G1 X82.311 Y79.808 E143.87626
G1 X82.061 Y80.176 E143.89104
G1 X99.721 Y62.516 E144.72040
G1 X99.848 Y62.765 E144.72969
G1 X62.765 Y99.848 E146.47116
G1 X63.014 Y99.975 E146.48046
G1 X99.975 Y63.014 E148.21618
G1 X100.097 Y63.270 E148.22556
G1 X63.270 Y100.096 E149.95497
G1 X63.533 Y100.210 E149.96448
G1 X100.211 Y63.532 E151.68689
G1 X100.324 Y63.795 E151.69640
G1 X63.796 Y100.324 E153.41182
G1 X64.058 Y100.438 E153.42132
G1 X100.438 Y64.058 E155.12975
G1 X100.552 Y64.321 E155.13926
G1 X64.321 Y100.551 E156.84069
G1 X64.584 Y100.665 E156.85019
G1 X100.665 Y64.584 E158.54463
G1 X100.774 Y64.852 E158.55423
G1 X64.852 Y100.774 E160.24117
G1 X65.128 Y100.873 E160.25094
G1 X100.873 Y65.128 E161.92956
G1 X100.973 Y65.405 E161.93934
G1 X65.405 Y100.973 E163.60964
G1 X65.682 Y101.073 E163.61941
G1 X101.073 Y65.682 E165.28139
G1 X101.173 Y65.959 E165.29116
G1 X65.959 Y101.173 E166.94483
G1 X66.236 Y101.272 E166.95460
G1 X101.272 Y66.236 E168.59994
G1 X101.365 Y66.520 E168.60987
G1 X66.520 Y101.365 E170.24621
G1 X66.812 Y101.449 E170.25629
G1 X101.449 Y66.812 E171.88291
G1 X101.534 Y67.103 E171.89300
G1 X67.103 Y101.534 E173.50990
G1 X67.395 Y101.619 E173.51999
G1 X101.619 Y67.395 E175.12717
G1 X101.704 Y67.687 E175.13726
G1 X67.687 Y101.704 E176.73471
G1 X67.979 Y101.788 E176.74480
G1 X101.788 Y67.979 E178.33254
