; generated by Slic3r 1.3.0 on 2020-11-13 at 18:11:47

; external perimeters extrusion width = 0.44mm (2.38mm^3/s)
; perimeters extrusion width = 0.56mm (4.14mm^3/s)
; infill extrusion width = 0.50mm (7.31mm^3/s)
; solid infill extrusion width = 0.56mm (8.27mm^3/s)
; top infill extrusion width = 0.56mm (4.14mm^3/s)

M107
M190 S60 ; set bed temperature and wait for it to be reached
;D3D:START:START
T0
M104 S215 T0

G21
G90
M107
T0
G28
G29
M109 T0 S215 T0
G0 F3000
M107
T0
G92 E0
G0 X0 Y149 Z0.1 F3600
G1 Y49 E6.5 F1200
G0 Z1
G92 E0
; Filament gcode

G21 ; set units to millimeters
G90 ; use absolute coordinates
M82 ; use absolute distances for extrusion
G92 E0
G1 Z0.300 F9000.000
G1 E-3.20000 F4200.00000
G92 E0
G1 Z0.500 F9000.000
G1 X84.171 Y83.793 F9000.000
G1 Z0.300 F9000.000
G1 E3.20000 F4200.00000
M201 X800 Y800
M204 P800 T800
G1 F1200
G1 X84.572 Y83.439 E3.21772
G1 X84.995 Y83.111 E3.23544
G1 X85.437 Y82.810 E3.25317
G1 X85.898 Y82.538 E3.27089
G1 X86.374 Y82.295 E3.28861
G1 X86.865 Y82.083 E3.30633
G1 X87.369 Y81.902 E3.32405
G1 X87.882 Y81.752 E3.34178
G1 X88.404 Y81.636 E3.35950
G1 X88.933 Y81.552 E3.37722
G1 X89.465 Y81.502 E3.39494
G1 X89.934 Y81.487 E3.41047
G1 X90.534 Y81.502 E3.43036
G1 X91.067 Y81.552 E3.44810
G1 X91.596 Y81.636 E3.46583
G1 X92.118 Y81.752 E3.48355
G1 X92.631 Y81.902 E3.50127
G1 X93.135 Y82.083 E3.51899
G1 X93.626 Y82.295 E3.53671
G1 X94.102 Y82.538 E3.55444
G1 X94.563 Y82.810 E3.57216
G1 X95.005 Y83.111 E3.58988
G1 X95.428 Y83.439 E3.60760
G1 X95.829 Y83.793 E3.62532
G1 X96.207 Y84.171 E3.64305
G1 X96.561 Y84.572 E3.66077
G1 X96.889 Y84.995 E3.67849
G1 X97.190 Y85.437 E3.69621
G1 X97.462 Y85.898 E3.71393
G1 X97.705 Y86.374 E3.73166
G1 X97.917 Y86.865 E3.74938
G1 X98.098 Y87.369 E3.76710
G1 X98.248 Y87.882 E3.78482
G1 X98.364 Y88.404 E3.80254
G1 X98.448 Y88.933 E3.82027
G1 X98.498 Y89.465 E3.83799
G1 X98.515 Y90.000 E3.85571
G1 X98.498 Y90.535 E3.87343
G1 X98.448 Y91.068 E3.89117
G1 X98.350 Y91.660 E3.91106
G1 X98.248 Y92.118 E3.92659
G1 X98.098 Y92.631 E3.94432
G1 X97.917 Y93.135 E3.96204
G1 X97.705 Y93.626 E3.97976
G1 X97.462 Y94.102 E3.99748
G1 X97.190 Y94.563 E4.01520
G1 X96.889 Y95.005 E4.03294
G1 X96.526 Y95.467 E4.05240
G1 X96.207 Y95.829 E4.06837
G1 X95.829 Y96.208 E4.08610
G1 X95.386 Y96.593 E4.10556
G1 X95.005 Y96.889 E4.12153
G1 X94.563 Y97.190 E4.13925
G1 X94.102 Y97.462 E4.15697
G1 X93.626 Y97.705 E4.17470
G1 X93.134 Y97.917 E4.19243
G1 X92.580 Y98.113 E4.21189
G1 X92.118 Y98.248 E4.22786
G1 X91.596 Y98.364 E4.24558
G1 X91.067 Y98.448 E4.26330
G1 X90.535 Y98.498 E4.28102
G1 X90.000 Y98.515 E4.29875
G1 X89.465 Y98.498 E4.31647
G1 X88.933 Y98.448 E4.33419
G1 X88.404 Y98.364 E4.35193
G1 X87.819 Y98.229 E4.37182
G1 X87.369 Y98.098 E4.38735
G1 X86.865 Y97.917 E4.40509
G1 X86.316 Y97.675 E4.42498
G1 X85.898 Y97.462 E4.44051
G1 X85.437 Y97.190 E4.45824
G1 X84.995 Y96.889 E4.47596
G1 X84.572 Y96.561 E4.49370
G1 X84.124 Y96.160 E4.51359
G1 X83.793 Y95.829 E4.52912
G1 X83.439 Y95.428 E4.54684
G1 X83.111 Y95.005 E4.56456
G1 X82.810 Y94.563 E4.58229
G1 X82.538 Y94.102 E4.60001
G1 X82.295 Y93.626 E4.61773
G1 X82.083 Y93.135 E4.63545
G1 X81.902 Y92.631 E4.65317
G1 X81.752 Y92.118 E4.67090
G1 X81.636 Y91.595 E4.68864
G1 X81.546 Y91.001 E4.70853
G1 X81.502 Y90.535 E4.72406
G1 X81.485 Y90.000 E4.74178
G1 X81.502 Y89.465 E4.75950
G1 X81.552 Y88.933 E4.77722
G1 X81.636 Y88.404 E4.79495
G1 X81.752 Y87.882 E4.81267
G1 X81.902 Y87.369 E4.83039
G1 X82.083 Y86.865 E4.84811
G1 X82.295 Y86.374 E4.86583
G1 X82.538 Y85.898 E4.88356
G1 X82.810 Y85.437 E4.90128
G1 X83.111 Y84.995 E4.91900
G1 X83.398 Y84.625 E4.93453
G1 X83.792 Y84.171 E4.95442
G1 X84.129 Y83.835 E4.97017
M201 X1250 Y1250
M204 P1250 T1250
G1 F7200
G1 X84.572 Y83.439 E4.64054
G1 F7200
G1 X84.995 Y83.111 E4.34411
G1 F7200
G1 X85.437 Y82.810 E4.04766
G1 F7200
G1 X85.898 Y82.538 E3.75122
G1 F7200
G1 X86.374 Y82.295 E3.45478
G1 F7200
G1 X86.865 Y82.083 E3.15834
G1 F7200
G1 X87.369 Y81.902 E2.86190
G1 F7200
G1 X87.882 Y81.752 E2.56546
G1 F7200
G1 X88.404 Y81.636 E2.26902
G1 F7200
G1 X88.933 Y81.552 E1.97258
G1 F7200
G1 X89.009 Y81.545 E1.93018
G1 E1.77017 F4200.00000
G92 E0
G1 Z0.500 F9000.000
G1 X70.946 Y69.709 F9000.000
G1 Z0.300 F9000.000
G1 E3.20000 F4200.00000
M201 X800 Y800
M204 P800 T800
G1 F1200
G1 X72.244 Y68.564 E3.25735
G1 X73.639 Y67.481 E3.31586
G1 X75.085 Y66.498 E3.37379
G1 X76.590 Y65.608 E3.43172
G1 X78.148 Y64.814 E3.48966
G1 X79.753 Y64.120 E3.54759
G1 X81.399 Y63.527 E3.60552
G1 X83.078 Y63.040 E3.66345
G1 X84.784 Y62.658 E3.72138
G1 X86.511 Y62.385 E3.77931
G1 X88.252 Y62.220 E3.83724
G1 X89.982 Y62.166 E3.89459
G1 X91.748 Y62.220 E3.95311
G1 X93.489 Y62.385 E4.01104
G1 X95.216 Y62.658 E4.06897
G1 X96.922 Y63.040 E4.12690
G1 X98.601 Y63.527 E4.18483
G1 X100.247 Y64.120 E4.24276
G1 X101.852 Y64.814 E4.30069
G1 X103.410 Y65.608 E4.35862
G1 X104.915 Y66.498 E4.41655
G1 X106.361 Y67.481 E4.47449
G1 X107.743 Y68.553 E4.53242
G1 X109.054 Y69.709 E4.59035
G1 X110.291 Y70.946 E4.64828
G1 X111.436 Y72.244 E4.70563
G1 X112.519 Y73.639 E4.76414
G1 X113.502 Y75.085 E4.82208
G1 X114.392 Y76.590 E4.88001
G1 X115.186 Y78.148 E4.93794
G1 X115.880 Y79.753 E4.99587
G1 X116.473 Y81.399 E5.05380
G1 X116.960 Y83.078 E5.11173
G1 X117.342 Y84.784 E5.16966
G1 X117.615 Y86.511 E5.22759
G1 X117.780 Y88.252 E5.28552
G1 X117.835 Y90.000 E5.34346
G1 X117.780 Y91.748 E5.40139
G1 X117.615 Y93.489 E5.45932
G1 X117.342 Y95.216 E5.51725
G1 X116.960 Y96.922 E5.57518
G1 X116.473 Y98.601 E5.63311
G1 X115.880 Y100.247 E5.69104
G1 X115.178 Y101.867 E5.74955
G1 X114.392 Y103.410 E5.80690
G1 X113.502 Y104.915 E5.86483
G1 X112.519 Y106.361 E5.92277
G1 X111.447 Y107.743 E5.98070
G1 X110.291 Y109.054 E6.03863
G1 X109.054 Y110.291 E6.09656
G1 X107.743 Y111.447 E6.15449
G1 X106.346 Y112.529 E6.21300
G1 X104.915 Y113.502 E6.27036
G1 X103.410 Y114.392 E6.32829
G1 X101.852 Y115.186 E6.38622
G1 X100.247 Y115.880 E6.44415
G1 X98.601 Y116.473 E6.50208
G1 X96.922 Y116.960 E6.56001
G1 X95.216 Y117.342 E6.61794
G1 X93.489 Y117.615 E6.67587
G1 X91.748 Y117.780 E6.73381
G1 X90.000 Y117.835 E6.79174
G1 X88.252 Y117.780 E6.84967
G1 X86.511 Y117.615 E6.90760
G1 X84.784 Y117.342 E6.96553
G1 X83.078 Y116.960 E7.02346
G1 X81.399 Y116.473 E7.08139
G1 X79.753 Y115.880 E7.13932
G1 X78.133 Y115.178 E7.19783
G1 X76.590 Y114.392 E7.25519
G1 X75.085 Y113.502 E7.31312
G1 X73.639 Y112.519 E7.37105
G1 X72.257 Y111.447 E7.42898
G1 X70.946 Y110.291 E7.48691
G1 X69.709 Y109.054 E7.54484
G1 X68.553 Y107.743 E7.60277
G1 X67.481 Y106.361 E7.66071
G1 X66.498 Y104.915 E7.71864
G1 X65.608 Y103.410 E7.77657
G1 X64.814 Y101.852 E7.83450
G1 X64.120 Y100.247 E7.89243
G1 X63.527 Y98.601 E7.95036
G1 X63.040 Y96.922 E8.00829
G1 X62.658 Y95.216 E8.06622
G1 X62.385 Y93.489 E8.12416
G1 X62.220 Y91.748 E8.18209
G1 X62.165 Y90.000 E8.24002
G1 X62.220 Y88.252 E8.29795
G1 X62.385 Y86.511 E8.35588
G1 X62.658 Y84.784 E8.41381
G1 X63.040 Y83.078 E8.47174
G1 X63.527 Y81.399 E8.52967
G1 X64.120 Y79.753 E8.58761
G1 X64.814 Y78.148 E8.64554
G1 X65.608 Y76.590 E8.70347
G1 X66.498 Y75.085 E8.76140
G1 X67.481 Y73.639 E8.81933
G1 X68.553 Y72.257 E8.87726
G1 X69.709 Y70.946 E8.93519
G1 X70.903 Y69.752 E8.99114
M201 X1250 Y1250
M204 P1250 T1250
G1 X71.026 Y70.005 F9000.000
M201 X800 Y800
M204 P800 T800
G1 F1200
G1 X69.798 Y71.233 E9.04882
G1 X71.233 Y69.798 E9.11621
G1 X72.517 Y68.666 E9.17305
G1 X73.523 Y67.885 E9.21534
G1 X67.883 Y73.524 E9.48017
G1 X67.593 Y73.899 E9.49590
G1 X66.972 Y74.812 E9.53256
G1 X74.812 Y66.972 E9.90070
G1 X75.331 Y66.619 E9.92155
G1 X75.845 Y66.315 E9.94139
G1 X66.315 Y75.845 E10.38892
G1 X65.770 Y76.767 E10.42447
G1 X76.767 Y65.770 E10.94087
G1 X77.544 Y65.370 E10.96989
G1 X65.370 Y77.543 E11.54158
G1 X64.979 Y78.311 E11.57019
G1 X78.311 Y64.979 E12.19630
G1 X78.982 Y64.684 E12.22063
G1 X64.684 Y78.982 E12.89207
G1 X64.397 Y79.646 E12.91608
G1 X79.646 Y64.397 E13.63218
G1 X80.269 Y64.150 E13.65445
G1 X64.150 Y80.269 E14.41141
G1 X63.938 Y80.858 E14.43218
G1 X80.858 Y63.938 E15.22672
G1 X81.446 Y63.727 E15.24748
G1 X63.727 Y81.446 E16.07960
G1 X63.559 Y81.990 E16.09851
G1 X81.990 Y63.559 E16.96407
G1 X82.521 Y63.405 E16.98242
G1 X63.405 Y82.521 E17.88013
G1 X63.251 Y83.051 E17.89848
G1 X83.051 Y63.251 E18.82835
G1 X83.553 Y63.125 E18.84553
G1 X63.125 Y83.553 E19.80485
G1 X63.017 Y84.038 E19.82134
G1 X84.038 Y63.017 E20.80852
G1 X84.523 Y62.908 E20.82502
G1 X62.908 Y84.523 E21.84007
G1 X62.806 Y85.002 E21.85635
G1 X85.002 Y62.806 E22.89874
G1 X85.450 Y62.735 E22.91378
G1 X62.735 Y85.450 E23.98051
G1 X62.664 Y85.897 E23.99555
G1 X85.897 Y62.664 E25.08661
G1 X86.345 Y62.593 E25.10165
G1 X62.593 Y86.345 E26.21705
G1 X62.532 Y86.782 E26.23171
G1 X86.782 Y62.532 E27.37050
G1 X87.198 Y62.493 E27.38436
G1 X62.493 Y87.198 E28.54452
G1 X62.454 Y87.613 E28.55839
G1 X87.613 Y62.454 E29.73992
G1 X88.029 Y62.414 E29.75379
G1 X62.414 Y88.029 E30.95669
G1 X62.380 Y88.440 E30.97039
G1 X88.440 Y62.380 E32.19422
G1 X88.829 Y62.368 E32.20713
G1 X62.368 Y88.829 E33.44979
G1 X62.355 Y89.218 E33.46270
G1 X89.218 Y62.355 E34.72419
G1 X89.607 Y62.343 E34.73711
G1 X62.343 Y89.607 E36.01742
G1 X62.331 Y89.995 E36.03034
G1 X89.995 Y62.331 E37.32949
G1 X90.366 Y62.337 E37.34180
G1 X62.336 Y90.367 E38.65813
G1 X62.347 Y90.732 E38.67025
G1 X90.731 Y62.348 E40.00320
G1 X91.097 Y62.359 E40.01533
G1 X62.359 Y91.097 E41.36488
G1 X62.370 Y91.462 E41.37701
G1 X91.462 Y62.370 E42.74318
G1 X91.827 Y62.382 E42.75531
G1 X62.382 Y91.827 E44.13810
G1 X62.414 Y92.171 E44.14958
G1 X92.171 Y62.414 E45.54703
G1 X92.515 Y62.446 E45.55851
G1 X62.446 Y92.515 E46.97058
G1 X62.479 Y92.859 E46.98206
G1 X92.860 Y62.479 E48.40876
G1 X93.204 Y62.511 E48.42024
G1 X62.511 Y93.203 E49.86157
G1 X62.544 Y93.548 E49.87304
G1 X93.548 Y62.544 E51.32900
G1 X93.873 Y62.595 E51.33995
G1 X62.595 Y93.873 E52.80881
G1 X62.646 Y94.198 E52.81974
G1 X94.198 Y62.646 E54.30145
G1 X94.523 Y62.698 E54.31238
G1 X62.698 Y94.523 E55.80694
G1 X62.749 Y94.848 E55.81787
G1 X94.848 Y62.749 E57.32527
G1 X95.173 Y62.801 E57.33620
G1 X62.801 Y95.173 E58.85644
G1 X62.864 Y95.486 E58.86705
G1 X95.486 Y62.864 E60.39899
G1 X95.794 Y62.933 E60.40947
G1 X62.933 Y95.794 E61.95264
G1 X63.002 Y96.102 E61.96311
G1 X96.102 Y63.002 E63.51750
G1 X96.409 Y63.071 E63.52797
G1 X63.071 Y96.409 E65.09358
G1 X63.139 Y96.717 E65.10405
G1 X96.717 Y63.139 E66.68089
G1 X97.021 Y63.212 E66.69127
G1 X63.212 Y97.021 E68.27901
G1 X63.296 Y97.313 E68.28910
G1 X97.313 Y63.296 E69.88656
G1 X97.605 Y63.381 E69.89665
G1 X63.381 Y97.605 E71.50383
G1 X63.466 Y97.897 E71.51392
G1 X97.897 Y63.466 E73.13082
G1 X98.188 Y63.551 E73.14091
G1 X63.551 Y98.188 E74.76753
G1 X63.635 Y98.480 E74.77762
G1 X98.480 Y63.635 E76.41396
G1 X98.764 Y63.728 E76.42388
G1 X63.728 Y98.764 E78.06923
G1 X63.827 Y99.041 E78.07900
G1 X99.041 Y63.827 E79.73266
G1 X99.318 Y63.927 E79.74244
G1 X63.927 Y99.318 E81.40442
G1 X64.027 Y99.595 E81.41419
G1 X99.595 Y64.027 E83.08450
G1 X99.872 Y64.127 E83.09427
G1 X64.127 Y99.872 E84.77289
G1 X64.226 Y100.148 E84.78266
G1 X100.148 Y64.226 E86.46961
G1 X100.417 Y64.335 E86.47921
G1 X64.335 Y100.417 E88.17365
G1 X64.448 Y100.679 E88.18316
G1 X100.679 Y64.448 E89.88460
G1 X100.942 Y64.562 E89.89411
G1 X64.562 Y100.942 E91.60255
G1 X64.676 Y101.205 E91.61206
G1 X101.205 Y64.676 E93.32751
G1 X101.468 Y64.790 E93.33702
G1 X64.790 Y101.468 E95.05946
G1 X64.903 Y101.731 E95.06897
G1 X101.731 Y64.903 E96.79842
G1 X101.986 Y65.025 E96.80780
G1 X65.025 Y101.986 E98.54352
G1 X65.152 Y102.235 E98.55282
G1 X102.235 Y65.152 E100.29428
G1 X102.484 Y65.279 E100.30358
G1 X84.824 Y82.939 E101.13293
G1 X85.192 Y82.689 E101.14769
G1 X85.798 Y82.341 E101.17092
G1 X102.734 Y65.406 E101.96623
G1 X102.983 Y65.533 E101.97552
G1 X86.511 Y82.005 E102.74908
G1 X87.117 Y81.776 E102.77059
G1 X103.233 Y65.660 E103.52742
G1 X103.477 Y65.792 E103.53665
G1 X87.654 Y81.616 E104.27973
G1 X88.144 Y81.502 E104.29643
G1 X103.714 Y65.932 E105.02761
G1 X103.950 Y66.072 E105.03673
G1 X88.600 Y81.423 E105.75762
G1 X89.029 Y81.370 E105.77200
G1 X104.187 Y66.212 E106.48382
G1 X104.424 Y66.352 E106.49295
G1 X89.439 Y81.337 E107.19666
G1 X89.827 Y81.325 E107.20957
G1 X104.660 Y66.492 E107.90614
G1 X104.896 Y66.633 E107.91525
G1 X90.195 Y81.334 E108.60561
G1 X90.555 Y81.350 E108.61758
G1 X105.120 Y66.785 E109.30155
G1 X105.344 Y66.938 E109.31055
G1 X90.899 Y81.382 E109.98890
G1 X91.229 Y81.429 E109.99998
G1 X105.568 Y67.090 E110.67334
G1 X105.792 Y67.242 E110.68234
G1 X91.554 Y81.481 E111.35099
G1 X91.862 Y81.549 E111.36146
G1 X106.016 Y67.395 E112.02619
G1 X106.241 Y67.547 E112.03519
G1 X92.165 Y81.623 E112.69621
G1 X92.456 Y81.708 E112.70629
G1 X106.456 Y67.708 E113.36374
G1 X106.668 Y67.872 E113.37265
G1 X92.741 Y81.799 E114.02669
G1 X93.018 Y81.899 E114.03646
G1 X106.880 Y68.037 E114.68745
G1 X107.092 Y68.201 E114.69636
G1 X93.286 Y82.007 E115.34471
G1 X93.549 Y82.121 E115.35422
G1 X107.305 Y68.366 E116.00018
G1 X107.517 Y68.530 E116.00909
G1 X93.803 Y82.244 E116.65309
G1 X94.052 Y82.371 E116.66238
G1 X107.726 Y68.698 E117.30449
G1 X107.926 Y68.874 E117.31335
G1 X94.293 Y82.507 E117.95356
G1 X94.529 Y82.647 E117.96269
G1 X108.126 Y69.050 E118.60119
G1 X108.326 Y69.227 E118.61005
G1 X94.757 Y82.795 E119.24724
G1 X94.982 Y82.948 E119.25624
G1 X108.526 Y69.403 E119.89230
G1 X108.726 Y69.580 E119.90115
G1 X95.198 Y83.108 E120.53646
G1 X95.410 Y83.272 E120.54537
G1 X108.926 Y69.756 E121.18011
G1 X108.976 Y69.800 E121.18230
G1 X109.117 Y69.941 E121.18896
G1 X95.615 Y83.444 E121.82306
G1 X95.815 Y83.621 E121.83192
G1 X109.306 Y70.130 E122.46546
G1 X109.494 Y70.318 E122.47430
G1 X96.008 Y83.803 E123.10759
G1 X96.197 Y83.992 E123.11643
G1 X109.682 Y70.506 E123.74972
G1 X109.870 Y70.694 E123.75856
G1 X96.380 Y84.185 E124.39211
G1 X96.556 Y84.385 E124.40097
G1 X110.059 Y70.883 E125.03507
G1 X110.200 Y71.024 E125.04172
G1 X110.244 Y71.074 E125.04391
G1 X96.728 Y84.590 E125.67866
G1 X96.892 Y84.802 E125.68757
G1 X110.420 Y71.274 E126.32287
G1 X110.597 Y71.474 E126.33173
G1 X97.052 Y85.018 E126.96779
G1 X97.205 Y85.243 E126.97679
G1 X110.773 Y71.674 E127.61398
G1 X110.950 Y71.874 E127.62284
G1 X97.353 Y85.471 E128.26134
G1 X97.493 Y85.707 E128.27047
G1 X111.126 Y72.074 E128.91068
G1 X111.303 Y72.274 E128.91954
G1 X97.629 Y85.948 E129.56165
G1 X97.756 Y86.197 E129.57094
G1 X111.469 Y72.484 E130.21491
G1 X111.634 Y72.696 E130.22382
G1 X97.879 Y86.451 E130.86975
G1 X97.993 Y86.714 E130.87926
G1 X111.798 Y72.908 E131.52759
G1 X111.963 Y73.120 E131.53650
G1 X98.101 Y86.982 E132.18748
G1 X98.201 Y87.259 E132.19725
G1 X112.128 Y73.332 E132.85127
G1 X112.292 Y73.544 E132.86018
G1 X98.292 Y87.544 E133.51763
G1 X98.377 Y87.835 E133.52772
G1 X112.453 Y73.759 E134.18874
G1 X112.605 Y73.984 E134.19774
G1 X98.451 Y88.138 E134.86247
G1 X98.519 Y88.446 E134.87294
G1 X112.758 Y74.208 E135.54159
G1 X112.910 Y74.432 E135.55059
G1 X98.571 Y88.771 E136.22395
G1 X98.618 Y89.101 E136.23503
G1 X113.062 Y74.656 E136.91337
G1 X113.215 Y74.880 E136.92237
G1 X98.650 Y89.445 E137.60635
G1 X98.668 Y89.804 E137.61827
G1 X113.367 Y75.104 E138.30855
G1 X113.508 Y75.340 E138.31767
G1 X98.675 Y90.173 E139.01423
G1 X98.663 Y90.562 E139.02715
G1 X113.648 Y75.577 E139.73086
G1 X113.788 Y75.813 E139.73999
G1 X98.630 Y90.971 E140.45181
G1 X98.576 Y91.402 E140.46624
G1 X113.928 Y76.050 E141.18721
G1 X114.068 Y76.286 E141.19634
G1 X98.498 Y91.856 E141.92752
G1 X98.384 Y92.346 E141.94422
G1 X114.208 Y76.523 E142.68730
G1 X114.340 Y76.767 E142.69653
G1 X98.224 Y92.884 E143.45336
G1 X97.994 Y93.489 E143.47487
G1 X114.467 Y77.017 E144.24844
G1 X114.594 Y77.266 E144.25773
G1 X97.659 Y94.202 E145.05305
G1 X97.311 Y94.808 E145.07626
G1 X97.061 Y95.176 E145.09104
G1 X114.721 Y77.516 E145.92040
G1 X114.848 Y77.765 E145.92969
G1 X77.765 Y114.848 E147.67116
G1 X78.014 Y114.975 E147.68046
G1 X114.975 Y78.014 E149.41618
G1 X115.097 Y78.270 E149.42556
G1 X78.270 Y115.096 E151.15497
G1 X78.533 Y115.210 E151.16448
G1 X115.211 Y78.532 E152.88689
G1 X115.324 Y78.795 E152.89640
G1 X78.796 Y115.324 E154.61182
G1 X79.058 Y115.438 E154.62132
G1 X115.438 Y79.058 E156.32975
G1 X115.552 Y79.321 E156.33926
