; generated by Slic3r 1.3.1-dev (Build 2d100c4) on 2020-08-25 at 09:17:38

; external perimeters extrusion width = 0.44mm (2.38mm^3/s)
; perimeters extrusion width = 0.56mm (4.14mm^3/s)
; infill extrusion width = 0.50mm (7.31mm^3/s)
; solid infill extrusion width = 0.56mm (8.27mm^3/s)
; top infill extrusion width = 0.56mm (4.14mm^3/s)

M107
G92 E0
M190 S60 ; set bed temperature and wait for it to be reached
;D3D:START:START
T0
M104 S215 T0

G21
G90
M107
T0
G28
G29
M109 T0 S215 T0
G0 F3000
M107
T0
G92 E0
G0 X0 Y149 Z0.1 F3600
G1 Y49 E6.5 F1200
G0 Z1
G92 E0
; Filament gcode

G21 ; set units to millimeters
G90 ; use absolute coordinates
M82 ; use absolute distances for extrusion
G92 E0
G1 Z0.300 F9000.000
G1 E-3.20000 F4200.00000
G92 E0
G1 Z0.500 F9000.000
G1 X65.942 Y114.285 F9000.000
G1 Z0.300 F9000.000
G1 E3.20000 F4200.00000
M201 X800 Y800
M204 P800 T800
G1 F1200.000
G1 X66.329 Y114.118 E3.21397
G1 X66.620 Y114.043 E3.22390
G1 X66.917 Y114.006 E3.23382
G1 X67.338 Y114.019 E3.24779
G1 X67.761 Y114.113 E3.26213
G1 X68.148 Y114.281 E3.27610
G1 X68.400 Y114.441 E3.28602
G1 X68.631 Y114.632 E3.29595
G1 X68.910 Y114.949 E3.30992
G1 X69.130 Y115.321 E3.32426
G1 X69.277 Y115.728 E3.33860
G1 X69.345 Y116.156 E3.35293
G1 X69.331 Y116.588 E3.36727
G1 X69.237 Y117.011 E3.38161
G1 X69.069 Y117.398 E3.39558
G1 X68.909 Y117.650 E3.40550
G1 X68.718 Y117.881 E3.41543
G1 X68.401 Y118.160 E3.42940
G1 X68.029 Y118.380 E3.44374
G1 X67.622 Y118.527 E3.45808
G1 X67.194 Y118.595 E3.47241
G1 X66.762 Y118.581 E3.48675
G1 X66.339 Y118.487 E3.50109
G1 X65.942 Y118.315 E3.51543
G1 X65.584 Y118.072 E3.52976
G1 X65.278 Y117.766 E3.54410
G1 X65.035 Y117.408 E3.55844
G1 X64.868 Y117.021 E3.57241
G1 X64.793 Y116.730 E3.58234
G1 X64.756 Y116.433 E3.59226
G1 X64.769 Y116.012 E3.60623
G1 X64.863 Y115.589 E3.62057
G1 X65.035 Y115.192 E3.63490
G1 X65.278 Y114.834 E3.64924
G1 X65.584 Y114.528 E3.66358
G1 X65.893 Y114.319 E3.67593
M201 X1250 Y1250
M204 P1250 T1250
G1 X66.071 Y114.519 F9000.000
M201 X800 Y800
M204 P800 T800
G1 F1200.000
G1 X66.416 Y114.370 E3.68838
G1 X66.669 Y114.304 E3.69706
G1 X66.929 Y114.272 E3.70573
G1 X67.305 Y114.283 E3.71818
G1 X67.678 Y114.367 E3.73085
G1 X68.023 Y114.516 E3.74330
G1 X68.244 Y114.657 E3.75198
G1 X68.446 Y114.823 E3.76066
G1 X68.694 Y115.105 E3.77311
G1 X68.889 Y115.435 E3.78578
G1 X69.019 Y115.795 E3.79845
G1 X69.078 Y116.172 E3.81112
G1 X69.067 Y116.555 E3.82380
G1 X68.983 Y116.928 E3.83647
G1 X68.834 Y117.273 E3.84892
G1 X68.693 Y117.494 E3.85760
G1 X68.527 Y117.696 E3.86628
G1 X68.245 Y117.944 E3.87873
G1 X67.915 Y118.139 E3.89140
G1 X67.555 Y118.269 E3.90407
G1 X67.178 Y118.328 E3.91674
G1 X66.795 Y118.317 E3.92942
G1 X66.422 Y118.233 E3.94209
G1 X66.071 Y118.081 E3.95477
G1 X65.754 Y117.866 E3.96744
G1 X65.484 Y117.596 E3.98011
G1 X65.269 Y117.279 E3.99279
G1 X65.120 Y116.934 E4.00524
G1 X65.054 Y116.681 E4.01392
G1 X65.022 Y116.421 E4.02259
G1 X65.033 Y116.045 E4.03504
G1 X65.117 Y115.672 E4.04771
G1 X65.269 Y115.321 E4.06039
G1 X65.484 Y115.004 E4.07306
G1 X65.754 Y114.734 E4.08574
G1 X66.021 Y114.553 E4.09642
M201 X1250 Y1250
M204 P1250 T1250
G1 X66.199 Y114.753 F9000.000
M201 X800 Y800
M204 P800 T800
G1 F1200.000
G1 X66.502 Y114.622 E4.10735
G1 X66.719 Y114.566 E4.11478
G1 X66.942 Y114.538 E4.12221
G1 X67.271 Y114.548 E4.13313
G1 X67.596 Y114.621 E4.14414
G1 X67.898 Y114.752 E4.15507
G1 X68.088 Y114.872 E4.16250
G1 X68.260 Y115.015 E4.16993
G1 X68.478 Y115.262 E4.18085
G1 X68.648 Y115.548 E4.19186
G1 X68.760 Y115.861 E4.20287
G1 X68.812 Y116.189 E4.21388
G1 X68.802 Y116.521 E4.22489
G1 X68.729 Y116.846 E4.23590
G1 X68.598 Y117.148 E4.24683
G1 X68.478 Y117.338 E4.25426
G1 X68.335 Y117.510 E4.26169
G1 X68.088 Y117.728 E4.27261
G1 X67.802 Y117.898 E4.28362
G1 X67.489 Y118.010 E4.29463
G1 X67.161 Y118.062 E4.30564
G1 X66.829 Y118.052 E4.31665
G1 X66.504 Y117.979 E4.32766
G1 X66.199 Y117.847 E4.33867
G1 X65.924 Y117.660 E4.34968
G1 X65.689 Y117.426 E4.36069
G1 X65.503 Y117.151 E4.37170
G1 X65.372 Y116.848 E4.38263
G1 X65.316 Y116.631 E4.39006
G1 X65.288 Y116.408 E4.39749
G1 X65.298 Y116.079 E4.40841
G1 X65.371 Y115.754 E4.41942
G1 X65.503 Y115.449 E4.43043
G1 X65.689 Y115.174 E4.44145
G1 X65.924 Y114.939 E4.45245
G1 X66.150 Y114.786 E4.46148
M201 X1250 Y1250
M204 P1250 T1250
G1 F7200.000
G1 X66.502 Y114.622 E4.24599
G1 F7200.000
G1 X66.719 Y114.566 E4.12169
G1 F7200.000
G1 X66.942 Y114.538 E3.99742
G1 F7200.000
G1 X67.271 Y114.548 E3.81471
G1 F7200.000
G1 X67.596 Y114.621 E3.63053
G1 F7200.000
G1 X67.898 Y114.752 E3.44779
G1 F7200.000
G1 X68.088 Y114.872 E3.32347
G1 F7200.000
G1 X68.260 Y115.015 E3.19920
G1 F7200.000
G1 X68.478 Y115.262 E3.01648
G1 F7200.000
G1 X68.648 Y115.548 E2.83227
G1 F7200.000
G1 X68.760 Y115.861 E2.64813
G1 F7200.000
G1 X68.812 Y116.189 E2.46398
G1 F7200.000
G1 X68.802 Y116.521 E2.27981
G1 F7200.000
G1 X68.729 Y116.846 E2.09563
G1 F7200.000
G1 X68.598 Y117.148 E1.91289
G1 F7200.000
G1 X68.478 Y117.338 E1.78857
G1 F7200.000
G1 X68.335 Y117.510 E1.66430
G1 F7200.000
G1 X68.088 Y117.728 E1.48157
G1 F7200.000
G1 X67.995 Y117.784 E1.42148
G1 E1.26148 F4200.00000
G92 E0
G1 Z0.500 F9000.000
G1 X67.194 Y65.995 F9000.000
G1 Z0.300 F9000.000
G1 E3.20000 F4200.00000
M201 X800 Y800
M204 P800 T800
G1 F1200.000
G1 X66.762 Y65.981 E3.21434
G1 X66.339 Y65.887 E3.22868
G1 X65.952 Y65.719 E3.24265
G1 X65.700 Y65.559 E3.25257
G1 X65.469 Y65.368 E3.26250
G1 X65.190 Y65.051 E3.27647
G1 X64.969 Y64.679 E3.29081
G1 X64.823 Y64.272 E3.30515
G1 X64.755 Y63.844 E3.31948
G1 X64.769 Y63.412 E3.33382
G1 X64.863 Y62.989 E3.34816
G1 X65.035 Y62.592 E3.36250
G1 X65.278 Y62.234 E3.37683
G1 X65.584 Y61.928 E3.39117
G1 X65.942 Y61.685 E3.40551
G1 X66.329 Y61.518 E3.41948
G1 X66.620 Y61.443 E3.42941
G1 X66.917 Y61.406 E3.43933
G1 X67.338 Y61.419 E3.45330
G1 X67.760 Y61.513 E3.46764
G1 X68.158 Y61.685 E3.48197
G1 X68.516 Y61.928 E3.49631
G1 X68.822 Y62.234 E3.51065
G1 X69.065 Y62.592 E3.52499
G1 X69.232 Y62.979 E3.53896
G1 X69.307 Y63.270 E3.54889
G1 X69.344 Y63.567 E3.55881
G1 X69.331 Y63.988 E3.57278
G1 X69.237 Y64.411 E3.58712
G1 X69.069 Y64.798 E3.60109
G1 X68.909 Y65.050 E3.61101
G1 X68.718 Y65.281 E3.62093
G1 X68.401 Y65.560 E3.63491
G1 X68.029 Y65.780 E3.64925
G1 X67.622 Y65.927 E3.66358
G1 X67.254 Y65.985 E3.67593
M201 X1250 Y1250
M204 P1250 T1250
G1 X67.178 Y65.728 F9000.000
M201 X800 Y800
M204 P800 T800
G1 F1200.000
G1 X66.795 Y65.717 E3.68860
G1 X66.422 Y65.633 E3.70128
G1 X66.077 Y65.484 E3.71373
G1 X65.856 Y65.343 E3.72241
G1 X65.654 Y65.177 E3.73108
G1 X65.406 Y64.895 E3.74353
G1 X65.211 Y64.565 E3.75621
G1 X65.081 Y64.205 E3.76888
G1 X65.022 Y63.828 E3.78155
G1 X65.033 Y63.445 E3.79422
G1 X65.117 Y63.072 E3.80690
G1 X65.269 Y62.721 E3.81957
G1 X65.484 Y62.404 E3.83225
G1 X65.754 Y62.134 E3.84492
G1 X66.071 Y61.919 E3.85760
G1 X66.416 Y61.770 E3.87004
G1 X66.669 Y61.704 E3.87872
G1 X66.929 Y61.672 E3.88740
G1 X67.305 Y61.683 E3.89984
G1 X67.678 Y61.767 E3.91252
G1 X68.029 Y61.919 E3.92519
G1 X68.346 Y62.134 E3.93787
G1 X68.616 Y62.404 E3.95054
G1 X68.831 Y62.721 E3.96322
G1 X68.980 Y63.066 E3.97566
G1 X69.046 Y63.319 E3.98434
G1 X69.078 Y63.579 E3.99302
G1 X69.067 Y63.955 E4.00546
G1 X68.983 Y64.328 E4.01814
G1 X68.834 Y64.673 E4.03059
G1 X68.693 Y64.894 E4.03927
G1 X68.527 Y65.096 E4.04794
G1 X68.245 Y65.344 E4.06039
G1 X67.915 Y65.539 E4.07307
G1 X67.555 Y65.669 E4.08574
G1 X67.237 Y65.719 E4.09642
M201 X1250 Y1250
M204 P1250 T1250
G1 X67.161 Y65.462 F9000.000
M201 X800 Y800
M204 P800 T800
G1 F1200.000
G1 X66.829 Y65.452 E4.10743
G1 X66.504 Y65.379 E4.11844
G1 X66.202 Y65.248 E4.12937
G1 X66.012 Y65.128 E4.13680
G1 X65.840 Y64.985 E4.14423
G1 X65.622 Y64.738 E4.15515
G1 X65.452 Y64.452 E4.16617
G1 X65.340 Y64.139 E4.17717
G1 X65.288 Y63.811 E4.18818
G1 X65.298 Y63.479 E4.19919
G1 X65.371 Y63.154 E4.21020
G1 X65.503 Y62.849 E4.22122
G1 X65.689 Y62.574 E4.23223
G1 X65.924 Y62.340 E4.24324
G1 X66.199 Y62.153 E4.25425
G1 X66.502 Y62.022 E4.26517
G1 X66.719 Y61.966 E4.27260
G1 X66.942 Y61.938 E4.28003
G1 X67.271 Y61.948 E4.29095
G1 X67.596 Y62.021 E4.30196
G1 X67.901 Y62.153 E4.31298
G1 X68.176 Y62.340 E4.32399
G1 X68.410 Y62.574 E4.33500
G1 X68.597 Y62.849 E4.34601
G1 X68.728 Y63.152 E4.35693
G1 X68.784 Y63.369 E4.36436
G1 X68.812 Y63.592 E4.37179
G1 X68.802 Y63.921 E4.38271
G1 X68.729 Y64.246 E4.39373
G1 X68.598 Y64.548 E4.40465
G1 X68.478 Y64.738 E4.41208
G1 X68.335 Y64.910 E4.41951
G1 X68.088 Y65.128 E4.43044
G1 X67.802 Y65.298 E4.44145
G1 X67.489 Y65.410 E4.45246
G1 X67.220 Y65.453 E4.46148
M201 X1250 Y1250
M204 P1250 T1250
G1 F7200.000
G1 X66.829 Y65.452 E4.24455
G1 F7200.000
G1 X66.504 Y65.379 E4.06037
G1 F7200.000
G1 X66.202 Y65.248 E3.87763
G1 F7200.000
G1 X66.012 Y65.128 E3.75331
G1 F7200.000
G1 X65.840 Y64.985 E3.62904
G1 F7200.000
G1 X65.622 Y64.738 E3.44632
G1 F7200.000
G1 X65.452 Y64.452 E3.26211
G1 F7200.000
G1 X65.340 Y64.139 E3.07796
G1 F7200.000
G1 X65.288 Y63.811 E2.89382
G1 F7200.000
G1 X65.298 Y63.479 E2.70965
G1 F7200.000
G1 X65.371 Y63.154 E2.52547
G1 F7200.000
G1 X65.503 Y62.849 E2.34128
G1 F7200.000
G1 X65.689 Y62.574 E2.15709
G1 F7200.000
G1 X65.924 Y62.340 E1.97295
G1 F7200.000
G1 X66.199 Y62.153 E1.78876
G1 F7200.000
G1 X66.502 Y62.022 E1.60603
G1 F7200.000
G1 X66.719 Y61.966 E1.48172
G1 F7200.000
G1 X66.827 Y61.952 E1.42148
G1 E1.26148 F4200.00000
G92 E0
G1 Z0.500 F9000.000
G1 X138.054 Y15.696 F9000.000
G1 Z0.300 F9000.000
G1 E3.20000 F4200.00000
M201 X800 Y800
M204 P800 T800
G1 F1200.000
G1 X138.054 Y164.304 E8.12330
G1 X78.761 Y164.304 E10.08764
G1 X76.439 Y164.231 E10.16460
G1 X74.137 Y164.013 E10.24120
G1 X71.854 Y163.652 E10.31779
G1 X69.597 Y163.147 E10.39439
G1 X67.377 Y162.502 E10.47099
G1 X65.202 Y161.719 E10.54759
G1 X63.080 Y160.801 E10.62418
G1 X61.020 Y159.751 E10.70078
G1 X59.030 Y158.574 E10.77737
G1 X57.118 Y157.275 E10.85397
G1 X55.291 Y155.857 E10.93057
G1 X53.556 Y154.329 E11.00717
G1 X51.921 Y152.694 E11.08376
G1 X50.393 Y150.959 E11.16036
G1 X48.975 Y149.132 E11.23696
G1 X47.676 Y147.220 E11.31355
G1 X46.499 Y145.230 E11.39015
G1 X45.449 Y143.170 E11.46675
G1 X44.531 Y141.048 E11.54334
G1 X43.748 Y138.873 E11.61994
G1 X43.103 Y136.653 E11.69654
G1 X42.598 Y134.396 E11.77314
G1 X42.237 Y132.113 E11.84973
G1 X42.019 Y129.811 E11.92633
G1 X41.946 Y127.489 E12.00329
G1 X41.946 Y52.511 E14.48728
G1 X42.019 Y50.189 E14.56424
G1 X42.237 Y47.887 E14.64084
G1 X42.598 Y45.604 E14.71743
G1 X43.103 Y43.347 E14.79403
G1 X43.748 Y41.127 E14.87063
G1 X44.531 Y38.952 E14.94722
G1 X45.449 Y36.830 E15.02382
G1 X46.499 Y34.770 E15.10042
G1 X47.676 Y32.780 E15.17701
G1 X48.975 Y30.868 E15.25361
G1 X50.393 Y29.041 E15.33021
G1 X51.921 Y27.306 E15.40681
G1 X53.556 Y25.671 E15.48340
G1 X55.291 Y24.143 E15.56000
G1 X57.118 Y22.725 E15.63660
G1 X59.030 Y21.426 E15.71319
G1 X61.020 Y20.249 E15.78979
G1 X63.080 Y19.199 E15.86639
G1 X65.202 Y18.281 E15.94298
G1 X67.377 Y17.498 E16.01958
G1 X69.597 Y16.853 E16.09618
G1 X71.854 Y16.348 E16.17277
G1 X74.137 Y15.987 E16.24937
G1 X76.439 Y15.769 E16.32597
G1 X78.761 Y15.696 E16.40293
G1 X137.994 Y15.696 E18.36528
M201 X1250 Y1250
M204 P1250 T1250
G1 X138.319 Y15.431 F9000.000
M201 X800 Y800
M204 P800 T800
G1 F1200.000
G1 X138.319 Y164.569 E23.30618
G1 X78.757 Y164.569 E25.27946
G1 X76.422 Y164.496 E25.35683
G1 X74.104 Y164.277 E25.43399
G1 X71.804 Y163.913 E25.51114
G1 X69.531 Y163.405 E25.58829
G1 X67.295 Y162.755 E25.66543
G1 X65.104 Y161.966 E25.74259
G1 X62.967 Y161.041 E25.81974
G1 X60.892 Y159.984 E25.89689
G1 X58.887 Y158.799 E25.97404
G1 X56.961 Y157.490 E26.05118
G1 X55.121 Y156.062 E26.12834
G1 X53.374 Y154.522 E26.20549
G1 X51.728 Y152.876 E26.28264
G1 X50.188 Y151.129 E26.35978
G1 X48.760 Y149.289 E26.43694
G1 X47.451 Y147.363 E26.51409
G1 X46.266 Y145.358 E26.59124
G1 X45.209 Y143.283 E26.66839
G1 X44.284 Y141.146 E26.74553
G1 X43.495 Y138.955 E26.82269
G1 X42.845 Y136.719 E26.89984
G1 X42.337 Y134.446 E26.97699
G1 X41.973 Y132.146 E27.05414
G1 X41.754 Y129.828 E27.13129
G1 X41.681 Y127.493 E27.20866
G1 X41.681 Y52.507 E29.69293
G1 X41.754 Y50.172 E29.77030
G1 X41.973 Y47.854 E29.84745
G1 X42.337 Y45.554 E29.92460
G1 X42.845 Y43.281 E30.00175
G1 X43.495 Y41.045 E30.07890
G1 X44.284 Y38.854 E30.15605
G1 X45.209 Y36.717 E30.23320
G1 X46.266 Y34.642 E30.31035
G1 X47.451 Y32.637 E30.38750
G1 X48.760 Y30.711 E30.46465
G1 X50.188 Y28.871 E30.54180
G1 X51.728 Y27.124 E30.61895
G1 X53.374 Y25.478 E30.69610
G1 X55.121 Y23.938 E30.77325
G1 X56.961 Y22.510 E30.85040
G1 X58.887 Y21.201 E30.92755
G1 X60.892 Y20.016 E31.00470
G1 X62.967 Y18.959 E31.08185
G1 X65.104 Y18.034 E31.15900
G1 X67.295 Y17.245 E31.23615
G1 X69.531 Y16.595 E31.31330
G1 X71.804 Y16.087 E31.39045
G1 X74.104 Y15.723 E31.46760
G1 X76.422 Y15.504 E31.54475
G1 X78.757 Y15.431 E31.62213
G1 X138.259 Y15.431 E33.59342
M201 X1250 Y1250
M204 P1250 T1250
G1 X138.585 Y15.165 F9000.000
M201 X800 Y800
M204 P800 T800
G1 F1200.000
G1 X138.585 Y164.835 E38.55192
G1 X78.753 Y164.835 E40.53414
G1 X76.406 Y164.761 E40.61192
G1 X74.071 Y164.541 E40.68963
G1 X71.754 Y164.174 E40.76733
G1 X69.465 Y163.662 E40.84503
G1 X67.213 Y163.008 E40.92274
G1 X65.006 Y162.213 E41.00044
G1 X62.854 Y161.282 E41.07814
G1 X60.764 Y160.217 E41.15585
G1 X58.745 Y159.023 E41.23355
G1 X56.805 Y157.705 E41.31125
G1 X54.952 Y156.267 E41.38896
G1 X53.193 Y154.716 E41.46666
G1 X51.534 Y153.057 E41.54436
G1 X49.983 Y151.298 E41.62206
G1 X48.545 Y149.445 E41.69977
G1 X47.227 Y147.505 E41.77747
G1 X46.033 Y145.486 E41.85517
G1 X44.968 Y143.396 E41.93288
G1 X44.037 Y141.244 E42.01058
G1 X43.242 Y139.037 E42.08829
G1 X42.588 Y136.785 E42.16599
G1 X42.076 Y134.496 E42.24369
G1 X41.709 Y132.179 E42.32139
G1 X41.489 Y129.844 E42.39910
G1 X41.415 Y127.497 E42.47689
G1 X41.415 Y52.503 E44.96143
G1 X41.489 Y50.156 E45.03922
G1 X41.709 Y47.821 E45.11692
G1 X42.076 Y45.504 E45.19462
G1 X42.588 Y43.215 E45.27233
G1 X43.242 Y40.963 E45.35003
G1 X44.037 Y38.756 E45.42774
G1 X44.968 Y36.604 E45.50544
G1 X46.033 Y34.514 E45.58314
G1 X47.227 Y32.495 E45.66084
G1 X48.545 Y30.555 E45.73855
G1 X49.983 Y28.702 E45.81625
G1 X51.534 Y26.943 E45.89395
G1 X53.193 Y25.284 E45.97166
G1 X54.952 Y23.733 E46.04936
G1 X56.805 Y22.295 E46.12706
G1 X58.745 Y20.977 E46.20477
G1 X60.764 Y19.783 E46.28247
G1 X62.854 Y18.718 E46.36017
G1 X65.006 Y17.787 E46.43787
G1 X67.213 Y16.992 E46.51558
G1 X69.465 Y16.338 E46.59328
G1 X71.754 Y15.826 E46.67098
G1 X74.071 Y15.459 E46.74869
G1 X76.406 Y15.239 E46.82639
G1 X78.753 Y15.165 E46.90418
G1 X138.525 Y15.165 E48.88441
M201 X1250 Y1250
M204 P1250 T1250
G1 F7200.000
G1 X138.527 Y20.651 E45.84441
G1 E45.68441 F4200.00000
G92 E0
G1 Z0.500 F9000.000
G1 X69.279 Y64.846 F9000.000
G1 Z0.300 F9000.000
G1 E3.20000 F4200.00000
M201 X800 Y800
M204 P800 T800
G1 F1200.000
G1 X118.267 Y15.859 E5.49743
G1 X117.891 Y15.859 E5.50990
G1 X69.455 Y64.295 E7.78146
G1 X69.493 Y64.125 E7.78723
G1 X69.500 Y63.873 E7.79559
G1 X117.515 Y15.859 E10.04737
G1 X117.139 Y15.859 E10.05984
G1 X69.488 Y63.509 E12.29455
G1 X69.431 Y63.190 E12.30528
G1 X116.763 Y15.859 E14.52505
G1 X116.387 Y15.859 E14.53752
G1 X69.341 Y62.904 E16.74387
G1 X69.228 Y62.642 E16.75335
G1 X116.011 Y15.859 E18.94739
G1 X115.635 Y15.859 E18.95986
G1 X69.086 Y62.407 E21.14288
G1 X68.934 Y62.183 E21.15186
G1 X115.259 Y15.859 E23.32438
G1 X114.883 Y15.859 E23.33685
G1 X68.749 Y61.992 E25.50045
G1 X68.557 Y61.809 E25.50927
G1 X114.507 Y15.859 E27.66424
G1 X114.131 Y15.859 E27.67671
G1 X68.333 Y61.656 E29.82454
G1 X68.096 Y61.517 E29.83365
G1 X113.755 Y15.859 E31.97495
G1 X113.379 Y15.859 E31.98742
G1 X67.834 Y61.403 E34.12339
G1 X67.740 Y61.363 E34.12679
G1 X67.542 Y61.319 E34.13349
G1 X113.003 Y15.859 E36.26549
G1 X112.627 Y15.859 E36.27796
G1 X67.229 Y61.256 E38.40702
G1 X66.864 Y61.245 E38.41912
G1 X112.251 Y15.859 E40.54765
G1 X111.875 Y15.859 E40.56012
G1 X66.442 Y61.291 E42.69083
G1 X66.140 Y61.369 E42.70118
G1 X65.873 Y61.484 E42.71083
G1 X111.499 Y15.859 E44.85060
G1 X111.123 Y15.859 E44.86307
G1 X42.109 Y84.872 E48.09969
G1 X42.109 Y84.496 E48.11216
G1 X110.746 Y15.859 E51.33116
G1 X110.370 Y15.859 E51.34363
G1 X42.109 Y84.120 E54.54499
