; generated by Slic3r 1.3.0 on 2020-07-29 at 17:50:35

; external perimeters extrusion width = 0.44mm (2.38mm^3/s)
; perimeters extrusion width = 0.56mm (4.14mm^3/s)
; infill extrusion width = 0.50mm (7.31mm^3/s)
; solid infill extrusion width = 0.56mm (8.27mm^3/s)
; top infill extrusion width = 0.56mm (4.14mm^3/s)

M107
M190 S60 ; set bed temperature and wait for it to be reached
;D3D:START:START
T0
M104 S215 T0

G21
G90
M107
T0
G28
G29
M109 T0 S215 T0
G0 F3000
M107
T0
G92 E0
G0 X0 Y149 Z0.1 F3600
G1 Y49 E6.5 F1200
G0 Z1
G92 E0
; Filament gcode

G21 ; set units to millimeters
G90 ; use absolute coordinates
M82 ; use absolute distances for extrusion
G92 E0
G1 Z0.300 F9000.000
G1 E-3.20000 F4200.00000
G92 E0
G1 Z0.500 F9000.000
G1 X87.407 Y87.243 F9000.000
G1 Z0.300 F9000.000
G1 E3.20000 F4200.00000
M201 X800 Y800
M204 P800 T800
G1 F1200
G1 X87.773 Y86.940 E3.21571
G1 X87.970 Y86.806 E3.22362
G1 X88.385 Y86.577 E3.23934
G1 X88.604 Y86.482 E3.24725
G1 X89.061 Y86.333 E3.26316
G1 X89.288 Y86.283 E3.27086
G1 X89.762 Y86.223 E3.28670
G1 X90.234 Y86.223 E3.30233
G1 X90.472 Y86.245 E3.31024
G1 X90.941 Y86.334 E3.32607
G1 X91.396 Y86.482 E3.34190
G1 X91.612 Y86.575 E3.34969
G1 X91.821 Y86.682 E3.35748
G1 X92.225 Y86.938 E3.37331
G1 X92.588 Y87.239 E3.38894
G1 X92.757 Y87.407 E3.39685
G1 X93.060 Y87.773 E3.41257
G1 X93.194 Y87.970 E3.42048
G1 X93.423 Y88.385 E3.43619
G1 X93.518 Y88.604 E3.44410
G1 X93.666 Y89.059 E3.45993
G1 X93.754 Y89.522 E3.47556
G1 X93.777 Y89.760 E3.48347
G1 X93.777 Y90.240 E3.49938
G1 X93.754 Y90.478 E3.50729
G1 X93.666 Y90.941 E3.52292
G1 X93.518 Y91.396 E3.53875
G1 X93.425 Y91.612 E3.54654
G1 X93.318 Y91.821 E3.55434
G1 X93.062 Y92.225 E3.57017
G1 X92.757 Y92.593 E3.58600
G1 X92.593 Y92.757 E3.59370
G1 X92.223 Y93.064 E3.60962
G1 X92.030 Y93.194 E3.61733
G1 X91.609 Y93.426 E3.63325
G1 X91.396 Y93.518 E3.64095
G1 X90.939 Y93.667 E3.65687
G1 X90.712 Y93.717 E3.66458
G1 X90.238 Y93.777 E3.68041
G1 X89.760 Y93.777 E3.69624
G1 X89.522 Y93.754 E3.70414
G1 X89.059 Y93.666 E3.71978
G1 X88.604 Y93.518 E3.73561
G1 X88.388 Y93.425 E3.74340
G1 X88.179 Y93.318 E3.75119
G1 X87.775 Y93.062 E3.76702
G1 X87.407 Y92.757 E3.78286
G1 X87.243 Y92.593 E3.79056
G1 X86.936 Y92.223 E3.80648
G1 X86.806 Y92.030 E3.81418
G1 X86.574 Y91.609 E3.83010
G1 X86.482 Y91.396 E3.83781
G1 X86.334 Y90.941 E3.85364
G1 X86.245 Y90.472 E3.86947
G1 X86.223 Y90.234 E3.87738
G1 X86.223 Y89.762 E3.89301
G1 X86.283 Y89.288 E3.90884
G1 X86.333 Y89.061 E3.91655
G1 X86.480 Y88.610 E3.93226
G1 X86.575 Y88.388 E3.94026
G1 X86.682 Y88.179 E3.94805
G1 X86.938 Y87.775 E3.96388
G1 X87.365 Y87.285 E3.98541
M201 X1250 Y1250
M204 P1250 T1250
G1 X87.691 Y87.335 F9000.000
M201 X800 Y800
M204 P800 T800
G1 F900
G1 X87.332 Y87.694 E4.00253
G1 X87.050 Y88.035 E4.01747
G1 X86.812 Y88.410 E4.03247
G1 X86.648 Y88.761 E4.04553
G1 X88.765 Y86.643 E4.14659
G1 X89.325 Y86.467 E4.16638
G1 X86.467 Y89.325 E4.30278
G1 X86.399 Y89.775 E4.31816
G1 X89.775 Y86.399 E4.47929
G1 X90.171 Y86.385 E4.49267
G1 X86.385 Y90.171 E4.67338
G1 X86.404 Y90.535 E4.68565
G1 X90.535 Y86.404 E4.88276
G1 X90.856 Y86.465 E4.89381
G1 X86.465 Y90.856 E5.10336
G1 X86.547 Y91.157 E5.11389
G1 X91.157 Y86.547 E5.33392
G1 X91.442 Y86.645 E5.34407
G1 X86.644 Y91.443 E5.57305
G1 X86.768 Y91.701 E5.58272
G1 X91.702 Y86.768 E5.81819
G1 X91.945 Y86.907 E5.82765
G1 X86.904 Y91.948 E6.06827
G1 X87.056 Y92.179 E6.07758
G1 X92.179 Y87.056 E6.32206
G1 X92.388 Y87.229 E6.33123
G1 X87.229 Y92.388 E6.57743
G1 X87.336 Y92.517 E6.58308
G1 X87.409 Y92.591 E6.58658
G1 X92.590 Y87.410 E6.83384
G1 X92.771 Y87.612 E6.84299
G1 X87.612 Y92.771 E7.08919
G1 X87.821 Y92.944 E7.09836
G1 X92.944 Y87.821 E7.34283
G1 X93.096 Y88.052 E7.35215
G1 X88.055 Y93.093 E7.59276
G1 X88.298 Y93.232 E7.60223
G1 X93.232 Y88.298 E7.83770
G1 X93.356 Y88.557 E7.84738
G1 X88.558 Y93.355 E8.07635
G1 X88.843 Y93.453 E8.08650
G1 X93.453 Y88.843 E8.30653
G1 X93.535 Y89.144 E8.31706
G1 X89.144 Y93.535 E8.52661
G1 X89.466 Y93.595 E8.53767
G1 X93.595 Y89.466 E8.73475
G1 X93.615 Y89.829 E8.74702
G1 X89.829 Y93.615 E8.92771
G1 X90.225 Y93.601 E8.94109
G1 X93.606 Y90.221 E9.10242
G1 X93.529 Y90.680 E9.11814
G1 X90.676 Y93.533 E9.25431
G1 X91.235 Y93.357 E9.27410
G1 X93.353 Y91.238 E9.37521
G1 X93.188 Y91.590 E9.38831
G1 X92.950 Y91.965 E9.40330
G1 X92.665 Y92.310 E9.41841
G1 X92.310 Y92.665 E9.43534
M201 X1250 Y1250
M204 P1250 T1250
M106 S255
M104 S210 ; set temperature
G1 Z0.500 F9000.000
G1 E6.23534 F4200.00000
G92 E0
G1 Z0.700 F9000.000
G1 X87.445 Y87.283 F9000.000
G1 Z0.500 F9000.000
G1 E3.20000 F4200.00000
M201 X800 Y800
M204 P800 T800
G1 F1500
G1 X87.798 Y86.990 E3.21515
G1 X87.999 Y86.852 E3.22320
G1 X88.401 Y86.631 E3.23835
G1 X88.625 Y86.533 E3.24642
G1 X88.998 Y86.409 E3.25942
G1 X89.299 Y86.337 E3.26964
G1 X89.766 Y86.278 E3.28516
G1 X90.222 Y86.277 E3.30021
G1 X90.464 Y86.299 E3.30826
G1 X90.928 Y86.388 E3.32383
G1 X91.361 Y86.528 E3.33888
G1 X91.588 Y86.625 E3.34704
G1 X91.794 Y86.730 E3.35465
G1 X92.192 Y86.983 E3.37023
G1 X92.544 Y87.273 E3.38528
G1 X92.717 Y87.445 E3.39333
G1 X93.010 Y87.798 E3.40848
G1 X93.148 Y87.999 E3.41653
G1 X93.369 Y88.401 E3.43168
G1 X93.467 Y88.624 E3.43972
G1 X93.612 Y89.073 E3.45529
G1 X93.698 Y89.520 E3.47034
G1 X93.722 Y89.763 E3.47839
G1 X93.722 Y90.234 E3.49395
G1 X93.663 Y90.702 E3.50953
G1 X93.613 Y90.924 E3.51704
G1 X93.467 Y91.376 E3.53273
G1 X93.375 Y91.588 E3.54036
G1 X93.270 Y91.794 E3.54798
G1 X93.017 Y92.192 E3.56356
G1 X92.717 Y92.556 E3.57913
G1 X92.556 Y92.717 E3.58664
G1 X92.190 Y93.019 E3.60234
G1 X92.001 Y93.147 E3.60984
G1 X91.585 Y93.376 E3.62554
G1 X91.376 Y93.467 E3.63304
G1 X90.928 Y93.612 E3.64862
G1 X90.464 Y93.701 E3.66420
G1 X90.238 Y93.722 E3.67171
G1 X89.766 Y93.722 E3.68729
G1 X89.298 Y93.663 E3.70287
G1 X89.076 Y93.613 E3.71037
G1 X88.624 Y93.467 E3.72607
G1 X88.412 Y93.375 E3.73369
G1 X88.206 Y93.270 E3.74131
G1 X87.808 Y93.017 E3.75689
G1 X87.444 Y92.717 E3.77247
G1 X87.283 Y92.556 E3.77998
G1 X86.981 Y92.190 E3.79567
G1 X86.853 Y92.001 E3.80318
G1 X86.624 Y91.585 E3.81887
G1 X86.533 Y91.376 E3.82638
G1 X86.388 Y90.928 E3.84196
G1 X86.299 Y90.464 E3.85752
G1 X86.277 Y90.222 E3.86557
G1 X86.278 Y89.766 E3.88062
G1 X86.334 Y89.313 E3.89567
G1 X86.387 Y89.075 E3.90373
G1 X86.528 Y88.639 E3.91887
G1 X86.625 Y88.412 E3.92704
G1 X86.730 Y88.206 E3.93464
G1 X86.983 Y87.808 E3.95023
G1 X87.402 Y87.326 E3.97133
M201 X1250 Y1250
M204 P1250 T1250
G1 F7200
G1 X87.798 Y86.990 E3.68396
G1 F7200
G1 X87.999 Y86.852 E3.54883
G1 F7200
G1 X88.401 Y86.631 E3.29457
G1 F7200
G1 X88.625 Y86.533 E3.15911
G1 F7200
G1 X88.998 Y86.409 E2.94094
G1 F7200
G1 X89.299 Y86.337 E2.76940
G1 F7200
G1 X89.766 Y86.278 E2.50883
G1 F7200
G1 X90.222 Y86.277 E2.25626
G1 F7200
G1 X90.464 Y86.299 E2.12118
G1 F7200
G1 X90.928 Y86.388 E1.85988
G1 F7200
G1 X91.361 Y86.528 E1.60731
G1 F7200
G1 X91.588 Y86.625 E1.47031
G1 F7200
G1 X91.794 Y86.730 E1.34262
G1 F7200
G1 X92.192 Y86.983 E1.08108
G1 F7200
G1 X92.401 Y87.155 E0.93133
G1 E0.77133 F4200.00000
G92 E0
G1 Z0.700 F9000.000
G1 X87.442 Y92.026 F9000.000
G1 Z0.500 F9000.000
G1 E3.20000 F4200.00000
M201 X1000 Y1000
M204 P1000 T1000
G1 F900
G1 X87.974 Y92.558 E3.23380
G1 X88.296 Y92.824 E3.25253
G1 X88.820 Y93.135 E3.27994
G1 X88.997 Y93.212 E3.28858
G1 X89.559 Y93.379 E3.31491
G1 X86.629 Y90.449 E3.50100
G1 X86.563 Y89.999 E3.52143
G1 X86.564 Y89.619 E3.53847
G1 X90.381 Y93.436 E3.78092
G1 X90.596 Y93.419 E3.79063
G1 X91.039 Y93.331 E3.81090
G1 X86.669 Y88.961 E4.08843
G1 X86.781 Y88.616 E4.10470
G1 X86.879 Y88.407 E4.11510
G1 X91.597 Y93.125 E4.41480
G1 X92.079 Y92.843 E4.43988
G1 X87.158 Y87.922 E4.75244
G1 X87.507 Y87.508 E4.77679
G1 X92.493 Y92.493 E5.09344
G1 X92.842 Y92.078 E5.11779
G1 X87.921 Y87.157 E5.43032
G1 X88.402 Y86.874 E5.45538
G1 X93.126 Y91.599 E5.75545
G1 X93.212 Y91.405 E5.76496
G1 X93.330 Y91.039 E5.78224
G1 X88.961 Y86.669 E6.05977
G1 X89.186 Y86.615 E6.07016
G1 X89.619 Y86.564 E6.08975
G1 X93.436 Y90.381 E6.33221
G1 X93.436 Y89.988 E6.34986
G1 X93.371 Y89.552 E6.36967
G1 X90.449 Y86.629 E6.55528
G1 X90.605 Y86.659 E6.56245
G1 X90.981 Y86.781 E6.58020
G1 X91.358 Y86.957 E6.59887
G1 X91.705 Y87.177 E6.61730
G1 X92.015 Y87.433 E6.63540
G1 X92.559 Y87.976 E6.66988
M201 X1250 Y1250
M204 P1250 T1250
G1 Z0.700 F9000.000
G1 E3.46988 F4200.00000
G92 E0
G1 Z0.900 F9000.000
G1 X87.445 Y87.283 F9000.000
G1 Z0.700 F9000.000
G1 E3.20000 F4200.00000
M201 X800 Y800
M204 P800 T800
G1 F1500
G1 X87.792 Y86.995 E3.21488
G1 X87.999 Y86.852 E3.22320
G1 X88.394 Y86.635 E3.23808
G1 X88.625 Y86.533 E3.24640
G1 X89.053 Y86.393 E3.26128
G1 X89.298 Y86.337 E3.26959
G1 X89.766 Y86.278 E3.28516
G1 X90.214 Y86.277 E3.29994
G1 X90.465 Y86.299 E3.30826
G1 X90.928 Y86.388 E3.32382
G1 X91.354 Y86.525 E3.33860
G1 X91.589 Y86.625 E3.34704
G1 X91.794 Y86.730 E3.35464
G1 X92.192 Y86.983 E3.37022
G1 X92.538 Y87.268 E3.38500
G1 X92.717 Y87.445 E3.39333
G1 X93.005 Y87.792 E3.40820
G1 X93.148 Y87.999 E3.41652
G1 X93.376 Y88.415 E3.43219
G1 X93.467 Y88.624 E3.43970
G1 X93.612 Y89.072 E3.45528
G1 X93.701 Y89.536 E3.47086
G1 X93.722 Y89.762 E3.47837
G1 X93.722 Y90.234 E3.49395
G1 X93.663 Y90.702 E3.50952
G1 X93.613 Y90.924 E3.51703
G1 X93.467 Y91.376 E3.53273
G1 X93.375 Y91.588 E3.54035
G1 X93.270 Y91.794 E3.54797
G1 X93.017 Y92.192 E3.56355
G1 X92.717 Y92.556 E3.57913
G1 X92.556 Y92.717 E3.58663
G1 X92.190 Y93.019 E3.60233
G1 X92.001 Y93.147 E3.60984
G1 X91.585 Y93.376 E3.62553
G1 X91.376 Y93.467 E3.63304
G1 X90.924 Y93.613 E3.64873
G1 X90.702 Y93.663 E3.65624
G1 X90.234 Y93.722 E3.67182
G1 X89.766 Y93.722 E3.68728
G1 X89.298 Y93.663 E3.70286
G1 X89.076 Y93.613 E3.71037
G1 X88.624 Y93.467 E3.72606
G1 X88.412 Y93.375 E3.73368
G1 X88.206 Y93.270 E3.74130
G1 X87.808 Y93.017 E3.75688
G1 X87.444 Y92.717 E3.77246
G1 X87.283 Y92.556 E3.77997
G1 X86.981 Y92.190 E3.79566
G1 X86.853 Y92.001 E3.80317
G1 X86.624 Y91.585 E3.81886
G1 X86.533 Y91.376 E3.82637
G1 X86.387 Y90.925 E3.84204
G1 X86.333 Y90.679 E3.85036
G1 X86.278 Y90.234 E3.86514
G1 X86.278 Y89.766 E3.88062
G1 X86.333 Y89.321 E3.89540
G1 X86.387 Y89.075 E3.90373
G1 X86.525 Y88.646 E3.91860
G1 X86.625 Y88.411 E3.92703
G1 X86.730 Y88.206 E3.93464
G1 X86.983 Y87.808 E3.95022
G1 X87.403 Y87.326 E3.97133
M201 X1250 Y1250
M204 P1250 T1250
G1 X87.976 Y87.441 F9000.000
M201 X1000 Y1000
M204 P1000 T1000
G1 F900
G1 X87.428 Y87.990 E4.00619
G1 X87.177 Y88.295 E4.02395
G1 X86.957 Y88.641 E4.04236
G1 X86.778 Y89.026 E4.06139
G1 X86.623 Y89.558 E4.08630
G1 X89.559 Y86.622 E4.27280
G1 X89.998 Y86.564 E4.29269
G1 X90.382 Y86.563 E4.30992
G1 X86.564 Y90.381 E4.55241
G1 X86.613 Y90.798 E4.57126
G1 X86.670 Y91.039 E4.58239
G1 X91.039 Y86.669 E4.85993
G1 X91.377 Y86.778 E4.87586
G1 X91.593 Y86.879 E4.88659
G1 X86.875 Y91.598 E5.18628
G1 X87.157 Y92.079 E5.21135
G1 X92.078 Y87.158 E5.52392
G1 X92.492 Y87.508 E5.54827
G1 X87.507 Y92.493 E5.86490
G1 X87.922 Y92.842 E5.88925
G1 X92.842 Y87.922 E6.20176
G1 X93.125 Y88.403 E6.22682
G1 X88.401 Y93.126 E6.52686
G1 X88.595 Y93.212 E6.53636
G1 X88.961 Y93.331 E6.55365
G1 X93.331 Y88.961 E6.83118
G1 X93.419 Y89.404 E6.85144
G1 X93.436 Y89.619 E6.86116
G1 X89.619 Y93.436 E7.10359
G1 X90.002 Y93.436 E7.12080
G1 X90.441 Y93.379 E7.14066
G1 X93.379 Y90.441 E7.32725
G1 X93.212 Y91.003 E7.35358
G1 X93.135 Y91.180 E7.36222
G1 X92.824 Y91.704 E7.38963
G1 X92.558 Y92.026 E7.40837
G1 X92.026 Y92.558 E7.44216
M201 X1250 Y1250
M204 P1250 T1250
G1 Z0.900 F9000.000
G1 E4.24216 F4200.00000
G92 E0
G1 Z1.100 F9000.000
G1 X87.445 Y87.283 F9000.000
G1 Z0.900 F9000.000
G1 E3.20000 F4200.00000
M201 X800 Y800
M204 P800 T800
G1 F1500
G1 X87.785 Y87.000 E3.21460
G1 X87.999 Y86.852 E3.22320
G1 X88.387 Y86.638 E3.23780
G1 X88.625 Y86.533 E3.24640
G1 X89.045 Y86.395 E3.26100
G1 X89.299 Y86.337 E3.26959
G1 X89.766 Y86.278 E3.28515
G1 X90.206 Y86.277 E3.29967
G1 X90.465 Y86.299 E3.30825
G1 X90.928 Y86.388 E3.32381
G1 X91.346 Y86.523 E3.33833
G1 X91.589 Y86.625 E3.34703
G1 X91.794 Y86.730 E3.35463
G1 X92.192 Y86.983 E3.37021
G1 X92.532 Y87.262 E3.38473
G1 X92.717 Y87.445 E3.39333
G1 X93.000 Y87.785 E3.40793
G1 X93.148 Y87.999 E3.41653
G1 X93.362 Y88.387 E3.43113
G1 X93.467 Y88.625 E3.43972
G1 X93.612 Y89.072 E3.45527
G1 X93.701 Y89.536 E3.47085
G1 X93.722 Y89.762 E3.47836
G1 X93.722 Y90.234 E3.49393
G1 X93.663 Y90.702 E3.50951
G1 X93.613 Y90.924 E3.51702
G1 X93.467 Y91.376 E3.53271
G1 X93.375 Y91.588 E3.54034
G1 X93.270 Y91.794 E3.54796
G1 X93.017 Y92.192 E3.56354
G1 X92.717 Y92.556 E3.57912
G1 X92.556 Y92.717 E3.58662
G1 X92.190 Y93.019 E3.60232
G1 X92.001 Y93.147 E3.60982
G1 X91.585 Y93.376 E3.62552
G1 X91.376 Y93.467 E3.63303
G1 X90.928 Y93.612 E3.64860
G1 X90.464 Y93.701 E3.66418
G1 X90.238 Y93.722 E3.67169
G1 X89.766 Y93.722 E3.68727
G1 X89.298 Y93.663 E3.70285
G1 X89.076 Y93.613 E3.71036
G1 X88.624 Y93.467 E3.72605
G1 X88.412 Y93.375 E3.73367
G1 X88.206 Y93.270 E3.74129
G1 X87.808 Y93.017 E3.75687
G1 X87.444 Y92.717 E3.77245
G1 X87.283 Y92.556 E3.77996
G1 X86.981 Y92.190 E3.79565
G1 X86.853 Y92.001 E3.80316
G1 X86.624 Y91.585 E3.81885
G1 X86.533 Y91.376 E3.82636
G1 X86.387 Y90.925 E3.84203
G1 X86.332 Y90.671 E3.85061
G1 X86.278 Y90.234 E3.86513
G1 X86.278 Y89.766 E3.88060
G1 X86.337 Y89.298 E3.89618
G1 X86.387 Y89.076 E3.90370
G1 X86.523 Y88.654 E3.91833
G1 X86.625 Y88.411 E3.92703
G1 X86.730 Y88.206 E3.93462
G1 X86.983 Y87.808 E3.95021
G1 X87.403 Y87.326 E3.97132
M201 X1250 Y1250
M204 P1250 T1250
G1 F7200
G1 X87.785 Y87.000 E3.69311
G1 F7200
G1 X87.999 Y86.852 E3.54884
G1 F7200
G1 X88.387 Y86.638 E3.30372
G1 F7200
G1 X88.625 Y86.533 E3.15945
G1 F7200
G1 X89.045 Y86.395 E2.91434
G1 F7200
G1 X89.299 Y86.337 E2.77020
G1 F7200
G1 X89.766 Y86.278 E2.50904
G1 F7200
G1 X90.206 Y86.277 E2.26540
G1 F7200
G1 X90.465 Y86.299 E2.12126
G1 F7200
G1 X90.928 Y86.388 E1.86010
G1 F7200
G1 X91.346 Y86.523 E1.61646
G1 F7200
G1 X91.589 Y86.625 E1.47041
G1 F7200
G1 X91.794 Y86.730 E1.34292
G1 F7200
G1 X92.192 Y86.983 E1.08132
G1 F7200
G1 X92.401 Y87.155 E0.93132
G1 E0.77132 F4200.00000
G92 E0
G1 Z1.100 F9000.000
G1 X87.442 Y92.026 F9000.000
G1 Z0.900 F9000.000
G1 E3.20000 F4200.00000
M201 X1000 Y1000
M204 P1000 T1000
G1 F900
G1 X87.974 Y92.558 E3.23379
G1 X88.296 Y92.824 E3.25253
G1 X88.820 Y93.135 E3.27993
G1 X88.997 Y93.212 E3.28858
G1 X89.559 Y93.379 E3.31491
G1 X86.623 Y90.443 E3.50138
G1 X86.564 Y90.003 E3.52130
G1 X86.564 Y89.619 E3.53854
G1 X90.381 Y93.436 E3.78097
G1 X90.596 Y93.419 E3.79069
G1 X91.039 Y93.331 E3.81095
G1 X86.669 Y88.961 E4.08848
G1 X86.776 Y88.630 E4.10408
G1 X86.879 Y88.407 E4.11513
G1 X91.597 Y93.125 E4.41480
G1 X92.079 Y92.843 E4.43987
G1 X87.158 Y87.922 E4.75243
G1 X87.508 Y87.508 E4.77678
G1 X92.493 Y92.493 E5.09340
G1 X92.842 Y92.078 E5.11775
G1 X87.922 Y87.158 E5.43025
G1 X88.402 Y86.874 E5.45529
G1 X93.126 Y91.599 E5.75538
G1 X93.212 Y91.405 E5.76489
G1 X93.330 Y91.039 E5.78217
G1 X88.960 Y86.669 E6.05975
G1 X89.183 Y86.616 E6.07004
G1 X89.619 Y86.564 E6.08975
G1 X93.436 Y90.381 E6.33221
G1 X93.436 Y89.986 E6.34993
G1 X93.371 Y89.552 E6.36969
G1 X90.448 Y86.629 E6.55529
G1 X90.606 Y86.659 E6.56249
G1 X90.967 Y86.776 E6.57955
G1 X91.359 Y86.957 E6.59892
G1 X91.705 Y87.177 E6.61733
G1 X92.004 Y87.423 E6.63475
G1 X92.560 Y87.977 E6.66997
M201 X1250 Y1250
M204 P1250 T1250
G1 Z1.100 F9000.000
G1 E3.46997 F4200.00000
G92 E0
G1 Z1.300 F9000.000
G1 X87.445 Y87.283 F9000.000
G1 Z1.100 F9000.000
G1 E3.20000 F4200.00000
M201 X800 Y800
M204 P800 T800
G1 F1500
G1 X87.810 Y86.981 E3.21566
G1 X87.999 Y86.853 E3.22318
G1 X88.379 Y86.642 E3.23754
G1 X88.625 Y86.533 E3.24641
G1 X89.037 Y86.398 E3.26074
G1 X89.299 Y86.337 E3.26960
G1 X89.766 Y86.278 E3.28516
G1 X90.198 Y86.277 E3.29941
G1 X90.465 Y86.299 E3.30826
G1 X90.928 Y86.388 E3.32382
G1 X91.339 Y86.520 E3.33807
G1 X91.589 Y86.626 E3.34704
G1 X91.794 Y86.730 E3.35463
G1 X92.192 Y86.983 E3.37021
G1 X92.556 Y87.283 E3.38579
G1 X92.717 Y87.444 E3.39330
G1 X93.019 Y87.810 E3.40899
G1 X93.147 Y87.999 E3.41651
G1 X93.358 Y88.379 E3.43087
G1 X93.467 Y88.625 E3.43973
G1 X93.612 Y89.072 E3.45527
G1 X93.701 Y89.536 E3.47085
G1 X93.722 Y89.762 E3.47836
G1 X93.722 Y90.238 E3.49405
