; generated by Slic3r 1.3.0 on 2020-07-29 at 17:52:08

; external perimeters extrusion width = 0.44mm (2.38mm^3/s)
; perimeters extrusion width = 0.56mm (4.14mm^3/s)
; infill extrusion width = 0.50mm (7.31mm^3/s)
; solid infill extrusion width = 0.56mm (8.27mm^3/s)
; top infill extrusion width = 0.56mm (4.14mm^3/s)

M107
M190 S60 ; set bed temperature and wait for it to be reached
;D3D:START:START
T0
M104 S215 T0

G21
G90
M107
T0
G28
G29
M109 T0 S215 T0
G0 F3000
M107
T0
G92 E0
G0 X0 Y149 Z0.1 F3600
G1 Y49 E6.5 F1200
G0 Z1
G92 E0
; Filament gcode

G21 ; set units to millimeters
G90 ; use absolute coordinates
M82 ; use absolute distances for extrusion
G92 E0
G1 Z0.300 F9000.000
G1 E-3.20000 F4200.00000
G92 E0
G1 Z0.500 F9000.000
G1 X82.335 Y69.422 F9000.000
G1 Z0.300 F9000.000
G1 E3.20000 F4200.00000
M201 X800 Y800
M204 P800 T800
G1 F1200
G1 X97.665 Y69.422 E3.70788
G1 X97.665 Y120.914 E5.41377
G1 X82.335 Y120.914 E5.92165
G1 X82.335 Y69.482 E7.62556
M201 X1250 Y1250
M204 P1250 T1250
G1 F7200
G1 X87.821 Y69.461 E4.58556
G1 E4.42556 F4200.00000
G92 E0
G1 Z0.500 F9000.000
G1 X76.728 Y103.764 F9000.000
G1 Z0.300 F9000.000
G1 E3.20000 F4200.00000
M201 X800 Y800
M204 P800 T800
G1 F1200
G1 X77.050 Y103.857 E3.21110
G1 X77.346 Y104.008 E3.22210
G1 X77.609 Y104.212 E3.23312
G1 X77.828 Y104.461 E3.24413
G1 X77.998 Y104.747 E3.25514
G1 X78.110 Y105.060 E3.26615
G1 X78.162 Y105.388 E3.27716
G1 X78.152 Y105.720 E3.28817
G1 X78.079 Y106.045 E3.29918
G1 X77.947 Y106.350 E3.31019
G1 X77.760 Y106.625 E3.32120
G1 X77.526 Y106.860 E3.33221
G1 X77.253 Y107.045 E3.34313
G1 X77.050 Y107.141 E3.35056
G1 X76.837 Y107.210 E3.35799
G1 X76.511 Y107.261 E3.36892
G1 X76.179 Y107.251 E3.37993
G1 X75.854 Y107.178 E3.39094
G1 X75.547 Y107.045 E3.40203
G1 X75.196 Y106.791 E3.41641
G1 X74.972 Y106.537 E3.42762
G1 X74.802 Y106.251 E3.43864
G1 X74.690 Y105.938 E3.44965
G1 X74.638 Y105.610 E3.46065
G1 X74.648 Y105.278 E3.47167
G1 X74.721 Y104.953 E3.48268
G1 X74.856 Y104.643 E3.49390
G1 X75.111 Y104.292 E3.50827
G1 X75.362 Y104.071 E3.51936
G1 X75.648 Y103.901 E3.53038
G1 X75.961 Y103.789 E3.54139
G1 X76.295 Y103.736 E3.55260
G1 X76.669 Y103.760 E3.56499
M201 X1250 Y1250
M204 P1250 T1250
G1 F7200
G1 X77.050 Y103.857 E3.34682
G1 F7200
G1 X77.346 Y104.008 E3.16267
G1 F7200
G1 X77.609 Y104.212 E2.97847
G1 F7200
G1 X77.828 Y104.461 E2.79431
G1 F7200
G1 X77.998 Y104.747 E2.61014
G1 F7200
G1 X78.110 Y105.060 E2.42597
G1 F7200
G1 X78.162 Y105.388 E2.24181
G1 F7200
G1 X78.152 Y105.720 E2.05764
G1 F7200
G1 X78.079 Y106.045 E1.87345
G1 F7200
G1 X77.947 Y106.350 E1.68928
G1 F7200
G1 X77.760 Y106.625 E1.50510
G1 F7200
G1 X77.526 Y106.860 E1.32095
G1 F7200
G1 X77.253 Y107.045 E1.13821
G1 F7200
G1 X77.050 Y107.141 E1.01392
G1 F7200
G1 X76.837 Y107.210 E0.88962
G1 F7200
G1 X76.511 Y107.261 E0.70691
G1 F7200
G1 X76.183 Y107.251 E0.52499
G1 E0.36499 F4200.00000
G92 E0
G1 Z0.500 F9000.000
G1 X101.848 Y105.278 F9000.000
G1 Z0.300 F9000.000
G1 E3.20000 F4200.00000
M201 X800 Y800
M204 P800 T800
G1 F1200
G1 X101.921 Y104.953 E3.21101
G1 X102.056 Y104.643 E3.22223
G1 X102.311 Y104.292 E3.23660
G1 X102.562 Y104.071 E3.24770
G1 X102.848 Y103.901 E3.25871
G1 X103.161 Y103.789 E3.26972
G1 X103.495 Y103.736 E3.28094
G1 X103.928 Y103.764 E3.29531
G1 X104.250 Y103.857 E3.30641
G1 X104.546 Y104.008 E3.31742
G1 X104.809 Y104.212 E3.32843
G1 X105.028 Y104.461 E3.33944
G1 X105.198 Y104.747 E3.35045
G1 X105.310 Y105.060 E3.36146
G1 X105.362 Y105.388 E3.37247
G1 X105.352 Y105.720 E3.38348
G1 X105.279 Y106.045 E3.39449
G1 X105.147 Y106.350 E3.40550
G1 X104.961 Y106.625 E3.41651
G1 X104.726 Y106.860 E3.42752
G1 X104.453 Y107.045 E3.43844
G1 X104.250 Y107.141 E3.44587
G1 X104.037 Y107.210 E3.45331
G1 X103.711 Y107.261 E3.46423
G1 X103.379 Y107.251 E3.47524
G1 X103.054 Y107.178 E3.48625
G1 X102.747 Y107.045 E3.49734
G1 X102.396 Y106.791 E3.51172
G1 X102.172 Y106.537 E3.52293
G1 X102.002 Y106.251 E3.53395
G1 X101.890 Y105.938 E3.54496
G1 X101.838 Y105.610 E3.55597
G1 X101.846 Y105.338 E3.56499
M201 X1250 Y1250
M204 P1250 T1250
G1 F7200
G1 X101.921 Y104.953 E3.34799
G1 F7200
G1 X102.056 Y104.643 E3.16039
G1 F7200
G1 X102.311 Y104.292 E2.91994
G1 F7200
G1 X102.562 Y104.071 E2.73439
G1 F7200
G1 X102.848 Y103.901 E2.55017
G1 F7200
G1 X103.161 Y103.789 E2.36596
G1 F7200
G1 X103.495 Y103.736 E2.17839
G1 F7200
G1 X103.928 Y103.764 E1.93793
G1 F7200
G1 X104.250 Y103.857 E1.75234
G1 F7200
G1 X104.546 Y104.008 E1.56818
G1 F7200
G1 X104.809 Y104.212 E1.38399
G1 F7200
G1 X105.028 Y104.461 E1.19983
G1 F7200
G1 X105.198 Y104.747 E1.01566
G1 F7200
G1 X105.310 Y105.060 E0.83148
G1 F7200
G1 X105.362 Y105.388 E0.64732
G1 F7200
G1 X105.355 Y105.609 E0.52499
G1 E0.36499 F4200.00000
G92 E0
G1 Z0.500 F9000.000
G1 X90.089 Y54.542 F9000.000
G1 Z0.300 F9000.000
G1 E3.20000 F4200.00000
M201 X800 Y800
M204 P800 T800
G1 F1200
G1 X90.651 Y55.432 E3.23485
G1 X91.864 Y57.507 E3.31449
G1 X93.082 Y59.683 E3.39709
G1 X94.891 Y63.071 E3.52435
G1 X96.088 Y65.429 E3.61196
G1 X96.919 Y67.123 E3.67447
G1 X98.630 Y70.778 E3.80815
G1 X99.928 Y73.721 E3.91472
G1 X100.787 Y75.765 E3.98817
G1 X101.633 Y77.865 E4.06317
G1 X102.859 Y81.101 E4.17782
G1 X104.012 Y84.420 E4.29423
G1 X104.726 Y86.660 E4.37213
G1 X105.063 Y87.783 E4.41096
G1 X105.695 Y90.042 E4.48868
G1 X105.986 Y91.169 E4.52726
G1 X106.515 Y93.422 E4.60392
G1 X106.966 Y95.660 E4.67953
G1 X107.159 Y96.771 E4.71690
G1 X107.478 Y98.972 E4.79059
G1 X107.698 Y101.138 E4.86270
G1 X107.770 Y102.203 E4.89807
G1 X107.815 Y103.257 E4.93301
G1 X107.833 Y104.296 E4.96744
G1 X107.822 Y105.323 E5.00148
G1 X107.783 Y106.334 E5.03500
G1 X107.715 Y107.329 E5.06802
G1 X107.618 Y108.307 E5.10059
G1 X107.491 Y109.265 E5.13260
G1 X107.335 Y110.204 E5.16416
G1 X107.148 Y111.124 E5.19524
G1 X106.932 Y112.022 E5.22586
G1 X106.686 Y112.899 E5.25602
G1 X106.410 Y113.753 E5.28575
G1 X106.104 Y114.583 E5.31505
G1 X105.770 Y115.389 E5.34396
G1 X105.406 Y116.170 E5.37252
G1 X105.015 Y116.924 E5.40065
G1 X104.596 Y117.652 E5.42848
G1 X104.149 Y118.354 E5.45605
G1 X103.678 Y119.026 E5.48324
G1 X103.180 Y119.670 E5.51021
G1 X102.658 Y120.285 E5.53695
G1 X102.111 Y120.870 E5.56348
G1 X101.542 Y121.425 E5.58982
G1 X100.950 Y121.949 E5.61600
G1 X100.337 Y122.442 E5.64205
G1 X99.704 Y122.903 E5.66799
G1 X99.051 Y123.331 E5.69386
G1 X98.380 Y123.727 E5.71967
G1 X97.691 Y124.089 E5.74547
G1 X96.755 Y124.513 E5.77952
G1 X96.264 Y124.714 E5.79707
G1 X95.528 Y124.975 E5.82296
G1 X94.777 Y125.202 E5.84896
G1 X94.011 Y125.395 E5.87512
G1 X93.232 Y125.553 E5.90145
G1 X92.440 Y125.676 E5.92799
G1 X91.635 Y125.764 E5.95484
G1 X90.813 Y125.816 E5.98211
G1 X89.995 Y125.831 E6.00921
G1 X89.187 Y125.816 E6.03600
G1 X88.365 Y125.764 E6.06328
G1 X87.560 Y125.676 E6.09012
G1 X86.768 Y125.553 E6.11666
G1 X85.989 Y125.395 E6.14299
G1 X85.223 Y125.202 E6.16915
G1 X84.472 Y124.975 E6.19517
G1 X83.736 Y124.714 E6.22105
G1 X83.245 Y124.513 E6.23859
G1 X82.309 Y124.089 E6.27265
G1 X81.620 Y123.727 E6.29845
G1 X80.949 Y123.331 E6.32426
G1 X80.296 Y122.903 E6.35012
G1 X79.663 Y122.442 E6.37606
G1 X79.050 Y121.949 E6.40211
G1 X78.458 Y121.425 E6.42830
G1 X77.889 Y120.870 E6.45464
G1 X77.342 Y120.285 E6.48116
G1 X76.820 Y119.670 E6.50790
G1 X76.322 Y119.026 E6.53488
G1 X75.851 Y118.354 E6.56207
G1 X75.404 Y117.652 E6.58963
G1 X74.985 Y116.924 E6.61746
G1 X74.594 Y116.170 E6.64559
G1 X74.230 Y115.387 E6.67419
G1 X73.896 Y114.583 E6.70306
G1 X73.590 Y113.753 E6.73237
G1 X73.315 Y112.900 E6.76205
G1 X73.068 Y112.022 E6.79226
G1 X72.851 Y111.122 E6.82291
G1 X72.665 Y110.204 E6.85396
G1 X72.509 Y109.265 E6.88552
G1 X72.382 Y108.307 E6.91752
G1 X72.285 Y107.329 E6.95009
G1 X72.217 Y106.333 E6.98316
G1 X72.178 Y105.323 E7.01663
G1 X72.167 Y104.298 E7.05058
G1 X72.185 Y103.257 E7.08510
G1 X72.230 Y102.203 E7.12005
G1 X72.302 Y101.139 E7.15537
G1 X72.522 Y98.972 E7.22753
G1 X72.841 Y96.771 E7.30121
G1 X73.034 Y95.660 E7.33858
G1 X73.484 Y93.424 E7.41414
G1 X74.014 Y91.169 E7.49086
G1 X74.304 Y90.044 E7.52938
G1 X74.937 Y87.783 E7.60715
G1 X75.274 Y86.660 E7.64599
G1 X75.987 Y84.421 E7.72383
G1 X77.140 Y81.104 E7.84017
G1 X78.367 Y77.865 E7.95494
G1 X79.213 Y75.765 E8.02994
G1 X80.072 Y73.721 E8.10339
G1 X81.370 Y70.778 E8.20996
G1 X83.081 Y67.123 E8.34364
G1 X83.912 Y65.429 E8.40616
G1 X85.109 Y63.071 E8.49376
G1 X86.918 Y59.683 E8.62102
G1 X88.136 Y57.507 E8.70362
G1 X89.349 Y55.432 E8.78326
G1 X89.911 Y54.542 E8.81811
G1 X90.000 Y54.437 E8.82267
G1 X90.050 Y54.497 E8.82523
M201 X1250 Y1250
M204 P1250 T1250
G1 X90.103 Y54.796 F9000.000
M201 X800 Y800
M204 P800 T800
G1 F1200
G1 X89.896 Y55.003 E8.83495
G1 X89.291 Y55.985 E8.87325
G1 X90.249 Y55.027 E8.91824
G1 X90.395 Y55.257 E8.92730
G1 X88.761 Y56.891 E9.00399
G1 X88.235 Y57.794 E9.03870
G1 X90.540 Y55.489 E9.14693
G1 X90.679 Y55.726 E9.15607
G1 X87.755 Y58.650 E9.29333
G1 X87.276 Y59.506 E9.32590
G1 X90.818 Y55.964 E9.49220
G1 X90.956 Y56.202 E9.50134
G1 X86.822 Y60.336 E9.69548
G1 X86.391 Y61.144 E9.72586
G1 X91.095 Y56.439 E9.94675
G1 X91.234 Y56.677 E9.95589
G1 X85.960 Y61.951 E10.20353
G1 X85.529 Y62.758 E10.23391
G1 X91.373 Y56.914 E10.50831
G1 X91.512 Y57.152 E10.51745
G1 X85.113 Y63.551 E10.81793
G1 X84.724 Y64.316 E10.84641
G1 X91.651 Y57.390 E11.17166
G1 X91.788 Y57.629 E11.18081
G1 X84.336 Y65.081 E11.53074
G1 X83.954 Y65.839 E11.55893
G1 X91.923 Y57.870 E11.93313
G1 X92.059 Y58.111 E11.94231
G1 X83.592 Y66.578 E12.33988
G1 X83.229 Y67.317 E12.36721
G1 X92.194 Y58.353 E12.78814
G1 X92.329 Y58.594 E12.79732
G1 X82.897 Y68.026 E13.24022
G1 X82.565 Y68.734 E13.26617
G1 X92.464 Y58.835 E13.73098
G1 X92.599 Y59.076 E13.74016
G1 X82.416 Y69.260 E14.21834
G1 X82.792 Y69.260 E14.23084
G1 X92.734 Y59.318 E14.69768
G1 X92.870 Y59.559 E14.70686
G1 X83.169 Y69.260 E15.16238
G1 X83.545 Y69.260 E15.17488
G1 X93.003 Y59.802 E15.61898
G1 X93.134 Y60.047 E15.62822
G1 X83.922 Y69.260 E16.06080
G1 X84.298 Y69.260 E16.07330
G1 X93.265 Y60.293 E16.49436
G1 X93.396 Y60.538 E16.50360
G1 X84.674 Y69.260 E16.91313
G1 X85.051 Y69.260 E16.92563
G1 X93.527 Y60.784 E17.32363
G1 X93.658 Y61.029 E17.33287
G1 X85.427 Y69.260 E17.71935
G1 X85.804 Y69.260 E17.73185
G1 X93.789 Y61.275 E18.10680
G1 X93.920 Y61.520 E18.11604
G1 X86.180 Y69.260 E18.47946
G1 X86.557 Y69.260 E18.49196
G1 X94.051 Y61.766 E18.84386
G1 X94.182 Y62.011 E18.85310
G1 X86.933 Y69.260 E19.19348
G1 X87.310 Y69.260 E19.20598
G1 X94.313 Y62.257 E19.53483
G1 X94.444 Y62.502 E19.54406
G1 X87.686 Y69.260 E19.86139
G1 X88.063 Y69.260 E19.87389
G1 X94.575 Y62.748 E20.17969
G1 X94.706 Y62.993 E20.18892
G1 X88.439 Y69.260 E20.48320
G1 X88.816 Y69.260 E20.49570
G1 X94.835 Y63.241 E20.77832
G1 X94.961 Y63.491 E20.78762
G1 X89.192 Y69.260 E21.05852
G1 X89.569 Y69.260 E21.07102
G1 X95.088 Y63.740 E21.33020
G1 X95.215 Y63.990 E21.33950
G1 X89.945 Y69.260 E21.58696
G1 X90.321 Y69.260 E21.59945
G1 X95.342 Y64.240 E21.83519
G1 X95.469 Y64.489 E21.84448
G1 X90.698 Y69.260 E22.06849
G1 X91.074 Y69.260 E22.08099
G1 X95.595 Y64.739 E22.29327
G1 X95.722 Y64.989 E22.30257
G1 X91.451 Y69.260 E22.50313
G1 X91.827 Y69.260 E22.51563
G1 X95.849 Y65.239 E22.70447
G1 X95.975 Y65.489 E22.71377
G1 X92.204 Y69.260 E22.89086
G1 X92.580 Y69.260 E22.90336
G1 X96.099 Y65.741 E23.06859
G1 X96.223 Y65.994 E23.07793
G1 X92.957 Y69.260 E23.23129
G1 X93.333 Y69.260 E23.24379
G1 X96.347 Y66.246 E23.38530
G1 X96.471 Y66.499 E23.39464
G1 X93.710 Y69.260 E23.52429
G1 X94.086 Y69.260 E23.53679
G1 X96.595 Y66.752 E23.65458
G1 X96.719 Y67.004 E23.66392
G1 X94.463 Y69.260 E23.76985
G1 X94.839 Y69.260 E23.78235
G1 X96.841 Y67.259 E23.87633
G1 X96.961 Y67.515 E23.88573
G1 X95.216 Y69.260 E23.96767
G1 X95.592 Y69.260 E23.98017
G1 X97.081 Y67.771 E24.05008
G1 X97.201 Y68.028 E24.05948
G1 X95.969 Y69.260 E24.11734
G1 X96.345 Y69.260 E24.12984
G1 X97.321 Y68.284 E24.17566
G1 X97.441 Y68.541 E24.18506
G1 X96.721 Y69.260 E24.21885
G1 X97.098 Y69.260 E24.23135
G1 X97.561 Y68.797 E24.25309
G1 X97.681 Y69.053 E24.26249
G1 X97.474 Y69.260 E24.27220
M201 X1250 Y1250
M204 P1250 T1250
G1 X97.921 Y70.213 F9000.000
M201 X800 Y800
M204 P800 T800
G1 F1200
G1 X97.827 Y70.013 E24.27950
G1 X97.827 Y70.306 E24.28920
G1 X98.127 Y70.006 E24.30326
G1 X98.247 Y70.262 E24.31262
G1 X97.827 Y70.682 E24.33229
G1 X97.827 Y71.058 E24.34474
G1 X98.367 Y70.518 E24.37002
G1 X98.487 Y70.774 E24.37938
G1 X97.827 Y71.433 E24.41028
G1 X97.827 Y71.809 E24.42273
G1 X98.602 Y71.034 E24.45902
G1 X98.717 Y71.295 E24.46846
G1 X97.827 Y72.185 E24.51014
G1 X97.827 Y72.560 E24.52259
G1 X98.832 Y71.556 E24.56966
G1 X98.947 Y71.817 E24.57910
G1 X97.827 Y72.936 E24.63156
G1 X97.827 Y73.312 E24.64400
G1 X99.062 Y72.077 E24.70185
G1 X99.177 Y72.338 E24.71129
G1 X97.827 Y73.687 E24.77452
G1 X97.827 Y74.063 E24.78696
G1 X99.292 Y72.599 E24.85558
G1 X99.407 Y72.859 E24.86502
G1 X97.827 Y74.439 E24.93903
G1 X97.827 Y74.814 E24.95148
G1 X99.522 Y73.120 E25.03087
G1 X99.637 Y73.381 E25.04031
G1 X97.827 Y75.190 E25.12509
G1 X97.827 Y75.566 E25.13753
G1 X99.752 Y73.641 E25.22770
G1 X99.864 Y73.905 E25.23719
G1 X97.827 Y75.941 E25.33262
G1 X97.827 Y76.317 E25.34507
G1 X99.975 Y74.169 E25.44571
G1 X100.086 Y74.434 E25.45521
G1 X97.827 Y76.693 E25.56106
G1 X97.827 Y77.068 E25.57351
G1 X100.198 Y74.698 E25.68457
G1 X100.309 Y74.963 E25.69407
G1 X97.827 Y77.444 E25.81034
G1 X97.827 Y77.820 E25.82279
G1 X100.420 Y75.227 E25.94426
G1 X100.531 Y75.492 E25.95377
G1 X97.827 Y78.195 E26.08045
G1 X97.827 Y78.571 E26.09290
G1 X100.642 Y75.756 E26.22479
G1 X100.750 Y76.024 E26.23436
G1 X97.827 Y78.947 E26.37131
G1 X97.827 Y79.322 E26.38376
G1 X100.858 Y76.292 E26.52576
G1 X100.966 Y76.560 E26.53532
G1 X97.827 Y79.698 E26.68238
G1 X97.827 Y80.074 E26.69483
G1 X101.074 Y76.827 E26.84694
G1 X101.181 Y77.095 E26.85650
G1 X97.827 Y80.449 E27.01366
G1 X97.827 Y80.825 E27.02611
G1 X101.289 Y77.363 E27.18832
G1 X101.397 Y77.631 E27.19789
G1 X97.827 Y81.201 E27.36516
G1 X97.827 Y81.576 E27.37760
G1 X101.504 Y77.899 E27.54989
G1 X101.607 Y78.172 E27.55954
G1 X97.827 Y81.952 E27.73667
G1 X97.827 Y82.328 E27.74911
G1 X101.711 Y78.444 E27.93107
G1 X101.814 Y78.717 E27.94072
G1 X97.827 Y82.703 E28.12752
G1 X97.827 Y83.079 E28.13996
G1 X101.917 Y78.989 E28.33160
G1 X102.020 Y79.262 E28.34125
G1 X97.827 Y83.455 E28.53772
G1 X97.827 Y83.830 E28.55016
G1 X102.124 Y79.534 E28.75146
G1 X102.227 Y79.807 E28.76112
G1 X97.827 Y84.206 E28.96726
G1 X97.827 Y84.582 E28.97970
G1 X102.330 Y80.079 E29.19068
G1 X102.433 Y80.352 E29.20033
G1 X97.827 Y84.957 E29.41614
G1 X97.827 Y85.333 E29.42859
G1 X102.536 Y80.624 E29.64923
G1 X102.640 Y80.897 E29.65889
G1 X97.827 Y85.709 E29.88437
G1 X97.827 Y86.084 E29.89682
G1 X102.741 Y81.171 E30.12705
G1 X102.838 Y81.450 E30.13683
G1 X97.827 Y86.460 E30.37160
G1 X97.827 Y86.836 E30.38404
G1 X102.935 Y81.728 E30.62336
G1 X103.032 Y82.007 E30.63313
G1 X97.827 Y87.211 E30.87699
G1 X97.827 Y87.587 E30.88943
G1 X103.129 Y82.286 E31.13782
G1 X103.225 Y82.565 E31.14760
G1 X97.827 Y87.963 E31.40053
G1 X97.827 Y88.338 E31.41298
G1 X103.322 Y82.843 E31.67045
G1 X103.419 Y83.122 E31.68023
G1 X97.827 Y88.714 E31.94225
G1 X97.827 Y89.090 E31.95469
G1 X103.516 Y83.401 E32.22125
G1 X103.613 Y83.680 E32.23102
G1 X97.827 Y89.465 E32.50212
G1 X97.827 Y89.841 E32.51456
G1 X103.710 Y83.959 E32.79020
G1 X103.807 Y84.237 E32.79998
G1 X97.827 Y90.217 E33.08015
G1 X97.827 Y90.593 E33.09260
G1 X103.901 Y84.519 E33.37719
G1 X103.992 Y84.803 E33.38710
G1 X97.827 Y90.968 E33.67595
G1 X97.827 Y91.344 E33.68839
G1 X104.083 Y85.088 E33.98150
G1 X104.174 Y85.373 E33.99141
G1 X97.827 Y91.720 E34.28877
G1 X97.827 Y92.095 E34.30121
G1 X104.264 Y85.658 E34.60283
G1 X104.355 Y85.943 E34.61273
G1 X97.827 Y92.471 E34.91860
G1 X97.827 Y92.847 E34.93105
G1 X104.446 Y86.228 E35.24118
G1 X104.537 Y86.513 E35.25108
G1 X97.827 Y93.222 E35.56546
G1 X97.827 Y93.598 E35.57791
G1 X104.625 Y86.800 E35.89643
G1 X104.712 Y87.089 E35.90643
G1 X97.827 Y93.974 E36.22902
G1 X97.827 Y94.349 E36.24146
G1 X104.799 Y87.378 E36.56811
G1 X104.885 Y87.667 E36.57811
G1 X97.827 Y94.725 E36.90882
G1 X97.827 Y95.101 E36.92126
G1 X104.969 Y87.959 E37.25588
G1 X105.051 Y88.253 E37.26598
