; generated by PrusaSlicer 2.2.0+linux-x64 on 2020-05-15 at 16:40:30 UTC


;
;

;
;
; 

; external perimeters extrusion width = 0.45mm
; perimeters extrusion width = 0.45mm
; infill extrusion width = 0.45mm
; solid infill extrusion width = 0.45mm
; top infill extrusion width = 0.40mm
; first layer extrusion width = 0.42mm

M73 P0 R72
M201 X1250 Y1250 Z400 E5000 ; sets maximum accelerations, mm/sec^2
M203 X180 Y180 Z12 E80 ; sets maximum feedrates, mm/sec
M204 P1250 R1250 T1250 ; sets acceleration (P, T) and retract acceleration (R), mm/sec^2
M205 X8.00 Y8.00 Z2.00 E10.00 ; sets the jerk limits, mm/sec
M205 S0 T0 ; sets the minimum extruding and travel feed rate, mm/sec
M107
G90 ; use absolute coordinates
M83 ; extruder relative mode
M104 S170 ; set extruder temp for bed leveling
M140 S60 ; set bed temp
M109 R170 ; wait for bed leveling temp
M190 S60 ; wait for bed temp
G28 ; home all without mesh bed level
G29 ; mesh bed leveling 
M104 S215 ; set extruder temp
G92 E0.0
G1 Y-2.0 X179 F2400
G1 Z3 F720
M109 S215 ; wait for extruder temp

; intro line
G1 X170 F1000
G1 Z0.2 F720
G1 X110.0 E8.0 F900
M73 P0 R72
G1 X40.0 E10.0 F700
G92 E0.0

M221 S95 ; set flow
G21 ; set units to millimeters
G90 ; use absolute coordinates
M83 ; use relative distances for extrusion
M900 K0.2 ; Filament gcode
;BEFORE_LAYER_CHANGE
G92 E0.0
;0.2


G1 Z0.200 F9000.000
;AFTER_LAYER_CHANGE
;0.2
G1 E-3.20000 F4200.00000
G1 Z0.400 F9000.000
G1 X140.937 Y14.069
G1 Z0.200
G1 E3.20000 F2400.00000
M204 S800
G1 F1200.000
G1 X141.127 Y14.968 E0.02682
G1 X141.127 Y165.004 E4.37496
G1 X141.056 Y165.577 E0.01684
G1 X140.847 Y166.119 E0.01695
G1 X140.479 Y166.631 E0.01838
G1 X139.993 Y167.026 E0.01827
G1 X139.416 Y167.282 E0.01838
G1 X138.797 Y167.377 E0.01827
G1 X78.632 Y167.374 E1.75438
G1 X74.460 Y167.143 E0.12185
G1 X66.545 Y165.460 E0.23593
G1 X58.879 Y162.072 E0.24440
G1 X52.068 Y157.135 E0.24530
G1 X46.487 Y150.937 E0.24320
G1 X42.318 Y143.714 E0.24320
G1 X39.712 Y135.605 E0.24836
G1 X38.873 Y127.524 E0.23689
G1 X38.874 Y52.435 E2.18956
G1 X39.746 Y44.203 E0.24139
G1 X42.395 Y36.128 E0.24782
G1 X46.493 Y29.056 E0.23833
G1 X52.075 Y22.859 E0.24320
G1 X58.817 Y17.962 E0.24298
G1 X66.598 Y14.526 E0.24804
G1 X74.460 Y12.857 E0.23434
G1 X78.687 Y12.624 E0.12344
G1 X138.754 Y12.623 E1.75153
G1 X139.656 Y12.802 E0.02682
G1 X140.420 Y13.308 E0.02671
G1 X140.903 Y14.019 E0.02507
M204 S1250
G1 E-2.24000 F4200.00000
G1 F7200.000
G1 X141.127 Y14.968 E-0.54060
G1 X141.127 Y15.639 E-0.37140
G1 E-0.04800 F4200.00000
G1 Z0.400 F9000.000
G1 X66.304 Y112.127
G1 Z0.200
G1 E3.20000 F2400.00000
M204 S800
G1 F1200.000
G1 X67.559 Y114.300 E0.07316
G1 X66.304 Y116.473 E0.07316
G1 X63.796 Y116.473 E0.07316
G1 X62.541 Y114.300 E0.07316
G1 X63.796 Y112.127 E0.07316
G1 X66.244 Y112.127 E0.07141
M204 S1250
G1 X66.087 Y112.504 F9000.000
M204 S800
G1 F1200.000
G1 X67.123 Y114.300 E0.06046
G1 X66.087 Y116.096 E0.06046
G1 X64.013 Y116.096 E0.06046
G1 X62.977 Y114.300 E0.06046
G1 X64.013 Y112.504 E0.06046
G1 X66.027 Y112.504 E0.05871
M204 S1250
G1 X66.433 Y112.304 F9000.000
G1 E-2.24000 F4200.00000
G1 F7200.000
G1 X66.885 Y113.909 E-0.91200
G1 E-0.04800 F4200.00000
G1 Z0.400 F9000.000
G1 X63.796 Y63.527
G1 Z0.200
G1 E3.20000 F2400.00000
M204 S800
G1 F1200.000
G1 X66.304 Y63.527 E0.07316
G1 X67.559 Y65.700 E0.07316
G1 X66.304 Y67.873 E0.07316
G1 X63.796 Y67.873 E0.07316
G1 X62.541 Y65.700 E0.07316
G1 X63.766 Y63.579 E0.07141
M204 S1250
G1 X64.013 Y63.904 F9000.000
M204 S800
G1 F1200.000
G1 X66.087 Y63.904 E0.06046
G1 X67.123 Y65.700 E0.06046
G1 X66.087 Y67.496 E0.06046
G1 X64.013 Y67.496 E0.06046
G1 X62.977 Y65.700 E0.06046
G1 X63.983 Y63.956 E0.05871
M204 S1250
G1 X64.013 Y63.504 F9000.000
G1 E-2.24000 F4200.00000
G1 F7200.000
G1 X65.629 Y63.916 E-0.91200
G1 E-0.04800 F4200.00000
G1 Z0.400 F9000.000
G1 X79.537 Y164.008
G1 Z0.200
G1 E3.20000 F2400.00000
M204 S800
G1 F1200.000
G1 X74.913 Y164.008 E0.13484
G1 X67.406 Y162.412 E0.22378
G1 X60.396 Y159.291 E0.22378
G1 X54.187 Y154.780 E0.22378
G1 X49.052 Y149.077 E0.22378
G1 X45.215 Y142.431 E0.22378
G1 X42.844 Y135.132 E0.22377
G1 X42.037 Y127.459 E0.22499
G1 X42.037 Y52.541 E2.18456
G1 X42.844 Y44.868 E0.22499
G1 X45.215 Y37.569 E0.22377
G1 X49.052 Y30.923 E0.22378
G1 X54.187 Y25.220 E0.22378
G1 X60.396 Y20.709 E0.22378
G1 X67.406 Y17.588 E0.22378
G1 X74.913 Y15.992 E0.22378
G1 X79.537 Y15.992 E0.13484
G1 X79.537 Y15.787 E0.00599
G1 X137.963 Y15.787 E1.70367
G1 X137.963 Y164.213 E4.32802
G1 X79.537 Y164.213 E1.70367
G1 X79.537 Y164.068 E0.00424
M204 S1250
G1 X79.160 Y164.385 F9000.000
M204 S800
G1 F1200.000
G1 X74.873 Y164.385 E0.12500
M73 P1 R71
G1 X67.289 Y162.773 E0.22609
G1 X60.206 Y159.619 E0.22609
G1 X53.933 Y155.062 E0.22609
G1 X48.745 Y149.300 E0.22609
G1 X44.869 Y142.585 E0.22609
G1 X42.473 Y135.211 E0.22608
G1 X41.660 Y127.479 E0.22672
G1 X41.660 Y52.521 E2.18571
G1 X42.473 Y44.789 E0.22672
G1 X44.869 Y37.415 E0.22608
G1 X48.745 Y30.700 E0.22609
G1 X53.933 Y24.938 E0.22609
G1 X60.206 Y20.381 E0.22609
G1 X67.289 Y17.227 E0.22609
G1 X74.873 Y15.615 E0.22609
G1 X79.160 Y15.615 E0.12500
G1 X79.160 Y15.410 E0.00599
G1 X138.340 Y15.410 E1.72566
G1 X138.340 Y164.590 E4.35001
G1 X79.160 Y164.590 E1.72566
G1 X79.160 Y164.445 E0.00424
M204 S1250
G1 X78.960 Y164.038 F9000.000
G1 E-2.24000 F4200.00000
G1 F7200.000
G1 X77.514 Y164.422 E-0.91200
G1 E-0.04800 F4200.00000
G1 Z0.400 F9000.000
G1 X110.318 Y164.100
G1 Z0.200
G1 E3.20000 F2400.00000
M204 S800
G1 F1200.000
G1 X42.320 Y96.102 E2.80498
G1 X42.320 Y96.635 E0.01556
G1 X109.615 Y163.930 E2.77597
G1 X109.081 Y163.930 E0.01556
G1 X42.320 Y97.169 E2.75397
G1 X42.320 Y97.702 E0.01556
G1 X108.548 Y163.930 E2.73196
G1 X108.014 Y163.930 E0.01556
G1 X42.320 Y98.236 E2.70996
G1 X42.320 Y98.769 E0.01556
G1 X107.481 Y163.930 E2.68795
G1 X106.947 Y163.930 E0.01556
G1 X42.320 Y99.303 E2.66595
G1 X42.320 Y99.836 E0.01556
G1 X106.414 Y163.930 E2.64394
M73 P3 R70
G1 X105.880 Y163.930 E0.01556
G1 X42.320 Y100.370 E2.62194
G1 X42.320 Y100.903 E0.01556
G1 X105.347 Y163.930 E2.59993
G1 X104.814 Y163.930 E0.01556
G1 X42.320 Y101.436 E2.57793
G1 X42.320 Y101.970 E0.01556
G1 X104.280 Y163.930 E2.55592
G1 X103.747 Y163.930 E0.01556
G1 X42.320 Y102.503 E2.53392
G1 X42.320 Y103.037 E0.01556
G1 X103.213 Y163.930 E2.51191
G1 X102.680 Y163.930 E0.01556
G1 X42.320 Y103.570 E2.48991
G1 X42.320 Y104.104 E0.01556
G1 X102.146 Y163.930 E2.46790
G1 X101.613 Y163.930 E0.01556
G1 X42.320 Y104.637 E2.44590
G1 X42.320 Y105.171 E0.01556
G1 X101.079 Y163.930 E2.42389
G1 X100.546 Y163.930 E0.01556
G1 X42.320 Y105.704 E2.40189
G1 X42.320 Y106.237 E0.01556
G1 X100.013 Y163.930 E2.37988
G1 X99.479 Y163.930 E0.01556
G1 X42.320 Y106.771 E2.35788
G1 X42.320 Y107.304 E0.01556
G1 X98.946 Y163.930 E2.33587
M73 P4 R69
G1 X98.412 Y163.930 E0.01556
G1 X42.320 Y107.838 E2.31387
G1 X42.320 Y108.371 E0.01556
G1 X97.879 Y163.930 E2.29186
G1 X97.345 Y163.930 E0.01556
G1 X42.320 Y108.905 E2.26986
G1 X42.320 Y109.438 E0.01556
G1 X96.812 Y163.930 E2.24785
G1 X96.278 Y163.930 E0.01556
G1 X42.320 Y109.972 E2.22585
G1 X42.320 Y110.505 E0.01556
G1 X95.745 Y163.930 E2.20384
G1 X95.212 Y163.930 E0.01556
G1 X42.320 Y111.038 E2.18184
G1 X42.320 Y111.572 E0.01556
G1 X94.678 Y163.930 E2.15983
G1 X94.145 Y163.930 E0.01556
G1 X42.320 Y112.105 E2.13783
G1 X42.320 Y112.639 E0.01556
G1 X93.611 Y163.930 E2.11582
G1 X93.078 Y163.930 E0.01556
G1 X42.320 Y113.172 E2.09382
G1 X42.320 Y113.706 E0.01556
G1 X92.544 Y163.930 E2.07181
G1 X92.011 Y163.930 E0.01556
G1 X42.320 Y114.239 E2.04981
G1 X42.320 Y114.773 E0.01556
G1 X91.477 Y163.930 E2.02780
G1 X90.944 Y163.930 E0.01556
G1 X42.320 Y115.306 E2.00580
G1 X42.320 Y115.839 E0.01556
G1 X90.411 Y163.930 E1.98379
G1 X89.877 Y163.930 E0.01556
G1 X42.320 Y116.373 E1.96179
M73 P5 R68
G1 X42.320 Y116.906 E0.01556
G1 X89.344 Y163.930 E1.93978
G1 X88.810 Y163.930 E0.01556
G1 X42.320 Y117.440 E1.91778
G1 X42.320 Y117.973 E0.01556
G1 X88.277 Y163.930 E1.89577
G1 X87.743 Y163.930 E0.01556
G1 X42.320 Y118.507 E1.87377
G1 X42.320 Y119.040 E0.01556
G1 X87.210 Y163.930 E1.85176
G1 X86.676 Y163.930 E0.01556
G1 X42.320 Y119.573 E1.82976
G1 X42.320 Y120.107 E0.01556
G1 X86.143 Y163.930 E1.80775
G1 X85.610 Y163.930 E0.01556
G1 X42.320 Y120.640 E1.78575
G1 X42.320 Y121.174 E0.01556
G1 X85.076 Y163.930 E1.76374
G1 X84.543 Y163.930 E0.01556
G1 X42.320 Y121.707 E1.74174
G1 X42.320 Y122.241 E0.01556
G1 X84.009 Y163.930 E1.71973
G1 X83.476 Y163.930 E0.01556
G1 X42.320 Y122.774 E1.69773
G1 X42.320 Y123.308 E0.01556
G1 X82.942 Y163.930 E1.67572
G1 X82.409 Y163.930 E0.01556
G1 X42.320 Y123.841 E1.65372
G1 X42.320 Y124.374 E0.01556
G1 X81.876 Y163.930 E1.63171
G1 X81.342 Y163.930 E0.01556
G1 X42.320 Y124.908 E1.60971
G1 X42.320 Y125.441 E0.01556
G1 X80.809 Y163.930 E1.58770
G1 X80.275 Y163.930 E0.01556
G1 X42.320 Y125.975 E1.56570
G1 X42.320 Y126.508 E0.01556
G1 X79.536 Y163.725 E1.53522
G1 X79.003 Y163.725 E0.01556
G1 X42.320 Y127.042 E1.51321
M73 P7 R67
G1 X42.335 Y127.591 E0.01602
G1 X78.469 Y163.725 E1.49057
G1 X77.936 Y163.725 E0.01556
G1 X42.398 Y128.187 E1.46598
G1 X42.461 Y128.783 E0.01748
G1 X77.403 Y163.725 E1.44139
G1 X76.869 Y163.725 E0.01556
G1 X42.523 Y129.379 E1.41680
G1 X42.586 Y129.975 E0.01748
G1 X76.336 Y163.725 E1.39221
G1 X75.802 Y163.725 E0.01556
G1 X42.649 Y130.571 E1.36762
G1 X42.711 Y131.167 E0.01748
G1 X75.269 Y163.725 E1.34303
G1 X74.943 Y163.725 E0.00951
G1 X74.679 Y163.669 E0.00785
G1 X42.774 Y131.763 E1.31614
G1 X42.837 Y132.359 E0.01748
G1 X74.002 Y163.525 E1.28561
G1 X73.325 Y163.381 E0.02020
G1 X42.899 Y132.955 E1.25508
G1 X42.962 Y133.552 E0.01748
G1 X72.647 Y163.237 E1.22455
G1 X71.970 Y163.093 E0.02020
G1 X43.024 Y134.148 E1.19402
G1 X43.087 Y134.744 E0.01748
G1 X71.292 Y162.949 E1.16349
G1 X70.615 Y162.805 E0.02020
G1 X43.237 Y135.427 E1.12937
G1 X43.493 Y136.217 E0.02423
G1 X69.937 Y162.661 E1.09084
G1 X69.260 Y162.517 E0.02020
G1 X43.750 Y137.007 E1.05230
G1 X44.007 Y137.797 E0.02423
G1 X68.582 Y162.373 E1.01377
G1 X67.905 Y162.229 E0.02020
G1 X44.264 Y138.587 E0.97523
G1 X44.520 Y139.378 E0.02423
G1 X67.116 Y161.973 E0.93208
G1 X66.154 Y161.545 E0.03070
G1 X44.777 Y140.168 E0.88182
G1 X45.034 Y140.958 E0.02423
G1 X65.193 Y161.117 E0.83157
G1 X64.231 Y160.689 E0.03070
G1 X45.291 Y141.748 E0.78131
G1 X45.475 Y142.315 E0.01739
G1 X45.681 Y142.672 E0.01201
G1 X63.270 Y160.261 E0.72556
G1 X62.308 Y159.832 E0.03070
G1 X46.409 Y143.934 E0.65583
G1 X47.138 Y145.196 E0.04251
G1 X61.346 Y159.404 E0.58611
G1 X60.538 Y159.044 E0.02582
G1 X60.228 Y158.819 E0.01119
G1 X47.867 Y146.458 E0.50989
G1 X48.596 Y147.720 E0.04251
G1 X58.277 Y157.401 E0.39935
G1 X56.326 Y155.984 E0.07034
G1 X48.861 Y148.519 E0.30794
M204 S1250
G1 E-2.24000 F4200.00000
G1 F7200.000
G1 X50.024 Y149.683 E-0.91200
G1 E-0.04800 F4200.00000
G1 Z0.400 F9000.000
G1 X118.319 Y164.100
G1 Z0.200
G1 E3.20000 F2400.00000
M204 S800
G1 F1200.000
G1 X67.019 Y112.800 E2.11618
G1 X67.748 Y114.062 E0.04251
G1 X117.616 Y163.930 E2.05712
G1 X117.083 Y163.930 E0.01556
G1 X67.727 Y114.574 E2.03598
M73 P8 R66
G1 X67.532 Y114.913 E0.01139
G1 X116.549 Y163.930 E2.02202
G1 X116.016 Y163.930 E0.01556
G1 X67.336 Y115.251 E2.00807
G1 X67.141 Y115.589 E0.01139
G1 X115.482 Y163.930 E1.99412
G1 X114.949 Y163.930 E0.01556
G1 X66.946 Y115.927 E1.98017
G1 X66.751 Y116.265 E0.01139
G1 X114.416 Y163.930 E1.96622
G1 X113.882 Y163.930 E0.01556
G1 X66.555 Y116.603 E1.95227
G1 X66.468 Y116.755 E0.00512
G1 X66.174 Y116.755 E0.00857
G1 X113.349 Y163.930 E1.94600
G1 X112.815 Y163.930 E0.01556
G1 X65.641 Y116.755 E1.94600
G1 X65.107 Y116.755 E0.01556
G1 X112.282 Y163.930 E1.94600
G1 X111.748 Y163.930 E0.01556
G1 X64.574 Y116.755 E1.94600
G1 X64.040 Y116.755 E0.01556
G1 X111.215 Y163.930 E1.94600
G1 X110.681 Y163.930 E0.01556
G1 X42.320 Y95.569 E2.81998
G1 X42.320 Y95.035 E0.01556
G1 X63.075 Y115.790 E0.85617
G1 X62.346 Y114.528 E0.04251
G1 X42.320 Y94.502 E0.82611
G1 X42.320 Y93.968 E0.01556
G1 X62.375 Y114.023 E0.82728
G1 X62.570 Y113.685 E0.01139
G1 X42.320 Y93.435 E0.83533
G1 X42.320 Y92.901 E0.01556
G1 X62.765 Y113.347 E0.84339
G1 X62.960 Y113.008 E0.01139
G1 X42.320 Y92.368 E0.85144
G1 X42.320 Y91.834 E0.01556
G1 X63.156 Y112.670 E0.85949
G1 X63.351 Y112.332 E0.01139
G1 X42.320 Y91.301 E0.86755
G1 X42.320 Y90.768 E0.01556
G1 X63.546 Y111.994 E0.87560
G1 X63.632 Y111.845 E0.00503
G1 X63.930 Y111.845 E0.00869
G1 X42.320 Y90.234 E0.89145
G1 X42.320 Y89.701 E0.01556
G1 X64.464 Y111.845 E0.91346
G1 X64.997 Y111.845 E0.01556
G1 X42.320 Y89.167 E0.93546
M73 P10 R65
G1 X42.320 Y88.634 E0.01556
G1 X65.531 Y111.845 E0.95747
G1 X66.064 Y111.845 E0.01556
G1 X42.320 Y88.100 E0.97947
G1 X42.320 Y87.567 E0.01556
G1 X118.683 Y163.930 E3.15006
G1 X119.217 Y163.930 E0.01556
G1 X42.320 Y87.033 E3.17207
G1 X42.320 Y86.500 E0.01556
G1 X119.750 Y163.930 E3.19407
G1 X120.283 Y163.930 E0.01556
G1 X42.320 Y85.967 E3.21608
G1 X42.320 Y85.433 E0.01556
G1 X120.817 Y163.930 E3.23808
G1 X121.350 Y163.930 E0.01556
G1 X42.320 Y84.900 E3.26009
G1 X42.320 Y84.366 E0.01556
G1 X121.884 Y163.930 E3.28209
G1 X122.417 Y163.930 E0.01556
G1 X42.320 Y83.833 E3.30410
G1 X42.320 Y83.299 E0.01556
G1 X122.951 Y163.930 E3.32610
G1 X123.484 Y163.930 E0.01556
G1 X42.320 Y82.766 E3.34811
G1 X42.320 Y82.233 E0.01556
G1 X124.017 Y163.930 E3.37011
M73 P11 R64
G1 X124.551 Y163.930 E0.01556
G1 X42.320 Y81.699 E3.39212
G1 X42.320 Y81.166 E0.01556
G1 X125.084 Y163.930 E3.41412
G1 X125.618 Y163.930 E0.01556
G1 X42.320 Y80.632 E3.43613
G1 X42.320 Y80.099 E0.01556
G1 X126.151 Y163.930 E3.45813
G1 X126.685 Y163.930 E0.01556
G1 X42.320 Y79.565 E3.48014
G1 X42.320 Y79.032 E0.01556
G1 X127.218 Y163.930 E3.50214
G1 X127.752 Y163.930 E0.01556
G1 X42.320 Y78.498 E3.52415
G1 X42.320 Y77.965 E0.01556
G1 X128.285 Y163.930 E3.54615
G1 X128.818 Y163.930 E0.01556
G1 X42.320 Y77.432 E3.56816
G1 X42.320 Y76.898 E0.01556
G1 X129.352 Y163.930 E3.59016
M73 P12 R63
G1 X129.885 Y163.930 E0.01556
G1 X42.320 Y76.365 E3.61217
G1 X42.320 Y75.831 E0.01556
G1 X130.419 Y163.930 E3.63417
G1 X130.952 Y163.930 E0.01556
G1 X42.320 Y75.298 E3.65618
G1 X42.320 Y74.764 E0.01556
G1 X131.486 Y163.930 E3.67818
G1 X132.019 Y163.930 E0.01556
G1 X42.320 Y74.231 E3.70019
G1 X42.320 Y73.697 E0.01556
G1 X132.553 Y163.930 E3.72219
G1 X133.086 Y163.930 E0.01556
G1 X42.320 Y73.164 E3.74420
G1 X42.320 Y72.631 E0.01556
G1 X133.619 Y163.930 E3.76620
G1 X134.153 Y163.930 E0.01556
G1 X42.320 Y72.097 E3.78821
G1 X42.320 Y71.564 E0.01556
G1 X134.686 Y163.930 E3.81021
M73 P14 R62
G1 X135.220 Y163.930 E0.01556
G1 X42.320 Y71.030 E3.83222
G1 X42.320 Y70.497 E0.01556
G1 X135.753 Y163.930 E3.85422
G1 X136.287 Y163.930 E0.01556
G1 X42.320 Y69.963 E3.87623
G1 X42.320 Y69.430 E0.01556
G1 X136.820 Y163.930 E3.89823
G1 X137.354 Y163.930 E0.01556
G1 X42.320 Y68.896 E3.92024
G1 X42.320 Y68.363 E0.01556
G1 X137.680 Y163.723 E3.93371
G1 X137.680 Y163.190 E0.01556
G1 X42.320 Y67.830 E3.93371
G1 X42.320 Y67.296 E0.01556
G1 X137.680 Y162.656 E3.93371
G1 X137.680 Y162.123 E0.01556
G1 X42.320 Y66.763 E3.93371
M73 P15 R61
G1 X42.320 Y66.229 E0.01556
G1 X137.680 Y161.589 E3.93371
G1 X137.680 Y161.056 E0.01556
G1 X42.320 Y65.696 E3.93371
G1 X42.320 Y65.162 E0.01556
G1 X137.680 Y160.523 E3.93371
G1 X137.680 Y159.989 E0.01556
G1 X42.320 Y64.629 E3.93371
G1 X42.320 Y64.095 E0.01556
G1 X137.680 Y159.456 E3.93371
G1 X137.680 Y158.922 E0.01556
G1 X42.320 Y63.562 E3.93371
G1 X42.320 Y63.029 E0.01556
G1 X137.680 Y158.389 E3.93371
G1 X137.680 Y157.855 E0.01556
G1 X42.320 Y62.495 E3.93371
G1 X42.320 Y61.962 E0.01556
G1 X137.680 Y157.322 E3.93371
M73 P17 R60
G1 X137.680 Y156.788 E0.01556
G1 X42.320 Y61.428 E3.93371
G1 X42.320 Y60.895 E0.01556
G1 X137.680 Y156.255 E3.93371
G1 X137.680 Y155.722 E0.01556
G1 X42.320 Y60.361 E3.93371
G1 X42.320 Y59.828 E0.01556
G1 X137.680 Y155.188 E3.93371
G1 X137.680 Y154.655 E0.01556
G1 X42.320 Y59.294 E3.93371
G1 X42.320 Y58.761 E0.01556
G1 X137.680 Y154.121 E3.93371
G1 X137.680 Y153.588 E0.01556
G1 X42.320 Y58.228 E3.93371
G1 X42.320 Y57.694 E0.01556
G1 X137.680 Y153.054 E3.93371
G1 X137.680 Y152.521 E0.01556
G1 X42.320 Y57.161 E3.93371
M73 P18 R59
G1 X42.320 Y56.627 E0.01556
