; generated by Slic3r 1.3.1-dev (Build (Unknown revision)) on 2020-04-07 at 11:31:36

; external perimeters extrusion width = 0.44mm (2.86mm^3/s)
; perimeters extrusion width = 0.56mm (4.14mm^3/s)
; infill extrusion width = 0.50mm (3.66mm^3/s)
; solid infill extrusion width = 0.56mm (3.10mm^3/s)
; top infill extrusion width = 0.56mm (3.10mm^3/s)

M107
G92 E0
;D3D:START:START
T0
M104 S215 T0

G21
G90
M107
T0
G28
G29
M109 T0 S215 T0
G0 F3000
M107
T0
G92 E0
G0 X0 Y149 Z0.1 F3600
G1 Y49 E6.5 F1200
G0 Z1
G92 E0
; Filament gcode

G21 ; set units to millimeters
G90 ; use absolute coordinates
M82 ; use absolute distances for extrusion
G92 E0
G1 Z0.300 F7800.000
G1 E-2.00000 F2400.00000
G92 E0
G1 X42.598 Y97.218 F7800.000
G1 E2.00000 F2400.00000
G1 F1800.000
G1 X45.002 Y97.218 E2.07964
G1 X46.204 Y99.300 E2.15928
G1 X45.002 Y101.382 E2.23892
G1 X42.598 Y101.382 E2.31856
G1 X41.396 Y99.300 E2.39820
G1 X42.568 Y97.270 E2.47586
G1 X42.751 Y97.484 F7800.000
G1 F1800.000
G1 X44.849 Y97.484 E2.54534
G1 X45.897 Y99.300 E2.61482
G1 X44.849 Y101.116 E2.68430
G1 X42.751 Y101.116 E2.75378
G1 X41.703 Y99.300 E2.82326
G1 X42.721 Y97.536 E2.89075
G1 X42.905 Y97.749 F7800.000
G1 F1800.000
G1 X44.695 Y97.749 E2.95007
G1 X45.591 Y99.300 E3.00938
G1 X44.695 Y100.851 E3.06870
G1 X42.905 Y100.851 E3.12802
G1 X42.009 Y99.300 E3.18734
G1 X42.875 Y97.801 E3.24467
G1 E1.24467 F2400.00000
G92 E0
G1 X42.598 Y52.782 F7800.000
G1 E2.00000 F2400.00000
G1 F1800.000
G1 X41.396 Y50.700 E2.07964
G1 X42.598 Y48.618 E2.15928
G1 X45.002 Y48.618 E2.23892
G1 X46.204 Y50.700 E2.31856
G1 X45.002 Y52.782 E2.39820
G1 X42.658 Y52.782 E2.47586
G1 X42.751 Y52.516 F7800.000
G1 F1800.000
G1 X41.703 Y50.700 E2.54534
G1 X42.751 Y48.884 E2.61482
G1 X44.849 Y48.884 E2.68430
G1 X45.897 Y50.700 E2.75378
G1 X44.849 Y52.516 E2.82325
G1 X42.811 Y52.516 E2.89075
G1 X42.905 Y52.251 F7800.000
G1 F1800.000
G1 X42.009 Y50.700 E2.95007
G1 X42.905 Y49.149 E3.00938
G1 X44.695 Y49.149 E3.06870
G1 X45.591 Y50.700 E3.12802
G1 X44.695 Y52.251 E3.18734
G1 X42.965 Y52.251 E3.24467
G1 E1.24467 F2400.00000
G92 E0
G1 X126.804 Y0.696 F7800.000
G1 E2.00000 F2400.00000
G1 F1800.000
G1 X126.804 Y149.304 E6.92330
G1 X60.696 Y149.304 E9.11341
G1 X60.696 Y149.098 E9.12021
G1 X56.153 Y149.098 E9.27071
G1 X48.628 Y147.499 E9.52559
G1 X41.600 Y144.370 E9.78046
G1 X35.376 Y139.848 E10.03534
G1 X30.228 Y134.130 E10.29021
G1 X26.382 Y127.468 E10.54509
G1 X24.004 Y120.151 E10.79996
G1 X23.196 Y112.464 E11.05605
G1 X23.196 Y37.536 E13.53835
G1 X24.004 Y29.849 E13.79444
G1 X26.382 Y22.532 E14.04931
G1 X30.228 Y15.870 E14.30419
G1 X35.376 Y10.152 E14.55906
G1 X41.600 Y5.630 E14.81394
G1 X48.628 Y2.501 E15.06881
G1 X56.153 Y0.902 E15.32369
G1 X60.696 Y0.902 E15.47419
G1 X60.696 Y0.696 E15.48100
G1 X126.744 Y0.696 E17.66912
G1 X127.069 Y0.431 F7800.000
G1 F1800.000
G1 X127.069 Y149.569 E22.61001
G1 X60.431 Y149.569 E24.81773
G1 X60.431 Y149.364 E24.82453
G1 X56.125 Y149.364 E24.96716
G1 X48.546 Y147.753 E25.22388
G1 X41.466 Y144.601 E25.48061
G1 X35.197 Y140.046 E25.73733
G1 X30.012 Y134.287 E25.99406
G1 X26.138 Y127.576 E26.25078
G1 X23.743 Y120.207 E26.50750
G1 X22.931 Y112.477 E26.76498
G1 X22.931 Y37.523 E29.24820
G1 X23.743 Y29.793 E29.50568
G1 X26.138 Y22.424 E29.76240
G1 X30.012 Y15.713 E30.01912
G1 X35.197 Y9.954 E30.27585
G1 X41.466 Y5.399 E30.53257
G1 X48.546 Y2.247 E30.78930
G1 X56.125 Y0.636 E31.04602
G1 X60.431 Y0.636 E31.18865
G1 X60.431 Y0.431 E31.19546
G1 X127.009 Y0.431 E33.40118
G1 X127.335 Y0.165 F7800.000
G1 F1800.000
G1 X127.335 Y149.835 E38.35967
G1 X60.165 Y149.835 E40.58498
G1 X60.165 Y149.630 E40.59179
G1 X56.098 Y149.630 E40.72654
G1 X48.463 Y148.007 E40.98512
G1 X41.333 Y144.832 E41.24369
G1 X35.019 Y140.245 E41.50227
G1 X29.796 Y134.444 E41.76084
G1 X25.894 Y127.685 E42.01941
G1 X23.482 Y120.262 E42.27799
G1 X22.665 Y112.491 E42.53685
G1 X22.665 Y37.509 E45.02099
G1 X23.482 Y29.738 E45.27985
G1 X25.894 Y22.315 E45.53843
G1 X29.796 Y15.556 E45.79700
G1 X35.019 Y9.755 E46.05558
G1 X41.333 Y5.168 E46.31415
G1 X48.463 Y1.993 E46.57273
G1 X56.098 Y0.370 E46.83130
G1 X60.165 Y0.370 E46.96605
G1 X60.165 Y0.165 E46.97286
G1 X127.275 Y0.165 E49.19618
G1 E47.19618 F2400.00000
G92 E0
G1 X61.211 Y0.859 F7800.000
G1 E2.00000 F2400.00000
G1 F1800.000
G1 X60.859 Y1.211 E2.01652
G1 E0.01652 F2400.00000
G92 E0
G1 X35.453 Y10.453 F7800.000
G1 E2.00000 F2400.00000
G1 F1800.000
G1 X35.660 Y10.246 E2.00969
G1 X37.034 Y9.248 E2.06602
G1 X32.050 Y14.232 E2.29972
G1 X30.341 Y16.130 E2.38437
G1 X30.086 Y16.572 E2.40129
G1 X38.409 Y8.249 E2.79152
G1 X39.784 Y7.250 E2.84785
G1 X29.572 Y17.461 E3.32659
G1 X29.059 Y18.351 E3.36064
G1 X41.158 Y6.251 E3.92791
G1 X41.837 Y5.758 E3.95571
G1 X42.180 Y5.606 E3.96816
G1 X28.545 Y19.240 E4.60741
G1 X28.032 Y20.130 E4.64145
G1 X42.857 Y5.304 E5.33654
G1 X43.535 Y5.002 E5.36112
G1 X27.518 Y21.019 E6.11205
G1 X27.005 Y21.908 E6.14610
G1 X44.213 Y4.701 E6.95286
G1 X44.890 Y4.399 E6.97745
G1 X26.511 Y22.778 E7.83911
G1 X26.330 Y23.335 E7.85852
G1 X45.568 Y4.097 E8.76043
G1 X46.245 Y3.796 E8.78502
G1 X26.149 Y23.891 E9.72718
G1 X25.969 Y24.448 E9.74658
G1 X46.923 Y3.494 E10.72899
G1 X47.600 Y3.192 E10.75358
G1 X25.788 Y25.005 E11.77623
G1 X25.607 Y25.562 E11.79564
G1 X48.278 Y2.891 E12.85854
G1 X48.814 Y2.652 E12.87800
G1 X48.914 Y2.631 E12.88137
G1 X25.426 Y26.119 E13.98256
G1 X25.245 Y26.675 E14.00197
G1 X49.391 Y2.529 E15.13402
G1 X49.868 Y2.428 E15.15020
G1 X25.064 Y27.232 E16.31311
G1 X24.883 Y27.789 E16.33252
G1 X50.346 Y2.326 E17.52630
G1 X50.823 Y2.225 E17.54248
G1 X24.702 Y28.346 E18.76711
G1 X24.521 Y28.903 E18.78652
G1 X51.300 Y2.123 E20.04202
G1 X51.778 Y2.022 E20.05820
G1 X24.340 Y29.459 E21.34456
G1 X24.162 Y30.014 E21.36388
G1 X52.255 Y1.920 E22.68101
G1 X52.733 Y1.819 E22.69719
G1 X24.117 Y30.434 E24.03876
G1 X24.073 Y30.854 E24.05277
G1 X53.210 Y1.717 E25.41879
G1 X53.687 Y1.616 E25.43497
G1 X24.029 Y31.274 E26.82545
G1 X23.985 Y31.694 E26.83945
G1 X54.165 Y1.515 E28.25437
G1 X54.642 Y1.413 E28.27055
G1 X23.941 Y32.114 E29.70993
G1 X23.897 Y32.534 E29.72393
G1 X55.119 Y1.312 E31.18776
G1 X55.597 Y1.210 E31.20394
G1 X23.852 Y32.954 E32.69222
G1 X23.808 Y33.374 E32.70622
G1 X56.074 Y1.109 E34.21894
G1 X56.285 Y1.064 E34.22608
G1 X56.495 Y1.064 E34.23305
G1 X23.764 Y33.794 E35.76756
G1 X23.720 Y34.215 E35.78157
G1 X56.871 Y1.064 E37.33578
G1 X57.247 Y1.064 E37.34824
G1 X23.676 Y34.635 E38.92214
G1 X23.632 Y35.055 E38.93614
G1 X57.622 Y1.064 E40.52974
G1 X57.998 Y1.064 E40.54220
G1 X23.588 Y35.475 E42.15549
G1 X23.543 Y35.895 E42.16950
G1 X58.374 Y1.064 E43.80248
G1 X58.750 Y1.064 E43.81494
G1 X23.499 Y36.315 E45.46762
G1 X23.455 Y36.735 E45.48162
G1 X59.126 Y1.064 E47.15399
G1 X59.502 Y1.064 E47.16645
G1 X23.411 Y37.155 E48.85851
G1 X23.367 Y37.575 E48.87251
G1 X59.878 Y1.064 E50.58427
G1 X60.254 Y1.064 E50.59673
G1 X23.359 Y37.959 E52.32650
G1 X23.359 Y38.335 E52.33896
G1 X60.630 Y1.064 E54.08635
G1 X61.005 Y1.064 E54.09881
G1 X23.359 Y38.711 E55.86382
G1 X23.359 Y39.087 E55.87628
G1 X61.587 Y0.859 E57.66855
G1 X61.963 Y0.859 E57.68101
G1 X23.359 Y39.463 E59.49090
G1 X23.359 Y39.838 E59.50336
G1 X62.339 Y0.859 E61.33087
G1 X62.714 Y0.859 E61.34333
G1 X23.359 Y40.214 E63.18847
G1 X23.359 Y40.590 E63.20093
G1 X63.090 Y0.859 E65.06369
G1 X63.466 Y0.859 E65.07615
G1 X23.359 Y40.966 E66.95653
G1 X23.359 Y41.342 E66.96899
G1 X63.842 Y0.859 E68.86700
G1 X64.218 Y0.859 E68.87946
G1 X23.359 Y41.718 E70.79509
G1 X23.359 Y42.094 E70.80755
G1 X64.594 Y0.859 E72.74080
G1 X64.970 Y0.859 E72.75326
G1 X23.359 Y42.470 E74.70413
G1 X23.359 Y42.846 E74.71659
G1 X65.346 Y0.859 E76.68509
G1 X65.722 Y0.859 E76.69755
G1 X23.359 Y43.222 E78.68367
G1 X23.359 Y43.597 E78.69613
G1 X66.097 Y0.859 E80.69988
G1 X66.473 Y0.859 E80.71234
G1 X23.359 Y43.973 E82.73370
G1 X23.359 Y44.349 E82.74617
G1 X66.849 Y0.859 E84.78515
G1 X67.225 Y0.859 E84.79762
G1 X23.359 Y44.725 E86.85423
G1 X23.359 Y45.101 E86.86669
G1 X67.601 Y0.859 E88.94093
G1 X67.977 Y0.859 E88.95339
G1 X23.359 Y45.477 E91.04525
G1 X23.359 Y45.853 E91.05771
G1 X68.353 Y0.859 E93.16719
G1 X68.729 Y0.859 E93.17965
G1 X23.359 Y46.229 E95.30675
G1 X23.359 Y46.605 E95.31922
G1 X69.105 Y0.859 E97.46394
G1 X69.480 Y0.859 E97.47641
G1 X23.359 Y46.980 E99.63876
G1 X23.359 Y47.356 E99.65122
G1 X69.856 Y0.859 E101.83119
G1 X70.232 Y0.859 E101.84365
G1 X23.359 Y47.732 E104.04125
G1 X23.359 Y48.108 E104.05371
G1 X70.608 Y0.859 E106.26893
G1 X70.984 Y0.859 E106.28139
G1 X23.359 Y48.484 E108.51424
G1 X23.359 Y48.860 E108.52670
G1 X71.360 Y0.859 E110.77716
G1 X71.736 Y0.859 E110.78963
G1 X23.359 Y49.236 E113.05771
G1 X23.359 Y49.612 E113.07018
G1 X72.112 Y0.859 E115.35589
G1 X72.488 Y0.859 E115.36835
G1 X23.359 Y49.988 E117.67169
G1 X23.359 Y50.363 E117.68415
G1 X72.863 Y0.859 E120.00511
G1 X73.239 Y0.859 E120.01757
G1 X23.359 Y50.739 E122.35615
G1 X23.359 Y51.115 E122.36861
G1 X73.615 Y0.859 E124.72482
G1 X73.991 Y0.859 E124.73728
G1 X23.359 Y51.491 E127.11110
G1 X23.359 Y51.867 E127.12357
G1 X74.367 Y0.859 E129.51502
G1 X74.743 Y0.859 E129.52748
G1 X23.359 Y52.243 E131.93655
G1 X23.359 Y52.619 E131.94901
G1 X75.119 Y0.859 E134.37571
G1 X75.495 Y0.859 E134.38817
G1 X23.359 Y52.995 E136.83249
G1 X23.359 Y53.371 E136.84495
G1 X75.871 Y0.859 E139.30690
G1 X76.247 Y0.859 E139.31936
G1 X23.359 Y53.747 E141.79893
G1 X23.359 Y54.122 E141.81139
G1 X76.622 Y0.859 E144.30858
G1 X76.998 Y0.859 E144.32104
G1 X23.359 Y54.498 E146.83585
G1 X23.359 Y54.874 E146.84831
G1 X77.374 Y0.859 E149.38075
G1 X77.750 Y0.859 E149.39321
G1 X23.359 Y55.250 E151.94327
G1 X23.359 Y55.626 E151.95573
G1 X78.126 Y0.859 E154.52341
G1 X78.502 Y0.859 E154.53587
G1 X23.359 Y56.002 E157.12118
G1 X23.359 Y56.378 E157.13364
G1 X78.878 Y0.859 E159.73657
G1 X79.254 Y0.859 E159.74903
G1 X23.359 Y56.754 E162.36958
G1 X23.359 Y57.130 E162.38204
G1 X79.630 Y0.859 E165.02022
G1 X80.005 Y0.859 E165.03268
G1 X23.359 Y57.505 E167.68847
G1 X23.359 Y57.881 E167.70094
G1 X80.381 Y0.859 E170.37436
G1 X80.757 Y0.859 E170.38682
G1 X23.359 Y58.257 E173.07786
G1 X23.359 Y58.633 E173.09032
G1 X81.133 Y0.859 E175.79899
G1 X81.509 Y0.859 E175.81145
G1 X23.359 Y59.009 E178.53774
G1 X23.359 Y59.385 E178.55020
G1 X81.885 Y0.859 E181.29411
G1 X82.261 Y0.859 E181.30658
G1 X23.359 Y59.761 E184.06811
G1 X23.359 Y60.137 E184.08057
G1 X82.637 Y0.859 E186.85973
G1 X83.013 Y0.859 E186.87219
G1 X23.359 Y60.513 E189.66898
G1 X23.359 Y60.888 E189.68144
G1 X83.388 Y0.859 E192.49584
G1 X83.764 Y0.859 E192.50830
G1 X23.359 Y61.264 E195.34033
G1 X23.359 Y61.640 E195.35279
G1 X84.140 Y0.859 E198.20245
G1 X84.516 Y0.859 E198.21491
G1 X23.359 Y62.016 E201.08218
G1 X23.359 Y62.392 E201.09464
G1 X84.892 Y0.859 E203.97954
G1 X85.268 Y0.859 E203.99200
G1 X23.359 Y62.768 E206.89452
G1 X23.359 Y63.144 E206.90698
G1 X85.644 Y0.859 E209.82713
G1 X86.020 Y0.859 E209.83959
G1 X23.359 Y63.520 E212.77736
G1 X23.359 Y63.896 E212.78982
G1 X86.396 Y0.859 E215.74521
G1 X86.772 Y0.859 E215.75767
G1 X23.359 Y64.271 E218.73068
G1 X23.359 Y64.647 E218.74314
G1 X87.147 Y0.859 E221.73378
G1 X87.523 Y0.859 E221.74624
G1 X23.359 Y65.023 E224.75450
G1 X23.359 Y65.399 E224.76696
G1 X87.899 Y0.859 E227.79284
G1 X88.275 Y0.859 E227.80531
G1 X23.359 Y65.775 E230.84881
G1 X23.359 Y66.151 E230.86127
G1 X88.651 Y0.859 E233.92240
G1 X89.027 Y0.859 E233.93486
G1 X23.359 Y66.527 E237.01362
G1 X23.359 Y66.903 E237.02608
G1 X89.403 Y0.859 E240.12245
G1 X89.779 Y0.859 E240.13491
G1 X23.359 Y67.279 E243.24891
G1 X23.359 Y67.655 E243.26137
G1 X42.253 Y48.760 E244.14722
G1 X41.740 Y49.649 E244.18126
G1 X23.359 Y68.030 E245.04303
G1 X23.359 Y68.406 E245.05549
G1 X41.226 Y50.539 E245.89319
G1 X41.193 Y50.597 E245.89540
G1 X41.321 Y50.819 E245.90393
G1 X23.359 Y68.782 E246.74609
G1 X23.359 Y69.158 E246.75855
G1 X41.459 Y51.058 E247.60715
G1 X41.596 Y51.296 E247.61627
G1 X23.359 Y69.534 E248.47133
G1 X23.359 Y69.910 E248.48379
G1 X41.734 Y51.534 E249.34530
G1 X41.872 Y51.773 E249.35442
G1 X23.359 Y70.286 E250.22237
G1 X23.359 Y70.662 E250.23484
G1 X42.009 Y52.011 E251.10924
G1 X42.147 Y52.249 E251.11836
G1 X23.359 Y71.038 E251.99922
G1 X23.359 Y71.413 E252.01168
G1 X42.284 Y52.488 E252.89899
G1 X42.422 Y52.726 E252.90811
G1 X23.359 Y71.789 E253.80187
G1 X23.359 Y72.165 E253.81433
G1 X42.580 Y52.944 E254.71548
G1 X42.956 Y52.944 E254.72794
G1 X23.359 Y72.541 E255.64672
G1 X23.359 Y72.917 E255.65918
G1 X43.331 Y52.944 E256.59557
G1 X43.707 Y52.944 E256.60804
G1 X23.359 Y73.293 E257.56205
G1 X23.359 Y73.669 E257.57452
G1 X44.083 Y52.944 E258.54616
G1 X44.459 Y52.944 E258.55862
G1 X23.359 Y74.045 E259.54789
G1 X23.359 Y74.421 E259.56035
G1 X44.835 Y52.944 E260.56724
G1 X45.211 Y52.944 E260.57970
G1 X23.359 Y74.796 E261.60421
G1 X23.359 Y75.172 E261.61667
G1 X97.672 Y0.859 E265.10075
G1 X98.048 Y0.859 E265.11321
G1 X23.359 Y75.548 E268.61492
G1 X23.359 Y75.924 E268.62738
G1 X98.424 Y0.859 E272.14671
G1 X98.800 Y0.859 E272.15917
G1 X23.359 Y76.300 E275.69612
G1 X23.359 Y76.676 E275.70859
G1 X99.176 Y0.859 E279.26316
G1 X99.552 Y0.859 E279.27562
G1 X23.359 Y77.052 E282.84782
G1 X23.359 Y77.428 E282.86028
G1 X99.928 Y0.859 E286.45010
G1 X100.304 Y0.859 E286.46257
G1 X23.359 Y77.804 E290.07001
G1 X23.359 Y78.180 E290.08247
G1 X100.680 Y0.859 E293.70754
G1 X101.055 Y0.859 E293.72000
G1 X23.359 Y78.555 E297.36269
G1 X23.359 Y78.931 E297.37515
G1 X101.431 Y0.859 E301.03547
G1 X101.807 Y0.859 E301.04793
G1 X23.359 Y79.307 E304.72587
G1 X23.359 Y79.683 E304.73833
G1 X102.183 Y0.859 E308.43389
G1 X102.559 Y0.859 E308.44635
G1 X23.359 Y80.059 E312.15953
G1 X23.359 Y80.435 E312.17199
G1 X102.935 Y0.859 E315.90280
G1 X103.311 Y0.859 E315.91526
G1 X23.359 Y80.811 E319.66369
G1 X23.359 Y81.187 E319.67615
G1 X103.687 Y0.859 E323.44220
G1 X104.063 Y0.859 E323.45467
G1 X23.359 Y81.563 E327.23834
G1 X23.359 Y81.938 E327.25080
G1 X104.438 Y0.859 E331.05210
G1 X104.814 Y0.859 E331.06456
G1 X23.359 Y82.314 E334.88349
G1 X23.359 Y82.690 E334.89595
G1 X105.190 Y0.859 E338.73249
G1 X105.566 Y0.859 E338.74495
G1 X23.359 Y83.066 E342.59912
G1 X23.359 Y83.442 E342.61158
G1 X105.942 Y0.859 E346.48337
G1 X106.318 Y0.859 E346.49584
G1 X23.359 Y83.818 E350.38525
G1 X23.359 Y84.194 E350.39771
G1 X106.694 Y0.859 E354.30475
G1 X107.070 Y0.859 E354.31721
G1 X23.359 Y84.570 E358.24187
G1 X23.359 Y84.946 E358.25433
G1 X107.446 Y0.859 E362.19662
G1 X107.821 Y0.859 E362.20908
G1 X23.359 Y85.321 E366.16898
G1 X23.359 Y85.697 E366.18144
G1 X108.197 Y0.859 E370.15897
G1 X108.573 Y0.859 E370.17144
G1 X23.359 Y86.073 E374.16659
G1 X23.359 Y86.449 E374.17905
G1 X108.949 Y0.859 E378.19183
G1 X109.325 Y0.859 E378.20429
G1 X23.359 Y86.825 E382.23469
G1 X23.359 Y87.201 E382.24715
G1 X109.701 Y0.859 E386.29517
G1 X110.077 Y0.859 E386.30763
G1 X23.359 Y87.577 E390.37328
G1 X23.359 Y87.953 E390.38574
G1 X110.453 Y0.859 E394.46901
G1 X110.829 Y0.859 E394.48147
G1 X23.359 Y88.329 E398.58236
G1 X23.359 Y88.704 E398.59482
G1 X111.205 Y0.859 E402.71333
G1 X111.580 Y0.859 E402.72580
G1 X23.359 Y89.080 E406.86193
G1 X23.359 Y89.456 E406.87439
G1 X111.956 Y0.859 E411.02815
G1 X112.332 Y0.859 E411.04062
G1 X23.359 Y89.832 E415.21200
G1 X23.359 Y90.208 E415.22446
G1 X112.708 Y0.859 E419.41347
G1 X113.084 Y0.859 E419.42593
G1 X23.359 Y90.584 E423.63256
G1 X23.359 Y90.960 E423.64502
G1 X113.460 Y0.859 E427.86927
G1 X113.836 Y0.859 E427.88173
G1 X23.359 Y91.336 E432.12361
G1 X23.359 Y91.712 E432.13607
G1 X114.212 Y0.859 E436.39557
G1 X114.588 Y0.859 E436.40803
G1 X23.359 Y92.088 E440.68515
G1 X23.359 Y92.463 E440.69762
G1 X114.963 Y0.859 E444.99236
G1 X115.339 Y0.859 E445.00482
G1 X23.359 Y92.839 E449.31719
G1 X23.359 Y93.215 E449.32965
G1 X115.715 Y0.859 E453.65964
G1 X116.091 Y0.859 E453.67211
G1 X23.359 Y93.591 E458.01972
G1 X23.359 Y93.967 E458.03218
G1 X116.467 Y0.859 E462.39742
G1 X116.843 Y0.859 E462.40988
G1 X23.359 Y94.343 E466.79274
G1 X23.359 Y94.719 E466.80520
G1 X117.219 Y0.859 E471.20569
G1 X117.595 Y0.859 E471.21815
G1 X23.359 Y95.095 E475.63625
G1 X23.359 Y95.471 E475.64872
G1 X117.971 Y0.859 E480.08445
G1 X118.346 Y0.859 E480.09691
G1 X23.359 Y95.846 E484.55026
G1 X23.359 Y96.222 E484.56272
