; generated by Slic3r 1.3.0 on 2020-07-29 at 17:51:58

; external perimeters extrusion width = 0.44mm (2.38mm^3/s)
; perimeters extrusion width = 0.56mm (4.14mm^3/s)
; infill extrusion width = 0.50mm (7.31mm^3/s)
; solid infill extrusion width = 0.56mm (8.27mm^3/s)
; top infill extrusion width = 0.56mm (4.14mm^3/s)

M107
M190 S60 ; set bed temperature and wait for it to be reached
;D3D:START:START
T0
M104 S215 T0

G21
G90
M107
T0
G28
G29
M109 T0 S215 T0
G0 F3000
M107
T0
G92 E0
G0 X0 Y149 Z0.1 F3600
G1 Y49 E6.5 F1200
G0 Z1
G92 E0
; Filament gcode

G21 ; set units to millimeters
G90 ; use absolute coordinates
M82 ; use absolute distances for extrusion
G92 E0
G1 Z0.300 F9000.000
G1 E-3.20000 F4200.00000
G92 E0
G1 Z0.500 F9000.000
G1 X66.298 Y114.702 F9000.000
G1 Z0.300 F9000.000
G1 E3.20000 F4200.00000
M201 X800 Y800
M204 P800 T800
G1 F1200
G1 X66.613 Y114.589 E3.21108
G1 X67.028 Y114.535 E3.22493
G1 X67.380 Y114.565 E3.23666
G1 X67.700 Y114.658 E3.24770
G1 X67.996 Y114.809 E3.25870
G1 X68.259 Y115.013 E3.26971
G1 X68.477 Y115.260 E3.28064
G1 X68.597 Y115.450 E3.28807
G1 X68.692 Y115.652 E3.29550
G1 X68.785 Y115.969 E3.30643
G1 X68.816 Y116.300 E3.31744
G1 X68.784 Y116.631 E3.32845
G1 X68.692 Y116.950 E3.33946
G1 X68.541 Y117.246 E3.35047
G1 X68.337 Y117.509 E3.36148
G1 X68.090 Y117.727 E3.37240
G1 X67.900 Y117.847 E3.37983
G1 X67.698 Y117.942 E3.38726
G1 X67.381 Y118.035 E3.39819
G1 X67.050 Y118.066 E3.40920
G1 X66.719 Y118.035 E3.42021
G1 X66.400 Y117.942 E3.43122
G1 X66.103 Y117.791 E3.44225
G1 X65.825 Y117.571 E3.45398
G1 X65.560 Y117.248 E3.46783
G1 X65.408 Y116.950 E3.47891
G1 X65.315 Y116.631 E3.48992
G1 X65.284 Y116.300 E3.50093
G1 X65.315 Y115.969 E3.51194
G1 X65.408 Y115.650 E3.52296
G1 X65.559 Y115.354 E3.53396
G1 X65.763 Y115.091 E3.54498
G1 X66.012 Y114.872 E3.55598
G1 X66.247 Y114.733 E3.56501
M201 X1250 Y1250
M204 P1250 T1250
G1 F7200
G1 X66.613 Y114.589 E3.34688
G1 F7200
G1 X67.028 Y114.535 E3.11518
G1 F7200
G1 X67.380 Y114.565 E2.91897
G1 F7200
G1 X67.700 Y114.658 E2.73443
G1 F7200
G1 X67.996 Y114.809 E2.55030
G1 F7200
G1 X68.259 Y115.013 E2.36612
G1 F7200
G1 X68.477 Y115.260 E2.18340
G1 F7200
G1 X68.597 Y115.450 E2.05907
G1 F7200
G1 X68.692 Y115.652 E1.93480
G1 F7200
G1 X68.785 Y115.969 E1.75206
G1 F7200
G1 X68.816 Y116.300 E1.56788
G1 F7200
G1 X68.784 Y116.631 E1.38371
G1 F7200
G1 X68.692 Y116.950 E1.19952
G1 F7200
G1 X68.541 Y117.246 E1.01539
G1 F7200
G1 X68.337 Y117.509 E0.83121
G1 F7200
G1 X68.090 Y117.727 E0.64849
G1 F7200
G1 X67.902 Y117.846 E0.52501
G1 E0.36501 F4200.00000
G92 E0
G1 Z0.500 F9000.000
G1 X67.050 Y65.466 F9000.000
G1 Z0.300 F9000.000
G1 E3.20000 F4200.00000
M201 X800 Y800
M204 P800 T800
G1 F1200
G1 X66.719 Y65.434 E3.21101
G1 X66.400 Y65.342 E3.22202
G1 X66.104 Y65.191 E3.23303
G1 X65.841 Y64.987 E3.24404
G1 X65.623 Y64.740 E3.25496
G1 X65.503 Y64.550 E3.26240
G1 X65.408 Y64.348 E3.26983
G1 X65.315 Y64.031 E3.28075
G1 X65.284 Y63.700 E3.29176
G1 X65.315 Y63.369 E3.30277
G1 X65.408 Y63.050 E3.31378
G1 X65.559 Y62.754 E3.32479
G1 X65.763 Y62.491 E3.33580
G1 X66.012 Y62.272 E3.34681
G1 X66.298 Y62.102 E3.35782
G1 X66.613 Y61.989 E3.36891
G1 X67.028 Y61.935 E3.38276
G1 X67.380 Y61.965 E3.39449
G1 X67.700 Y62.058 E3.40552
G1 X67.996 Y62.209 E3.41653
G1 X68.259 Y62.413 E3.42754
G1 X68.477 Y62.660 E3.43846
G1 X68.597 Y62.850 E3.44589
G1 X68.692 Y63.052 E3.45332
G1 X68.784 Y63.369 E3.46425
G1 X68.816 Y63.700 E3.47526
G1 X68.784 Y64.031 E3.48627
G1 X68.692 Y64.348 E3.49719
G1 X68.597 Y64.550 E3.50462
G1 X68.477 Y64.740 E3.51206
G1 X68.259 Y64.987 E3.52298
G1 X67.996 Y65.191 E3.53399
G1 X67.700 Y65.342 E3.54500
G1 X67.381 Y65.434 E3.55601
G1 X67.110 Y65.460 E3.56503
M201 X1250 Y1250
M204 P1250 T1250
G1 F7200
G1 X66.719 Y65.434 E3.34811
G1 F7200
G1 X66.400 Y65.342 E3.16391
G1 F7200
G1 X66.104 Y65.191 E2.97978
G1 F7200
G1 X65.841 Y64.987 E2.79561
G1 F7200
G1 X65.623 Y64.740 E2.61289
G1 F7200
G1 X65.503 Y64.550 E2.48855
G1 F7200
G1 X65.408 Y64.348 E2.36428
G1 F7200
G1 X65.315 Y64.031 E2.18154
G1 F7200
G1 X65.284 Y63.700 E1.99737
G1 F7200
G1 X65.315 Y63.369 E1.81320
G1 F7200
G1 X65.408 Y63.050 E1.62900
G1 F7200
G1 X65.559 Y62.754 E1.44486
G1 F7200
G1 X65.763 Y62.491 E1.26066
G1 F7200
G1 X66.012 Y62.272 E1.07654
G1 F7200
G1 X66.298 Y62.102 E0.89232
G1 F7200
G1 X66.613 Y61.989 E0.70695
G1 F7200
G1 X66.938 Y61.946 E0.52503
G1 E0.36503 F4200.00000
G92 E0
G1 Z0.500 F9000.000
G1 X138.585 Y15.165 F9000.000
G1 Z0.300 F9000.000
G1 E3.20000 F4200.00000
M201 X800 Y800
M204 P800 T800
G1 F1200
G1 X138.585 Y164.835 E8.15850
G1 X78.753 Y164.835 E10.14071
G1 X76.406 Y164.761 E10.21850
G1 X74.071 Y164.541 E10.29621
G1 X71.754 Y164.174 E10.37391
G1 X69.465 Y163.662 E10.45161
G1 X67.213 Y163.008 E10.52932
G1 X65.006 Y162.213 E10.60702
G1 X62.854 Y161.282 E10.68472
G1 X60.764 Y160.217 E10.76243
G1 X58.745 Y159.023 E10.84013
G1 X56.805 Y157.705 E10.91783
G1 X54.952 Y156.267 E10.99554
G1 X53.193 Y154.716 E11.07324
G1 X51.534 Y153.057 E11.15094
G1 X49.983 Y151.298 E11.22864
G1 X48.545 Y149.445 E11.30635
G1 X47.227 Y147.505 E11.38405
G1 X46.033 Y145.486 E11.46175
G1 X44.968 Y143.396 E11.53946
G1 X44.037 Y141.244 E11.61716
G1 X43.242 Y139.037 E11.69486
G1 X42.588 Y136.785 E11.77257
G1 X42.076 Y134.496 E11.85027
G1 X41.709 Y132.179 E11.92797
G1 X41.489 Y129.844 E12.00568
G1 X41.415 Y127.497 E12.08347
G1 X41.415 Y52.503 E14.56801
G1 X41.489 Y50.156 E14.64580
G1 X41.709 Y47.821 E14.72350
G1 X42.076 Y45.504 E14.80120
G1 X42.588 Y43.215 E14.87891
G1 X43.242 Y40.963 E14.95661
G1 X44.037 Y38.756 E15.03431
G1 X44.968 Y36.604 E15.11202
G1 X46.033 Y34.514 E15.18972
G1 X47.227 Y32.495 E15.26742
G1 X48.545 Y30.555 E15.34513
G1 X49.983 Y28.702 E15.42283
G1 X51.534 Y26.943 E15.50053
G1 X53.193 Y25.284 E15.57824
G1 X54.952 Y23.733 E15.65594
G1 X56.805 Y22.295 E15.73364
G1 X58.745 Y20.977 E15.81135
G1 X60.764 Y19.783 E15.88905
G1 X62.854 Y18.718 E15.96675
G1 X65.006 Y17.787 E16.04445
G1 X67.213 Y16.992 E16.12216
G1 X69.465 Y16.338 E16.19986
G1 X71.754 Y15.826 E16.27756
G1 X74.071 Y15.459 E16.35527
G1 X76.406 Y15.239 E16.43297
G1 X78.753 Y15.165 E16.51076
G1 X138.525 Y15.165 E18.49099
M201 X1250 Y1250
M204 P1250 T1250
G1 F7200
G1 X138.527 Y20.651 E15.45099
G1 E15.29099 F4200.00000
G92 E0
G1 Z0.500 F9000.000
G1 X53.482 Y25.371 F9000.000
G1 Z0.300 F9000.000
G1 E3.20000 F4200.00000
M201 X800 Y800
M204 P800 T800
G1 F1200
G1 X51.621 Y27.232 E3.28726
G1 X50.084 Y28.975 E3.36428
G1 X49.498 Y29.730 E3.39599
G1 X55.980 Y23.248 E3.69992
G1 X57.065 Y22.407 E3.74540
G1 X57.479 Y22.126 E3.76200
G1 X48.376 Y31.229 E4.18880
G1 X47.578 Y32.402 E4.23583
G1 X58.652 Y21.328 E4.75503
G1 X58.991 Y21.098 E4.76859
G1 X59.645 Y20.711 E4.79381
G1 X46.961 Y33.395 E5.38850
G1 X46.417 Y34.315 E5.42393
G1 X60.565 Y20.167 E6.08726
G1 X60.995 Y19.913 E6.10382
G1 X61.403 Y19.705 E6.11901
G1 X45.955 Y35.153 E6.84331
G1 X45.564 Y35.920 E6.87182
G1 X62.170 Y19.314 E7.65036
G1 X62.936 Y18.924 E7.67888
G1 X45.174 Y36.686 E8.51165
G1 X44.869 Y37.367 E8.53638
G1 X63.617 Y18.619 E9.41537
G1 X64.280 Y18.332 E9.43930
G1 X44.582 Y38.030 E10.36280
G1 X44.295 Y38.692 E10.38674
G1 X64.942 Y18.045 E11.35476
G1 X65.560 Y17.804 E11.37674
G1 X44.054 Y39.310 E12.38503
G1 X43.842 Y39.897 E12.40572
G1 X66.147 Y17.592 E13.45146
G1 X66.734 Y17.381 E13.47216
G1 X43.631 Y40.484 E14.55535
G1 X43.419 Y41.072 E14.57605
G1 X67.322 Y17.169 E15.69669
G1 X67.859 Y17.008 E15.71529
G1 X43.258 Y41.609 E16.86870
G1 X43.104 Y42.139 E16.88699
G1 X68.389 Y16.854 E18.07245
G1 X68.919 Y16.700 E18.09075
G1 X42.950 Y42.669 E19.30827
G1 X42.796 Y43.199 E19.32656
G1 X69.449 Y16.546 E20.57615
G1 X69.949 Y16.422 E20.59323
G1 X42.672 Y43.699 E21.87209
G1 X42.564 Y44.183 E21.88854
G1 X70.433 Y16.314 E23.19517
G1 X70.917 Y16.205 E23.21162
G1 X42.455 Y44.667 E24.54602
G1 X42.347 Y45.151 E24.56246
G1 X71.401 Y16.097 E25.92463
G1 X71.885 Y15.989 E25.94108
G1 X42.239 Y45.635 E27.33102
G1 X42.167 Y46.084 E27.34608
G1 X72.334 Y15.917 E28.76044
G1 X72.780 Y15.846 E28.77543
G1 X42.096 Y46.530 E30.21404
G1 X42.025 Y46.977 E30.22903
G1 X73.227 Y15.775 E31.69190
G1 X73.673 Y15.704 E31.70689
G1 X41.954 Y47.423 E33.19402
G1 X41.884 Y47.870 E33.20901
G1 X74.120 Y15.634 E34.72040
G1 X74.541 Y15.588 E34.73444
G1 X41.838 Y48.291 E36.26771
G1 X41.799 Y48.707 E36.28153
G1 X74.957 Y15.549 E37.83610
G1 X75.372 Y15.510 E37.84992
G1 X41.760 Y49.122 E39.42579
G1 X41.721 Y49.537 E39.43962
G1 X75.787 Y15.471 E41.03679
G1 X76.202 Y15.431 E41.05061
G1 X41.681 Y49.952 E42.66909
G1 X41.648 Y50.361 E42.68270
G1 X76.611 Y15.398 E44.32192
G1 X76.999 Y15.386 E44.33480
G1 X41.636 Y50.749 E45.99279
G1 X41.624 Y51.137 E46.00566
G1 X77.387 Y15.374 E47.68241
G1 X77.775 Y15.361 E47.69529
G1 X41.611 Y51.525 E49.39081
G1 X41.599 Y51.914 E49.40368
G1 X78.164 Y15.349 E51.11798
G1 X78.552 Y15.337 E51.13085
G1 X41.587 Y52.302 E52.86391
G1 X41.577 Y52.687 E52.87669
G1 X78.937 Y15.327 E54.62829
G1 X79.313 Y15.327 E54.64075
G1 X41.577 Y53.063 E56.40996
G1 X41.577 Y53.439 E56.42243
G1 X79.689 Y15.327 E58.20927
G1 X80.065 Y15.327 E58.22173
G1 X41.577 Y53.815 E60.02619
G1 X41.577 Y54.191 E60.03865
G1 X80.441 Y15.327 E61.86074
G1 X80.817 Y15.327 E61.87320
G1 X41.577 Y54.567 E63.71291
G1 X41.577 Y54.943 E63.72537
G1 X81.193 Y15.327 E65.58271
G1 X81.569 Y15.327 E65.59517
G1 X41.577 Y55.319 E67.47013
G1 X41.577 Y55.694 E67.48259
G1 X81.944 Y15.327 E69.37517
G1 X82.320 Y15.327 E69.38763
G1 X41.577 Y56.070 E71.29784
G1 X41.577 Y56.446 E71.31030
G1 X82.696 Y15.327 E73.23813
G1 X83.072 Y15.327 E73.25059
G1 X41.577 Y56.822 E75.19605
G1 X41.577 Y57.198 E75.20851
G1 X83.448 Y15.327 E77.17158
G1 X83.824 Y15.327 E77.18405
G1 X41.577 Y57.574 E79.16475
G1 X41.577 Y57.950 E79.17721
G1 X84.200 Y15.327 E81.17553
G1 X84.576 Y15.327 E81.18800
G1 X41.577 Y58.326 E83.20394
G1 X41.577 Y58.702 E83.21641
G1 X84.952 Y15.327 E85.24998
G1 X85.328 Y15.327 E85.26244
G1 X41.577 Y59.078 E87.31364
G1 X41.577 Y59.453 E87.32610
G1 X85.703 Y15.327 E89.39492
G1 X86.079 Y15.327 E89.40738
G1 X41.577 Y59.829 E91.49382
G1 X41.577 Y60.205 E91.50628
G1 X86.455 Y15.327 E93.61035
G1 X86.831 Y15.327 E93.62281
G1 X41.577 Y60.581 E95.74450
G1 X41.577 Y60.957 E95.75697
G1 X87.207 Y15.327 E97.89628
G1 X87.583 Y15.327 E97.90874
G1 X41.577 Y61.333 E100.06568
G1 X41.577 Y61.709 E100.07814
G1 X87.959 Y15.327 E102.25270
G1 X88.335 Y15.327 E102.26517
G1 X41.577 Y62.085 E104.45735
G1 X41.577 Y62.461 E104.46981
G1 X88.711 Y15.327 E106.67962
G1 X89.087 Y15.327 E106.69209
G1 X41.577 Y62.836 E108.91952
G1 X41.577 Y63.212 E108.93198
G1 X89.462 Y15.327 E111.17704
G1 X89.838 Y15.327 E111.18950
G1 X41.577 Y63.588 E113.45218
G1 X41.577 Y63.964 E113.46464
G1 X90.214 Y15.327 E115.74495
G1 X90.590 Y15.327 E115.75741
G1 X41.577 Y64.340 E118.05534
G1 X41.577 Y64.716 E118.06780
G1 X90.966 Y15.327 E120.38335
G1 X91.342 Y15.327 E120.39581
G1 X41.577 Y65.092 E122.72899
G1 X41.577 Y65.468 E122.74145
G1 X91.718 Y15.327 E125.09225
G1 X92.094 Y15.327 E125.10471
G1 X41.577 Y65.844 E127.47314
G1 X41.577 Y66.220 E127.48560
G1 X92.470 Y15.327 E129.87165
G1 X92.846 Y15.327 E129.88411
G1 X41.577 Y66.595 E132.28778
G1 X41.577 Y66.971 E132.30024
G1 X93.221 Y15.327 E134.72154
G1 X93.597 Y15.327 E134.73400
G1 X41.577 Y67.347 E137.17292
G1 X41.577 Y67.723 E137.18538
G1 X93.973 Y15.327 E139.64192
G1 X94.349 Y15.327 E139.65438
G1 X41.577 Y68.099 E142.12855
G1 X41.577 Y68.475 E142.14101
G1 X94.725 Y15.327 E144.63280
G1 X95.101 Y15.327 E144.64526
G1 X41.577 Y68.851 E147.15468
G1 X41.577 Y69.227 E147.16714
G1 X95.477 Y15.327 E149.69417
G1 X95.853 Y15.327 E149.70664
G1 X41.577 Y69.603 E152.25130
G1 X41.577 Y69.979 E152.26376
G1 X96.229 Y15.327 E154.82604
G1 X96.605 Y15.327 E154.83851
G1 X41.577 Y70.354 E157.41842
G1 X41.577 Y70.730 E157.43088
G1 X96.980 Y15.327 E160.02841
G1 X97.356 Y15.327 E160.04087
G1 X41.577 Y71.106 E162.65603
G1 X41.577 Y71.482 E162.66849
G1 X97.732 Y15.327 E165.30127
G1 X98.108 Y15.327 E165.31373
G1 X41.577 Y71.858 E167.96413
G1 X41.577 Y72.234 E167.97660
G1 X98.484 Y15.327 E170.64462
G1 X98.860 Y15.327 E170.65709
G1 X41.577 Y72.610 E173.34274
G1 X41.577 Y72.986 E173.35520
G1 X99.236 Y15.327 E176.05847
G1 X99.612 Y15.327 E176.07094
G1 X41.577 Y73.362 E178.79183
G1 X41.577 Y73.738 E178.80430
G1 X99.988 Y15.327 E181.54282
G1 X100.363 Y15.327 E181.55528
G1 X41.577 Y74.113 E184.31143
G1 X41.577 Y74.489 E184.32389
G1 X100.739 Y15.327 E187.09766
G1 X101.115 Y15.327 E187.11012
G1 X41.577 Y74.865 E189.90151
G1 X41.577 Y75.241 E189.91398
G1 X101.491 Y15.327 E192.72299
G1 X101.867 Y15.327 E192.73546
G1 X41.577 Y75.617 E195.56210
G1 X41.577 Y75.993 E195.57456
G1 X102.243 Y15.327 E198.41882
G1 X102.619 Y15.327 E198.43129
G1 X41.577 Y76.369 E201.29318
G1 X41.577 Y76.745 E201.30564
G1 X102.995 Y15.327 E204.18515
G1 X103.371 Y15.327 E204.19761
G1 X41.577 Y77.121 E207.09475
G1 X41.577 Y77.497 E207.10721
G1 X103.747 Y15.327 E210.02197
G1 X104.122 Y15.327 E210.03443
G1 X41.577 Y77.872 E212.96682
G1 X41.577 Y78.248 E212.97928
G1 X104.498 Y15.327 E215.92929
G1 X104.874 Y15.327 E215.94175
G1 X41.577 Y78.624 E218.90938
G1 X41.577 Y79.000 E218.92184
G1 X105.250 Y15.327 E221.90710
G1 X105.626 Y15.327 E221.91956
G1 X41.577 Y79.376 E224.92244
G1 X41.577 Y79.752 E224.93490
G1 X106.002 Y15.327 E227.95540
G1 X106.378 Y15.327 E227.96786
G1 X41.577 Y80.128 E231.00599
G1 X41.577 Y80.504 E231.01845
G1 X106.754 Y15.327 E234.07420
G1 X107.130 Y15.327 E234.08666
G1 X41.577 Y80.880 E237.16004
G1 X41.577 Y81.256 E237.17250
G1 X107.506 Y15.327 E240.26350
G1 X107.881 Y15.327 E240.27596
G1 X41.577 Y81.631 E243.38458
G1 X41.577 Y82.007 E243.39704
G1 X108.257 Y15.327 E246.52329
G1 X108.633 Y15.327 E246.53575
G1 X41.577 Y82.383 E249.67962
G1 X41.577 Y82.759 E249.69208
G1 X109.009 Y15.327 E252.85357
G1 X109.385 Y15.327 E252.86603
G1 X41.577 Y83.135 E256.04515
G1 X41.577 Y83.511 E256.05761
G1 X109.761 Y15.327 E259.25435
G1 X110.137 Y15.327 E259.26681
G1 X41.577 Y83.887 E262.48118
G1 X41.577 Y84.263 E262.49364
G1 X110.513 Y15.327 E265.72563
G1 X110.889 Y15.327 E265.73809
G1 X41.577 Y84.639 E268.98770
G1 X41.577 Y85.015 E269.00016
G1 X111.265 Y15.327 E272.26740
G1 X111.640 Y15.327 E272.27986
G1 X41.577 Y85.390 E275.56472
G1 X41.577 Y85.766 E275.57718
G1 X112.016 Y15.327 E278.87966
G1 X112.392 Y15.327 E278.89213
G1 X41.577 Y86.142 E282.21223
G1 X41.577 Y86.518 E282.22469
G1 X65.074 Y63.021 E283.32633
G1 X65.231 Y62.714 E283.33775
G1 X65.465 Y62.412 E283.35044
G1 X65.752 Y62.159 E283.36312
G1 X66.081 Y61.964 E283.37580
G1 X66.159 Y61.936 E283.37855
G1 X112.768 Y15.327 E285.56377
G1 X113.144 Y15.327 E285.57623
G1 X66.668 Y61.804 E287.75524
G1 X66.918 Y61.771 E287.76363
G1 X67.064 Y61.783 E287.76847
G1 X113.520 Y15.327 E289.94653
G1 X113.896 Y15.327 E289.95899
G1 X67.396 Y61.827 E292.13909
G1 X67.688 Y61.911 E292.14914
G1 X114.272 Y15.327 E294.33320
G1 X114.648 Y15.327 E294.34566
G1 X67.938 Y62.037 E296.53563
G1 X68.164 Y62.187 E296.54462
G1 X115.024 Y15.327 E298.74159
G1 X115.399 Y15.327 E298.75405
G1 X68.369 Y62.357 E300.95902
G1 X68.546 Y62.557 E300.96785
G1 X115.775 Y15.327 E303.18218
G1 X116.151 Y15.327 E303.19464
G1 X68.699 Y62.780 E305.41943
G1 X68.824 Y63.031 E305.42872
G1 X116.527 Y15.327 E307.66525
G1 X116.903 Y15.327 E307.67772
G1 X68.913 Y63.318 E309.92771
G1 X68.943 Y63.422 E309.93133
G1 X68.964 Y63.642 E309.93865
G1 X117.279 Y15.327 E312.20386
G1 X117.655 Y15.327 E312.21632
G1 X68.958 Y64.024 E314.49941
G1 X68.943 Y64.184 E314.50476
G1 X68.849 Y64.509 E314.51598
G1 X118.031 Y15.327 E316.82185
G1 X118.407 Y15.327 E316.83431
G1 X41.577 Y92.157 E320.43640
G1 X41.577 Y92.533 E320.44886
G1 X118.783 Y15.327 E324.06857
G1 X119.158 Y15.327 E324.08103
G1 X41.577 Y92.908 E327.71837
G1 X41.577 Y93.284 E327.73083
G1 X119.534 Y15.327 E331.38578
G1 X119.910 Y15.327 E331.39825
G1 X41.577 Y93.660 E335.07083
G1 X41.577 Y94.036 E335.08329
G1 X120.286 Y15.327 E338.77350
G1 X120.662 Y15.327 E338.78596
G1 X41.577 Y94.412 E342.49379
G1 X41.577 Y94.788 E342.50625
G1 X121.038 Y15.327 E346.23170
G1 X121.414 Y15.327 E346.24416
G1 X41.577 Y95.164 E349.98724
G1 X41.577 Y95.540 E349.99970
G1 X121.790 Y15.327 E353.76040
G1 X122.166 Y15.327 E353.77287
G1 X41.577 Y95.916 E357.55119
