; generated by Slic3r 1.3.0 on 2020-07-29 at 17:52:01

; external perimeters extrusion width = 0.44mm (2.86mm^3/s)
; perimeters extrusion width = 0.56mm (4.14mm^3/s)
; infill extrusion width = 0.50mm (3.66mm^3/s)
; solid infill extrusion width = 0.56mm (3.10mm^3/s)
; top infill extrusion width = 0.56mm (3.10mm^3/s)

M107
;D3D:START:START
T0
M104 S215 T0

G21
G90
M107
T0
G28
G29
M109 T0 S215 T0
G0 F3000
M107
T0
G92 E0
G0 X0 Y149 Z0.1 F3600
G1 Y49 E6.5 F1200
G0 Z1
G92 E0
; Filament gcode

G21 ; set units to millimeters
G90 ; use absolute coordinates
M82 ; use absolute distances for extrusion
G92 E0
G1 Z0.300 F7800.000
G1 E-2.00000 F2400.00000
G92 E0
G1 X69.000 Y68.611 F7800.000
G1 E2.00000 F2400.00000
G1 F1800
G1 X69.413 Y68.246 E2.01824
G1 X69.848 Y67.909 E2.03648
G1 X70.303 Y67.599 E2.05473
G1 X70.777 Y67.319 E2.07297
G1 X71.268 Y67.069 E2.09121
G1 X71.773 Y66.850 E2.10945
G1 X72.286 Y66.666 E2.12752
G1 X72.820 Y66.510 E2.14594
G1 X73.358 Y66.390 E2.16418
G1 X73.901 Y66.304 E2.18242
G1 X74.450 Y66.252 E2.20066
G1 X74.995 Y66.235 E2.21873
G1 X75.550 Y66.252 E2.23715
G1 X76.099 Y66.304 E2.25539
G1 X76.642 Y66.390 E2.27363
G1 X77.180 Y66.510 E2.29188
G1 X77.703 Y66.662 E2.30994
G1 X78.227 Y66.850 E2.32836
G1 X78.732 Y67.069 E2.34660
G1 X79.223 Y67.319 E2.36484
G1 X79.697 Y67.599 E2.38309
G1 X80.152 Y67.909 E2.40133
G1 X80.587 Y68.246 E2.41957
G1 X81.000 Y68.611 E2.43781
G1 X81.389 Y69.000 E2.45606
G1 X81.754 Y69.413 E2.47430
G1 X82.091 Y69.848 E2.49254
G1 X82.401 Y70.303 E2.51078
G1 X82.681 Y70.777 E2.52903
G1 X82.931 Y71.268 E2.54727
G1 X83.147 Y71.768 E2.56533
G1 X83.336 Y72.291 E2.58375
G1 X83.490 Y72.820 E2.60199
G1 X83.610 Y73.358 E2.62024
G1 X83.696 Y73.901 E2.63848
G1 X83.748 Y74.450 E2.65672
G1 X83.765 Y75.000 E2.67496
G1 X83.748 Y75.550 E2.69321
G1 X83.696 Y76.099 E2.71145
G1 X83.610 Y76.642 E2.72969
G1 X83.490 Y77.180 E2.74793
G1 X83.336 Y77.709 E2.76618
G1 X83.147 Y78.232 E2.78460
G1 X82.931 Y78.732 E2.80266
G1 X82.681 Y79.223 E2.82090
G1 X82.401 Y79.697 E2.83914
G1 X82.091 Y80.152 E2.85739
G1 X81.750 Y80.591 E2.87581
G1 X81.389 Y81.000 E2.89387
G1 X81.000 Y81.389 E2.91211
G1 X80.587 Y81.754 E2.93035
G1 X80.152 Y82.091 E2.94860
G1 X79.697 Y82.401 E2.96684
G1 X79.218 Y82.683 E2.98526
G1 X78.732 Y82.931 E3.00332
G1 X78.227 Y83.150 E3.02157
G1 X77.703 Y83.338 E3.03999
G1 X77.180 Y83.490 E3.05805
G1 X76.642 Y83.610 E3.07629
G1 X76.099 Y83.696 E3.09453
G1 X75.550 Y83.748 E3.11278
G1 X75.000 Y83.765 E3.13102
G1 X74.450 Y83.748 E3.14926
G1 X73.901 Y83.696 E3.16750
G1 X73.358 Y83.610 E3.18575
G1 X72.820 Y83.490 E3.20399
G1 X72.291 Y83.336 E3.22223
G1 X71.773 Y83.150 E3.24047
G1 X71.268 Y82.931 E3.25872
G1 X70.777 Y82.681 E3.27696
G1 X70.303 Y82.401 E3.29520
G1 X69.848 Y82.091 E3.31344
G1 X69.413 Y81.754 E3.33169
G1 X68.996 Y81.386 E3.35011
G1 X68.611 Y81.000 E3.36817
G1 X68.246 Y80.587 E3.38641
G1 X67.909 Y80.152 E3.40465
G1 X67.599 Y79.697 E3.42290
G1 X67.317 Y79.218 E3.44132
G1 X67.069 Y78.732 E3.45938
G1 X66.850 Y78.227 E3.47762
G1 X66.662 Y77.703 E3.49605
G1 X66.510 Y77.180 E3.51411
G1 X66.390 Y76.642 E3.53235
G1 X66.304 Y76.093 E3.55077
G1 X66.252 Y75.550 E3.56883
G1 X66.235 Y75.000 E3.58708
G1 X66.252 Y74.450 E3.60532
G1 X66.304 Y73.901 E3.62356
G1 X66.390 Y73.358 E3.64180
G1 X66.510 Y72.820 E3.66004
G1 X66.662 Y72.297 E3.67811
G1 X66.850 Y71.773 E3.69653
G1 X67.069 Y71.268 E3.71477
G1 X67.319 Y70.777 E3.73301
G1 X67.599 Y70.303 E3.75126
G1 X67.909 Y69.848 E3.76950
G1 X68.246 Y69.413 E3.78774
G1 X68.611 Y69.000 E3.80598
G1 X68.957 Y68.653 E3.82224
G1 E1.82224 F2400.00000
G92 E0
G1 X55.946 Y54.709 F7800.000
G1 E2.00000 F2400.00000
G1 F1800
G1 X57.244 Y53.564 E2.05735
G1 X58.639 Y52.481 E2.11586
G1 X60.085 Y51.498 E2.17379
G1 X61.590 Y50.608 E2.23172
G1 X63.148 Y49.814 E2.28966
G1 X64.753 Y49.120 E2.34759
G1 X66.399 Y48.527 E2.40552
G1 X68.078 Y48.040 E2.46345
G1 X69.784 Y47.658 E2.52138
G1 X71.511 Y47.385 E2.57931
G1 X73.252 Y47.220 E2.63724
G1 X74.982 Y47.166 E2.69459
G1 X76.748 Y47.220 E2.75311
G1 X78.489 Y47.385 E2.81104
G1 X80.216 Y47.658 E2.86897
G1 X81.922 Y48.040 E2.92690
G1 X83.601 Y48.527 E2.98483
G1 X85.247 Y49.120 E3.04276
G1 X86.852 Y49.814 E3.10069
G1 X88.410 Y50.608 E3.15862
G1 X89.915 Y51.498 E3.21655
G1 X91.361 Y52.481 E3.27449
G1 X92.743 Y53.553 E3.33242
G1 X94.054 Y54.709 E3.39035
G1 X95.291 Y55.946 E3.44828
G1 X96.436 Y57.244 E3.50563
G1 X97.519 Y58.639 E3.56414
G1 X98.502 Y60.085 E3.62208
G1 X99.392 Y61.590 E3.68001
G1 X100.186 Y63.148 E3.73794
G1 X100.880 Y64.753 E3.79587
G1 X101.473 Y66.399 E3.85380
G1 X101.960 Y68.078 E3.91173
G1 X102.342 Y69.784 E3.96966
G1 X102.615 Y71.511 E4.02759
G1 X102.780 Y73.252 E4.08552
G1 X102.835 Y75.000 E4.14346
G1 X102.780 Y76.748 E4.20139
G1 X102.615 Y78.489 E4.25932
G1 X102.342 Y80.216 E4.31725
G1 X101.960 Y81.922 E4.37518
G1 X101.473 Y83.601 E4.43311
G1 X100.880 Y85.247 E4.49104
G1 X100.178 Y86.867 E4.54955
G1 X99.392 Y88.410 E4.60690
G1 X98.502 Y89.915 E4.66483
G1 X97.519 Y91.361 E4.72277
G1 X96.447 Y92.743 E4.78070
G1 X95.291 Y94.054 E4.83863
G1 X94.054 Y95.291 E4.89656
G1 X92.743 Y96.447 E4.95449
G1 X91.346 Y97.529 E5.01300
G1 X89.915 Y98.502 E5.07036
G1 X88.410 Y99.392 E5.12829
G1 X86.852 Y100.186 E5.18622
G1 X85.247 Y100.880 E5.24415
G1 X83.601 Y101.473 E5.30208
G1 X81.922 Y101.960 E5.36001
G1 X80.216 Y102.342 E5.41794
G1 X78.489 Y102.615 E5.47587
G1 X76.748 Y102.780 E5.53381
G1 X75.000 Y102.835 E5.59174
G1 X73.252 Y102.780 E5.64967
G1 X71.511 Y102.615 E5.70760
G1 X69.784 Y102.342 E5.76553
G1 X68.078 Y101.960 E5.82346
G1 X66.399 Y101.473 E5.88139
G1 X64.753 Y100.880 E5.93932
G1 X63.133 Y100.178 E5.99783
G1 X61.590 Y99.392 E6.05519
G1 X60.085 Y98.502 E6.11312
G1 X58.639 Y97.519 E6.17105
G1 X57.257 Y96.447 E6.22898
G1 X55.946 Y95.291 E6.28691
G1 X54.709 Y94.054 E6.34484
G1 X53.553 Y92.743 E6.40277
G1 X52.481 Y91.361 E6.46071
G1 X51.498 Y89.915 E6.51864
G1 X50.608 Y88.410 E6.57657
G1 X49.814 Y86.852 E6.63450
G1 X49.120 Y85.247 E6.69243
G1 X48.527 Y83.601 E6.75036
G1 X48.040 Y81.922 E6.80829
G1 X47.658 Y80.216 E6.86622
G1 X47.385 Y78.489 E6.92416
G1 X47.220 Y76.748 E6.98209
G1 X47.165 Y75.000 E7.04002
G1 X47.220 Y73.252 E7.09795
G1 X47.385 Y71.511 E7.15588
G1 X47.658 Y69.784 E7.21381
G1 X48.040 Y68.078 E7.27174
G1 X48.527 Y66.399 E7.32967
G1 X49.120 Y64.753 E7.38761
G1 X49.814 Y63.148 E7.44554
G1 X50.608 Y61.590 E7.50347
G1 X51.498 Y60.085 E7.56140
G1 X52.481 Y58.639 E7.61933
G1 X53.553 Y57.257 E7.67726
G1 X54.709 Y55.946 E7.73519
G1 X55.903 Y54.752 E7.79114
G1 X56.026 Y55.005 F7800.000
G1 F1800
G1 X54.798 Y56.233 E7.84882
G1 X56.233 Y54.798 E7.91621
G1 X57.517 Y53.666 E7.97305
G1 X58.523 Y52.885 E8.01534
G1 X52.883 Y58.524 E8.28017
G1 X52.593 Y58.899 E8.29590
G1 X51.972 Y59.812 E8.33256
G1 X59.812 Y51.972 E8.70070
G1 X60.331 Y51.619 E8.72155
G1 X60.845 Y51.315 E8.74139
G1 X51.315 Y60.845 E9.18892
G1 X50.770 Y61.767 E9.22447
G1 X61.767 Y50.770 E9.74087
G1 X62.544 Y50.370 E9.76989
G1 X50.370 Y62.543 E10.34158
G1 X49.979 Y63.311 E10.37019
G1 X63.311 Y49.979 E10.99630
G1 X63.982 Y49.684 E11.02063
G1 X49.684 Y63.982 E11.69207
G1 X49.397 Y64.646 E11.71608
G1 X64.646 Y49.397 E12.43218
G1 X65.269 Y49.150 E12.45445
G1 X49.150 Y65.269 E13.21141
G1 X48.938 Y65.858 E13.23218
G1 X65.858 Y48.938 E14.02672
G1 X66.446 Y48.727 E14.04748
G1 X48.727 Y66.446 E14.87960
G1 X48.559 Y66.990 E14.89851
G1 X66.990 Y48.559 E15.76407
G1 X67.521 Y48.405 E15.78242
G1 X48.405 Y67.521 E16.68013
G1 X48.251 Y68.051 E16.69848
G1 X68.051 Y48.251 E17.62835
G1 X68.553 Y48.125 E17.64553
G1 X48.125 Y68.553 E18.60485
G1 X48.017 Y69.038 E18.62134
G1 X69.038 Y48.017 E19.60852
G1 X69.523 Y47.908 E19.62502
G1 X47.908 Y69.523 E20.64007
G1 X47.806 Y70.002 E20.65635
G1 X70.002 Y47.806 E21.69874
G1 X70.450 Y47.735 E21.71378
G1 X47.735 Y70.450 E22.78051
G1 X47.664 Y70.897 E22.79555
G1 X70.897 Y47.664 E23.88661
G1 X71.345 Y47.593 E23.90165
G1 X47.593 Y71.345 E25.01705
G1 X47.532 Y71.782 E25.03171
G1 X71.782 Y47.532 E26.17050
G1 X72.198 Y47.493 E26.18436
G1 X47.493 Y72.198 E27.34452
G1 X47.454 Y72.613 E27.35839
G1 X72.613 Y47.454 E28.53992
G1 X73.029 Y47.414 E28.55379
G1 X47.414 Y73.029 E29.75669
G1 X47.380 Y73.440 E29.77039
G1 X73.440 Y47.380 E30.99422
G1 X73.829 Y47.368 E31.00713
G1 X47.368 Y73.829 E32.24979
G1 X47.355 Y74.218 E32.26270
G1 X74.218 Y47.355 E33.52419
G1 X74.607 Y47.343 E33.53711
G1 X47.343 Y74.607 E34.81742
G1 X47.331 Y74.995 E34.83034
G1 X74.995 Y47.331 E36.12949
G1 X75.366 Y47.337 E36.14180
G1 X47.336 Y75.367 E37.45813
G1 X47.347 Y75.732 E37.47025
G1 X75.731 Y47.348 E38.80320
G1 X76.097 Y47.359 E38.81533
G1 X47.359 Y76.097 E40.16488
G1 X47.370 Y76.462 E40.17701
G1 X76.462 Y47.370 E41.54318
G1 X76.827 Y47.382 E41.55531
G1 X47.382 Y76.827 E42.93810
G1 X47.414 Y77.171 E42.94958
G1 X77.171 Y47.414 E44.34703
G1 X77.515 Y47.446 E44.35851
G1 X47.446 Y77.515 E45.77058
G1 X47.479 Y77.859 E45.78206
G1 X77.860 Y47.479 E47.20876
G1 X78.204 Y47.511 E47.22024
G1 X47.511 Y78.203 E48.66157
G1 X47.544 Y78.548 E48.67304
G1 X78.548 Y47.544 E50.12900
G1 X78.873 Y47.595 E50.13995
G1 X47.595 Y78.873 E51.60881
G1 X47.646 Y79.198 E51.61974
G1 X79.198 Y47.646 E53.10145
G1 X79.523 Y47.698 E53.11238
G1 X47.698 Y79.523 E54.60694
G1 X47.749 Y79.848 E54.61787
G1 X79.848 Y47.749 E56.12527
G1 X80.173 Y47.801 E56.13620
G1 X47.801 Y80.173 E57.65644
G1 X47.864 Y80.486 E57.66705
G1 X80.486 Y47.864 E59.19899
G1 X80.794 Y47.933 E59.20947
G1 X47.933 Y80.794 E60.75264
G1 X48.002 Y81.102 E60.76311
G1 X81.102 Y48.002 E62.31750
G1 X81.409 Y48.071 E62.32797
G1 X48.071 Y81.409 E63.89358
G1 X48.139 Y81.717 E63.90405
G1 X81.717 Y48.139 E65.48089
G1 X82.021 Y48.212 E65.49127
G1 X48.212 Y82.021 E67.07901
G1 X48.296 Y82.313 E67.08910
G1 X82.313 Y48.296 E68.68656
G1 X82.605 Y48.381 E68.69665
G1 X48.381 Y82.605 E70.30383
G1 X48.466 Y82.897 E70.31392
G1 X82.897 Y48.466 E71.93082
G1 X83.188 Y48.551 E71.94091
G1 X48.551 Y83.188 E73.56753
G1 X48.635 Y83.480 E73.57762
G1 X83.480 Y48.635 E75.21396
G1 X83.764 Y48.728 E75.22388
G1 X48.728 Y83.764 E76.86923
G1 X48.827 Y84.041 E76.87900
G1 X84.041 Y48.827 E78.53266
G1 X84.318 Y48.927 E78.54244
G1 X48.927 Y84.318 E80.20442
G1 X49.027 Y84.595 E80.21419
G1 X84.595 Y49.027 E81.88450
G1 X84.872 Y49.127 E81.89427
G1 X49.127 Y84.872 E83.57289
G1 X49.226 Y85.148 E83.58266
G1 X85.148 Y49.226 E85.26961
G1 X85.417 Y49.335 E85.27921
G1 X49.335 Y85.417 E86.97365
G1 X49.448 Y85.679 E86.98316
G1 X85.679 Y49.448 E88.68460
G1 X85.942 Y49.562 E88.69411
G1 X49.562 Y85.942 E90.40255
G1 X49.676 Y86.205 E90.41206
G1 X86.205 Y49.676 E92.12751
G1 X86.468 Y49.790 E92.13702
G1 X49.790 Y86.468 E93.85946
G1 X49.903 Y86.731 E93.86897
G1 X86.731 Y49.903 E95.59842
G1 X86.986 Y50.025 E95.60780
G1 X50.025 Y86.986 E97.34352
G1 X50.152 Y87.235 E97.35282
G1 X67.795 Y69.592 E98.18136
G1 X67.478 Y70.058 E98.20006
G1 X67.161 Y70.603 E98.22101
G1 X50.279 Y87.484 E99.01380
G1 X50.406 Y87.734 E99.02309
G1 X66.813 Y71.327 E99.79357
G1 X66.573 Y71.943 E99.81551
G1 X50.533 Y87.983 E100.56879
G1 X50.660 Y88.233 E100.57808
G1 X66.403 Y72.490 E101.31738
G1 X66.281 Y72.989 E101.33443
G1 X50.792 Y88.477 E102.06179
G1 X50.932 Y88.714 E102.07092
G1 X66.193 Y73.453 E102.78759
G1 X66.132 Y73.891 E102.80227
G1 X51.072 Y88.950 E103.50949
G1 X51.212 Y89.187 E103.51861
G1 X66.093 Y74.306 E104.21742
G1 X66.079 Y74.697 E104.23039
G1 X51.352 Y89.424 E104.92197
G1 X51.492 Y89.660 E104.93110
G1 X66.078 Y75.074 E105.61608
G1 X66.090 Y75.439 E105.62821
G1 X51.633 Y89.896 E106.30711
G1 X51.785 Y90.120 E106.31611
G1 X66.121 Y75.784 E106.98932
G1 X66.159 Y76.123 E107.00062
G1 X51.938 Y90.344 E107.66847
G1 X52.090 Y90.568 E107.67747
G1 X66.210 Y76.448 E108.34057
G1 X66.271 Y76.763 E108.35124
G1 X52.242 Y90.792 E109.01006
G1 X52.395 Y91.016 E109.01906
G1 X66.340 Y77.071 E109.67396
G1 X66.421 Y77.366 E109.68413
G1 X52.547 Y91.241 E110.33569
G1 X52.708 Y91.456 E110.34462
G1 X66.506 Y77.658 E110.99260
G1 X66.604 Y77.936 E111.00240
G1 X52.872 Y91.668 E111.64727
G1 X53.037 Y91.880 E111.65618
G1 X66.704 Y78.213 E112.29800
G1 X66.817 Y78.476 E112.30752
G1 X53.201 Y92.092 E112.94694
G1 X53.366 Y92.304 E112.95585
G1 X66.931 Y78.739 E113.59289
G1 X67.058 Y78.989 E113.60218
G1 X53.530 Y92.517 E114.23746
G1 X53.697 Y92.726 E114.24635
G1 X67.185 Y79.238 E114.87974
G1 X67.324 Y79.475 E114.88887
G1 X53.874 Y92.926 E115.52052
G1 X54.050 Y93.126 E115.52938
G1 X67.464 Y79.712 E116.15931
G1 X67.615 Y79.937 E116.16832
G1 X54.227 Y93.326 E116.79706
G1 X54.403 Y93.526 E116.80592
G1 X67.768 Y80.161 E117.43353
G1 X67.930 Y80.376 E117.44246
G1 X54.580 Y93.726 E118.06940
G1 X54.756 Y93.926 E118.07826
G1 X68.094 Y80.588 E118.70464
G1 X68.267 Y80.792 E118.71351
G1 X54.941 Y94.117 E119.33930
G1 X55.130 Y94.306 E119.34814
G1 X68.443 Y80.992 E119.97337
G1 X68.627 Y81.185 E119.98222
G1 X55.318 Y94.494 E120.60721
G1 X55.506 Y94.682 E120.61605
G1 X68.815 Y81.373 E121.24104
G1 X69.008 Y81.556 E121.24988
G1 X55.694 Y94.870 E121.87512
G1 X55.883 Y95.059 E121.88396
G1 X69.208 Y81.733 E122.50976
G1 X69.412 Y81.906 E122.51863
G1 X56.074 Y95.244 E123.14501
G1 X56.274 Y95.420 E123.15387
G1 X69.624 Y82.070 E123.78081
G1 X69.839 Y82.232 E123.78973
G1 X56.474 Y95.597 E124.41734
G1 X56.674 Y95.773 E124.42620
G1 X70.063 Y82.385 E125.05495
G1 X70.288 Y82.536 E125.06396
G1 X56.874 Y95.950 E125.69389
G1 X57.074 Y96.126 E125.70275
G1 X70.525 Y82.676 E126.33439
G1 X70.762 Y82.815 E126.34353
G1 X57.274 Y96.303 E126.97691
G1 X57.323 Y96.346 E126.97908
G1 X57.484 Y96.470 E126.98581
G1 X71.011 Y82.942 E127.62108
G1 X71.261 Y83.069 E127.63038
G1 X57.696 Y96.634 E128.26742
G1 X57.908 Y96.799 E128.27633
G1 X71.524 Y83.183 E128.91575
G1 X71.787 Y83.296 E128.92527
G1 X58.120 Y96.963 E129.56709
G1 X58.332 Y97.128 E129.57600
G1 X72.064 Y83.396 E130.22087
G1 X72.342 Y83.494 E130.23067
G1 X58.544 Y97.292 E130.87865
G1 X58.759 Y97.453 E130.88758
G1 X72.634 Y83.579 E131.53913
G1 X72.929 Y83.660 E131.54931
G1 X58.984 Y97.605 E132.20421
G1 X59.208 Y97.758 E132.21321
G1 X73.237 Y83.729 E132.87203
G1 X73.552 Y83.790 E132.88270
G1 X59.432 Y97.910 E133.54580
G1 X59.656 Y98.062 E133.55480
G1 X73.877 Y83.841 E134.22264
G1 X74.216 Y83.879 E134.23395
G1 X59.880 Y98.215 E134.90715
G1 X60.104 Y98.367 E134.91615
G1 X74.561 Y83.910 E135.59505
G1 X74.926 Y83.922 E135.60718
G1 X60.340 Y98.508 E136.29217
G1 X60.577 Y98.648 E136.30129
G1 X75.303 Y83.921 E136.99288
G1 X75.694 Y83.907 E137.00585
G1 X60.813 Y98.788 E137.70466
G1 X61.050 Y98.928 E137.71378
G1 X76.109 Y83.868 E138.42101
G1 X76.547 Y83.807 E138.43569
G1 X61.286 Y99.068 E139.15236
G1 X61.523 Y99.208 E139.16149
G1 X77.011 Y83.719 E139.88884
G1 X77.510 Y83.597 E139.90590
G1 X61.767 Y99.340 E140.64520
G1 X62.017 Y99.467 E140.65450
G1 X78.057 Y83.426 E141.40778
G1 X78.673 Y83.187 E141.42971
G1 X62.266 Y99.594 E142.20020
G1 X62.516 Y99.721 E142.20950
G1 X79.398 Y82.839 E143.00229
G1 X79.942 Y82.522 E143.02322
G1 X80.408 Y82.205 E143.04194
G1 X62.765 Y99.848 E143.87049
G1 X63.014 Y99.975 E143.87979
G1 X99.975 Y63.014 E145.61551
G1 X100.097 Y63.270 E145.62489
G1 X63.270 Y100.096 E147.35430
G1 X63.533 Y100.210 E147.36381
G1 X100.211 Y63.532 E149.08622
G1 X100.324 Y63.795 E149.09573
G1 X63.796 Y100.324 E150.81115
G1 X64.058 Y100.438 E150.82066
G1 X100.438 Y64.058 E152.52908
G1 X100.552 Y64.321 E152.53859
G1 X64.321 Y100.551 E154.24002
G1 X64.584 Y100.665 E154.24952
G1 X100.665 Y64.584 E155.94396
G1 X100.774 Y64.852 E155.95356
G1 X64.852 Y100.774 E157.64050
G1 X65.128 Y100.873 E157.65027
G1 X100.873 Y65.128 E159.32890
G1 X100.973 Y65.405 E159.33867
G1 X65.405 Y100.973 E161.00897
G1 X65.682 Y101.073 E161.01874
G1 X101.073 Y65.682 E162.68073
G1 X101.173 Y65.959 E162.69050
G1 X65.959 Y101.173 E164.34416
G1 X66.236 Y101.272 E164.35393
G1 X101.272 Y66.236 E165.99928
G1 X101.365 Y66.520 E166.00920
G1 X66.520 Y101.365 E167.64554
G1 X66.812 Y101.449 E167.65563
G1 X101.449 Y66.812 E169.28225
G1 X101.534 Y67.103 E169.29234
G1 X67.103 Y101.534 E170.90923
G1 X67.395 Y101.619 E170.91932
G1 X101.619 Y67.395 E172.52650
G1 X101.704 Y67.687 E172.53659
G1 X67.687 Y101.704 E174.13405
G1 X67.979 Y101.788 E174.14413
G1 X101.788 Y67.979 E175.73187
G1 X101.861 Y68.283 E175.74226
