; generated by Slic3r 1.3.0 on 2020-07-29 at 17:50:34

; external perimeters extrusion width = 0.44mm (2.86mm^3/s)
; perimeters extrusion width = 0.56mm (4.14mm^3/s)
; infill extrusion width = 0.50mm (3.66mm^3/s)
; solid infill extrusion width = 0.56mm (3.10mm^3/s)
; top infill extrusion width = 0.56mm (3.10mm^3/s)

M107
;D3D:START:START
T0
M104 S215 T0

G21
G90
M107
T0
G28
G29
M109 T0 S215 T0
G0 F3000
M107
T0
G92 E0
G0 X0 Y149 Z0.1 F3600
G1 Y49 E6.5 F1200
G0 Z1
G92 E0
; Filament gcode

G21 ; set units to millimeters
G90 ; use absolute coordinates
M82 ; use absolute distances for extrusion
G92 E0
G1 Z0.300 F7800.000
G1 E-2.00000 F2400.00000
G92 E0
G1 X72.407 Y72.243 F7800.000
G1 E2.00000 F2400.00000
G1 F1800
G1 X72.773 Y71.940 E2.01571
G1 X72.970 Y71.806 E2.02362
G1 X73.385 Y71.577 E2.03934
G1 X73.604 Y71.482 E2.04725
G1 X74.061 Y71.333 E2.06316
G1 X74.288 Y71.283 E2.07086
G1 X74.762 Y71.223 E2.08670
G1 X75.234 Y71.223 E2.10233
G1 X75.472 Y71.245 E2.11024
G1 X75.941 Y71.334 E2.12607
G1 X76.396 Y71.482 E2.14190
G1 X76.612 Y71.575 E2.14969
G1 X76.821 Y71.682 E2.15748
G1 X77.225 Y71.938 E2.17331
G1 X77.588 Y72.239 E2.18894
G1 X77.757 Y72.407 E2.19685
G1 X78.060 Y72.773 E2.21257
G1 X78.194 Y72.970 E2.22048
G1 X78.423 Y73.385 E2.23619
G1 X78.518 Y73.604 E2.24410
G1 X78.666 Y74.059 E2.25993
G1 X78.754 Y74.522 E2.27556
G1 X78.777 Y74.760 E2.28347
G1 X78.777 Y75.240 E2.29938
G1 X78.754 Y75.478 E2.30729
G1 X78.666 Y75.941 E2.32292
G1 X78.518 Y76.396 E2.33875
G1 X78.425 Y76.612 E2.34654
G1 X78.318 Y76.821 E2.35434
G1 X78.062 Y77.225 E2.37017
G1 X77.757 Y77.593 E2.38600
G1 X77.593 Y77.757 E2.39370
G1 X77.223 Y78.064 E2.40962
G1 X77.030 Y78.194 E2.41733
G1 X76.609 Y78.426 E2.43325
G1 X76.396 Y78.518 E2.44095
G1 X75.939 Y78.667 E2.45687
G1 X75.712 Y78.717 E2.46458
G1 X75.238 Y78.777 E2.48041
G1 X74.760 Y78.777 E2.49624
G1 X74.522 Y78.754 E2.50414
G1 X74.059 Y78.666 E2.51978
G1 X73.604 Y78.518 E2.53561
G1 X73.388 Y78.425 E2.54340
G1 X73.179 Y78.318 E2.55119
G1 X72.775 Y78.062 E2.56702
G1 X72.407 Y77.757 E2.58286
G1 X72.243 Y77.593 E2.59056
G1 X71.936 Y77.223 E2.60648
G1 X71.806 Y77.030 E2.61418
G1 X71.574 Y76.609 E2.63010
G1 X71.482 Y76.396 E2.63781
G1 X71.334 Y75.941 E2.65364
G1 X71.245 Y75.472 E2.66947
G1 X71.223 Y75.234 E2.67738
G1 X71.223 Y74.762 E2.69301
G1 X71.283 Y74.288 E2.70884
G1 X71.333 Y74.061 E2.71655
G1 X71.480 Y73.610 E2.73226
G1 X71.575 Y73.388 E2.74026
G1 X71.682 Y73.179 E2.74805
G1 X71.938 Y72.775 E2.76388
G1 X72.365 Y72.285 E2.78541
G1 X72.691 Y72.335 F7800.000
G1 F1800
G1 X72.332 Y72.694 E2.80253
G1 X72.050 Y73.035 E2.81747
G1 X71.812 Y73.410 E2.83247
G1 X71.648 Y73.761 E2.84553
G1 X73.765 Y71.643 E2.94659
G1 X74.325 Y71.467 E2.96638
G1 X71.467 Y74.325 E3.10278
G1 X71.399 Y74.775 E3.11816
G1 X74.775 Y71.399 E3.27929
G1 X75.171 Y71.385 E3.29267
G1 X71.385 Y75.171 E3.47338
G1 X71.404 Y75.535 E3.48565
G1 X75.535 Y71.404 E3.68276
G1 X75.856 Y71.465 E3.69381
G1 X71.465 Y75.856 E3.90336
G1 X71.547 Y76.157 E3.91389
G1 X76.157 Y71.547 E4.13392
G1 X76.442 Y71.645 E4.14407
G1 X71.644 Y76.443 E4.37305
G1 X71.768 Y76.701 E4.38272
G1 X76.702 Y71.768 E4.61819
G1 X76.945 Y71.907 E4.62765
G1 X71.904 Y76.948 E4.86827
G1 X72.056 Y77.179 E4.87758
G1 X77.179 Y72.056 E5.12206
G1 X77.388 Y72.229 E5.13123
G1 X72.229 Y77.388 E5.37743
G1 X72.336 Y77.517 E5.38308
G1 X72.409 Y77.591 E5.38658
G1 X77.590 Y72.410 E5.63384
G1 X77.771 Y72.612 E5.64299
G1 X72.612 Y77.771 E5.88919
G1 X72.821 Y77.944 E5.89836
G1 X77.944 Y72.821 E6.14283
G1 X78.096 Y73.052 E6.15215
G1 X73.055 Y78.093 E6.39276
G1 X73.298 Y78.232 E6.40223
G1 X78.232 Y73.298 E6.63770
G1 X78.356 Y73.557 E6.64738
G1 X73.558 Y78.355 E6.87635
G1 X73.843 Y78.453 E6.88650
G1 X78.453 Y73.843 E7.10653
G1 X78.535 Y74.144 E7.11706
G1 X74.144 Y78.535 E7.32661
G1 X74.466 Y78.595 E7.33767
G1 X78.595 Y74.466 E7.53475
G1 X78.615 Y74.829 E7.54702
G1 X74.829 Y78.615 E7.72771
G1 X75.225 Y78.601 E7.74109
G1 X78.606 Y75.221 E7.90242
G1 X78.529 Y75.680 E7.91814
G1 X75.676 Y78.533 E8.05431
G1 X76.235 Y78.357 E8.07410
G1 X78.353 Y76.238 E8.17521
G1 X78.188 Y76.590 E8.18831
G1 X77.950 Y76.965 E8.20330
G1 X77.665 Y77.310 E8.21841
G1 X77.310 Y77.665 E8.23534
M106 S255
G1 Z0.500 F7800.000
G1 E6.23534 F2400.00000
G92 E0
G1 X72.445 Y72.283 F7800.000
G1 E2.00000 F2400.00000
G1 F1800
G1 X72.798 Y71.990 E2.01515
G1 X72.999 Y71.852 E2.02320
G1 X73.401 Y71.631 E2.03835
G1 X73.625 Y71.533 E2.04642
G1 X73.998 Y71.409 E2.05942
G1 X74.299 Y71.337 E2.06964
G1 X74.766 Y71.278 E2.08516
G1 X75.222 Y71.277 E2.10021
G1 X75.464 Y71.299 E2.10826
G1 X75.928 Y71.388 E2.12383
G1 X76.361 Y71.528 E2.13888
G1 X76.588 Y71.625 E2.14704
G1 X76.794 Y71.730 E2.15465
G1 X77.192 Y71.983 E2.17023
G1 X77.544 Y72.273 E2.18528
G1 X77.717 Y72.445 E2.19333
G1 X78.010 Y72.798 E2.20848
G1 X78.148 Y72.999 E2.21653
G1 X78.369 Y73.401 E2.23168
G1 X78.467 Y73.624 E2.23972
G1 X78.612 Y74.073 E2.25529
G1 X78.698 Y74.520 E2.27034
G1 X78.722 Y74.763 E2.27839
G1 X78.722 Y75.234 E2.29395
G1 X78.663 Y75.702 E2.30953
G1 X78.613 Y75.924 E2.31704
G1 X78.467 Y76.376 E2.33273
G1 X78.375 Y76.588 E2.34036
G1 X78.270 Y76.794 E2.34798
G1 X78.017 Y77.192 E2.36356
G1 X77.717 Y77.556 E2.37913
G1 X77.556 Y77.717 E2.38664
G1 X77.190 Y78.019 E2.40234
G1 X77.001 Y78.147 E2.40984
G1 X76.585 Y78.376 E2.42554
G1 X76.376 Y78.467 E2.43304
G1 X75.928 Y78.612 E2.44862
G1 X75.464 Y78.701 E2.46420
G1 X75.238 Y78.722 E2.47171
G1 X74.766 Y78.722 E2.48729
G1 X74.298 Y78.663 E2.50287
G1 X74.076 Y78.613 E2.51037
G1 X73.624 Y78.467 E2.52607
G1 X73.412 Y78.375 E2.53369
G1 X73.206 Y78.270 E2.54131
G1 X72.808 Y78.017 E2.55689
G1 X72.444 Y77.717 E2.57247
G1 X72.283 Y77.556 E2.57998
G1 X71.981 Y77.190 E2.59567
G1 X71.853 Y77.001 E2.60318
G1 X71.624 Y76.585 E2.61887
G1 X71.533 Y76.376 E2.62638
G1 X71.388 Y75.928 E2.64196
G1 X71.299 Y75.464 E2.65752
G1 X71.277 Y75.222 E2.66557
G1 X71.278 Y74.766 E2.68062
G1 X71.334 Y74.313 E2.69567
G1 X71.387 Y74.075 E2.70373
G1 X71.528 Y73.639 E2.71887
G1 X71.625 Y73.412 E2.72704
G1 X71.730 Y73.206 E2.73464
G1 X71.983 Y72.808 E2.75023
G1 X72.402 Y72.326 E2.77133
G1 E0.77133 F2400.00000
G92 E0
G1 X72.442 Y77.026 F7800.000
G1 E2.00000 F2400.00000
G1 F1098.13
G1 X72.974 Y77.558 E2.03380
G1 X73.296 Y77.824 E2.05253
G1 X73.820 Y78.135 E2.07994
G1 X73.997 Y78.212 E2.08858
G1 X74.559 Y78.379 E2.11491
G1 X71.629 Y75.449 E2.30100
G1 X71.563 Y74.999 E2.32143
G1 X71.564 Y74.619 E2.33847
G1 X75.381 Y78.436 E2.58092
G1 X75.596 Y78.419 E2.59063
G1 X76.039 Y78.331 E2.61090
G1 X71.669 Y73.961 E2.88843
G1 X71.781 Y73.616 E2.90470
G1 X71.879 Y73.407 E2.91510
G1 X76.597 Y78.125 E3.21480
G1 X77.079 Y77.843 E3.23988
G1 X72.158 Y72.922 E3.55244
G1 X72.507 Y72.508 E3.57679
G1 X77.493 Y77.493 E3.89344
G1 X77.842 Y77.078 E3.91779
G1 X72.921 Y72.157 E4.23032
G1 X73.402 Y71.874 E4.25538
G1 X78.126 Y76.599 E4.55545
G1 X78.212 Y76.405 E4.56496
G1 X78.330 Y76.039 E4.58224
G1 X73.961 Y71.669 E4.85977
G1 X74.186 Y71.615 E4.87016
G1 X74.619 Y71.564 E4.88975
G1 X78.436 Y75.381 E5.13221
G1 X78.436 Y74.988 E5.14986
G1 X78.371 Y74.552 E5.16967
G1 X75.449 Y71.629 E5.35528
G1 X75.605 Y71.659 E5.36245
G1 X75.981 Y71.781 E5.38020
G1 X76.358 Y71.957 E5.39887
G1 X76.705 Y72.177 E5.41730
G1 X77.015 Y72.433 E5.43540
G1 X77.559 Y72.976 E5.46988
G1 Z0.700 F7800.000
G1 E3.46988 F2400.00000
G92 E0
G1 X72.445 Y72.283 F7800.000
G1 E2.00000 F2400.00000
G1 F1800
G1 X72.792 Y71.995 E2.01488
G1 X72.999 Y71.852 E2.02320
G1 X73.394 Y71.635 E2.03808
G1 X73.625 Y71.533 E2.04640
G1 X74.053 Y71.393 E2.06128
G1 X74.298 Y71.337 E2.06959
G1 X74.766 Y71.278 E2.08516
G1 X75.214 Y71.277 E2.09994
G1 X75.465 Y71.299 E2.10826
G1 X75.928 Y71.388 E2.12382
G1 X76.354 Y71.525 E2.13860
G1 X76.589 Y71.625 E2.14704
G1 X76.794 Y71.730 E2.15464
G1 X77.192 Y71.983 E2.17022
G1 X77.538 Y72.268 E2.18500
G1 X77.717 Y72.445 E2.19333
G1 X78.005 Y72.792 E2.20820
G1 X78.148 Y72.999 E2.21652
G1 X78.376 Y73.415 E2.23219
G1 X78.467 Y73.624 E2.23970
G1 X78.612 Y74.072 E2.25528
G1 X78.701 Y74.536 E2.27086
G1 X78.722 Y74.762 E2.27837
G1 X78.722 Y75.234 E2.29395
G1 X78.663 Y75.702 E2.30952
G1 X78.613 Y75.924 E2.31703
G1 X78.467 Y76.376 E2.33273
G1 X78.375 Y76.588 E2.34035
G1 X78.270 Y76.794 E2.34797
G1 X78.017 Y77.192 E2.36355
G1 X77.717 Y77.556 E2.37913
G1 X77.556 Y77.717 E2.38663
G1 X77.190 Y78.019 E2.40233
G1 X77.001 Y78.147 E2.40984
G1 X76.585 Y78.376 E2.42553
G1 X76.376 Y78.467 E2.43304
G1 X75.924 Y78.613 E2.44873
G1 X75.702 Y78.663 E2.45624
G1 X75.234 Y78.722 E2.47182
G1 X74.766 Y78.722 E2.48728
G1 X74.298 Y78.663 E2.50286
G1 X74.076 Y78.613 E2.51037
G1 X73.624 Y78.467 E2.52606
G1 X73.412 Y78.375 E2.53368
G1 X73.206 Y78.270 E2.54130
G1 X72.808 Y78.017 E2.55688
G1 X72.444 Y77.717 E2.57246
G1 X72.283 Y77.556 E2.57997
G1 X71.981 Y77.190 E2.59566
G1 X71.853 Y77.001 E2.60317
G1 X71.624 Y76.585 E2.61886
G1 X71.533 Y76.376 E2.62637
G1 X71.387 Y75.925 E2.64204
G1 X71.333 Y75.679 E2.65036
G1 X71.278 Y75.234 E2.66514
G1 X71.278 Y74.766 E2.68062
G1 X71.333 Y74.321 E2.69540
G1 X71.387 Y74.075 E2.70373
G1 X71.525 Y73.646 E2.71860
G1 X71.625 Y73.411 E2.72703
G1 X71.730 Y73.206 E2.73464
G1 X71.983 Y72.808 E2.75022
G1 X72.403 Y72.326 E2.77133
G1 X72.976 Y72.441 F7800.000
G1 F1098.44
G1 X72.428 Y72.990 E2.80619
G1 X72.177 Y73.295 E2.82395
G1 X71.957 Y73.641 E2.84236
G1 X71.778 Y74.026 E2.86139
G1 X71.623 Y74.558 E2.88630
G1 X74.559 Y71.622 E3.07280
G1 X74.998 Y71.564 E3.09269
G1 X75.382 Y71.563 E3.10992
G1 X71.564 Y75.381 E3.35241
G1 X71.613 Y75.798 E3.37126
G1 X71.670 Y76.039 E3.38239
G1 X76.039 Y71.669 E3.65993
G1 X76.377 Y71.778 E3.67586
G1 X76.593 Y71.879 E3.68659
G1 X71.875 Y76.598 E3.98628
G1 X72.157 Y77.079 E4.01135
G1 X77.078 Y72.158 E4.32392
G1 X77.492 Y72.508 E4.34827
G1 X72.507 Y77.493 E4.66490
G1 X72.922 Y77.842 E4.68925
G1 X77.842 Y72.922 E5.00176
G1 X78.125 Y73.403 E5.02682
G1 X73.401 Y78.126 E5.32686
G1 X73.595 Y78.212 E5.33636
G1 X73.961 Y78.331 E5.35365
G1 X78.331 Y73.961 E5.63118
G1 X78.419 Y74.404 E5.65144
G1 X78.436 Y74.619 E5.66116
G1 X74.619 Y78.436 E5.90359
G1 X75.002 Y78.436 E5.92080
G1 X75.441 Y78.379 E5.94066
G1 X78.379 Y75.441 E6.12725
G1 X78.212 Y76.003 E6.15358
G1 X78.135 Y76.180 E6.16222
G1 X77.824 Y76.704 E6.18963
G1 X77.558 Y77.026 E6.20837
G1 X77.026 Y77.558 E6.24216
G1 Z0.900 F7800.000
G1 E4.24216 F2400.00000
G92 E0
G1 X72.445 Y72.283 F7800.000
G1 E2.00000 F2400.00000
G1 F1800
G1 X72.785 Y72.000 E2.01460
G1 X72.999 Y71.852 E2.02320
G1 X73.387 Y71.638 E2.03780
G1 X73.625 Y71.533 E2.04640
G1 X74.045 Y71.395 E2.06100
G1 X74.299 Y71.337 E2.06959
G1 X74.766 Y71.278 E2.08515
G1 X75.206 Y71.277 E2.09967
G1 X75.465 Y71.299 E2.10825
G1 X75.928 Y71.388 E2.12381
G1 X76.346 Y71.523 E2.13833
G1 X76.589 Y71.625 E2.14703
G1 X76.794 Y71.730 E2.15463
G1 X77.192 Y71.983 E2.17021
G1 X77.532 Y72.262 E2.18473
G1 X77.717 Y72.445 E2.19333
G1 X78.000 Y72.785 E2.20793
G1 X78.148 Y72.999 E2.21653
G1 X78.362 Y73.387 E2.23113
G1 X78.467 Y73.625 E2.23972
G1 X78.612 Y74.072 E2.25527
G1 X78.701 Y74.536 E2.27085
G1 X78.722 Y74.762 E2.27836
G1 X78.722 Y75.234 E2.29393
G1 X78.663 Y75.702 E2.30951
G1 X78.613 Y75.924 E2.31702
G1 X78.467 Y76.376 E2.33271
G1 X78.375 Y76.588 E2.34034
G1 X78.270 Y76.794 E2.34796
G1 X78.017 Y77.192 E2.36354
G1 X77.717 Y77.556 E2.37912
G1 X77.556 Y77.717 E2.38662
G1 X77.190 Y78.019 E2.40232
G1 X77.001 Y78.147 E2.40982
G1 X76.585 Y78.376 E2.42552
G1 X76.376 Y78.467 E2.43303
G1 X75.928 Y78.612 E2.44860
G1 X75.464 Y78.701 E2.46418
G1 X75.238 Y78.722 E2.47169
G1 X74.766 Y78.722 E2.48727
G1 X74.298 Y78.663 E2.50285
G1 X74.076 Y78.613 E2.51036
G1 X73.624 Y78.467 E2.52605
G1 X73.412 Y78.375 E2.53367
G1 X73.206 Y78.270 E2.54129
G1 X72.808 Y78.017 E2.55687
G1 X72.444 Y77.717 E2.57245
G1 X72.283 Y77.556 E2.57996
G1 X71.981 Y77.190 E2.59565
G1 X71.853 Y77.001 E2.60316
G1 X71.624 Y76.585 E2.61885
G1 X71.533 Y76.376 E2.62636
G1 X71.387 Y75.925 E2.64203
G1 X71.332 Y75.671 E2.65061
G1 X71.278 Y75.234 E2.66513
G1 X71.278 Y74.766 E2.68060
G1 X71.337 Y74.298 E2.69618
G1 X71.387 Y74.076 E2.70370
G1 X71.523 Y73.654 E2.71833
G1 X71.625 Y73.411 E2.72703
G1 X71.730 Y73.206 E2.73462
G1 X71.983 Y72.808 E2.75021
G1 X72.403 Y72.326 E2.77132
G1 E0.77132 F2400.00000
G92 E0
G1 X72.442 Y77.026 F7800.000
G1 E2.00000 F2400.00000
G1 F1098.17
G1 X72.974 Y77.558 E2.03379
G1 X73.296 Y77.824 E2.05253
G1 X73.820 Y78.135 E2.07993
G1 X73.997 Y78.212 E2.08858
G1 X74.559 Y78.379 E2.11491
G1 X71.623 Y75.443 E2.30138
G1 X71.564 Y75.003 E2.32130
G1 X71.564 Y74.619 E2.33854
G1 X75.381 Y78.436 E2.58097
G1 X75.596 Y78.419 E2.59069
G1 X76.039 Y78.331 E2.61095
G1 X71.669 Y73.961 E2.88848
G1 X71.776 Y73.630 E2.90408
G1 X71.879 Y73.407 E2.91513
G1 X76.597 Y78.125 E3.21480
G1 X77.079 Y77.843 E3.23987
G1 X72.158 Y72.922 E3.55243
G1 X72.508 Y72.508 E3.57678
G1 X77.493 Y77.493 E3.89340
G1 X77.842 Y77.078 E3.91775
G1 X72.922 Y72.158 E4.23025
G1 X73.402 Y71.874 E4.25529
G1 X78.126 Y76.599 E4.55538
G1 X78.212 Y76.405 E4.56489
G1 X78.330 Y76.039 E4.58217
G1 X73.960 Y71.669 E4.85975
G1 X74.183 Y71.616 E4.87004
G1 X74.619 Y71.564 E4.88975
G1 X78.436 Y75.381 E5.13221
G1 X78.436 Y74.986 E5.14993
G1 X78.371 Y74.552 E5.16969
G1 X75.448 Y71.629 E5.35529
G1 X75.606 Y71.659 E5.36249
G1 X75.967 Y71.776 E5.37955
G1 X76.359 Y71.957 E5.39892
G1 X76.705 Y72.177 E5.41733
G1 X77.004 Y72.423 E5.43475
G1 X77.560 Y72.977 E5.46997
G1 Z1.100 F7800.000
G1 E3.46997 F2400.00000
G92 E0
G1 X72.445 Y72.283 F7800.000
G1 E2.00000 F2400.00000
G1 F1800
G1 X72.810 Y71.981 E2.01566
G1 X72.999 Y71.853 E2.02318
G1 X73.379 Y71.642 E2.03754
G1 X73.625 Y71.533 E2.04641
G1 X74.037 Y71.398 E2.06074
G1 X74.299 Y71.337 E2.06960
G1 X74.766 Y71.278 E2.08516
G1 X75.198 Y71.277 E2.09941
G1 X75.465 Y71.299 E2.10826
G1 X75.928 Y71.388 E2.12382
G1 X76.339 Y71.520 E2.13807
G1 X76.589 Y71.626 E2.14704
G1 X76.794 Y71.730 E2.15463
G1 X77.192 Y71.983 E2.17021
G1 X77.556 Y72.283 E2.18579
G1 X77.717 Y72.444 E2.19330
G1 X78.019 Y72.810 E2.20899
G1 X78.147 Y72.999 E2.21651
G1 X78.358 Y73.379 E2.23087
G1 X78.467 Y73.625 E2.23973
G1 X78.612 Y74.072 E2.25527
G1 X78.701 Y74.536 E2.27085
G1 X78.722 Y74.762 E2.27836
G1 X78.722 Y75.238 E2.29405
G1 X78.701 Y75.464 E2.30156
G1 X78.612 Y75.928 E2.31714
G1 X78.467 Y76.376 E2.33272
G1 X78.375 Y76.588 E2.34034
G1 X78.270 Y76.794 E2.34796
G1 X78.017 Y77.192 E2.36354
G1 X77.717 Y77.556 E2.37912
G1 X77.556 Y77.717 E2.38663
G1 X77.190 Y78.019 E2.40232
G1 X77.001 Y78.147 E2.40983
G1 X76.585 Y78.376 E2.42552
G1 X76.376 Y78.467 E2.43303
G1 X75.928 Y78.612 E2.44861
G1 X75.464 Y78.701 E2.46419
G1 X75.238 Y78.722 E2.47170
G1 X74.762 Y78.722 E2.48739
G1 X74.536 Y78.701 E2.49490
G1 X74.072 Y78.612 E2.51047
G1 X73.624 Y78.467 E2.52605
G1 X73.412 Y78.375 E2.53368
G1 X73.206 Y78.270 E2.54130
G1 X72.808 Y78.017 E2.55688
G1 X72.444 Y77.717 E2.57245
G1 X72.283 Y77.556 E2.57996
G1 X71.981 Y77.190 E2.59566
G1 X71.853 Y77.001 E2.60316
G1 X71.624 Y76.585 E2.61886
G1 X71.533 Y76.376 E2.62636
G1 X71.387 Y75.925 E2.64203
G1 X71.331 Y75.663 E2.65088
G1 X71.278 Y75.234 E2.66513
G1 X71.278 Y74.766 E2.68062
G1 X71.331 Y74.337 E2.69487
G1 X71.387 Y74.075 E2.70373
G1 X71.520 Y73.661 E2.71807
G1 X71.626 Y73.411 E2.72704
G1 X71.730 Y73.206 E2.73463
G1 X71.983 Y72.808 E2.75022
G1 X72.403 Y72.326 E2.77132
G1 X72.977 Y72.440 F7800.000
G1 F1098
G1 X72.418 Y73.001 E2.80687
G1 X72.177 Y73.295 E2.82395
G1 X71.957 Y73.641 E2.84235
G1 X71.773 Y74.040 E2.86208
G1 X71.624 Y74.557 E2.88628
G1 X74.559 Y71.622 E3.07272
G1 X74.999 Y71.564 E3.09264
G1 X75.382 Y71.563 E3.10986
G1 X71.564 Y75.381 E3.35237
G1 X71.610 Y75.783 E3.37054
G1 X71.670 Y76.039 E3.38235
G1 X76.039 Y71.669 E3.65989
G1 X76.362 Y71.773 E3.67514
G1 X76.593 Y71.880 E3.68653
G1 X71.875 Y76.598 E3.98619
G1 X72.157 Y77.079 E4.01126
G1 X77.078 Y72.158 E4.32382
G1 X77.493 Y72.507 E4.34817
G1 X72.507 Y77.493 E4.66483
G1 X72.922 Y77.842 E4.68918
G1 X77.843 Y72.921 E5.00174
G1 X78.126 Y73.402 E5.02681
G1 X73.406 Y78.122 E5.32656
G1 X73.602 Y78.214 E5.33629
G1 X73.961 Y78.331 E5.35324
G1 X78.331 Y73.961 E5.63076
G1 X78.419 Y74.404 E5.65102
G1 X78.436 Y74.619 E5.66074
G1 X74.619 Y78.436 E5.90317
G1 X75.014 Y78.436 E5.92087
G1 X75.449 Y78.371 E5.94064
G1 X78.371 Y75.449 E6.12621
