; generated by PrusaSlicer 2.2.0+linux-x64 on 2020-05-15 at 20:54:28 UTC


;
;

;
;
; 

; external perimeters extrusion width = 0.45mm
; perimeters extrusion width = 0.45mm
; infill extrusion width = 0.45mm
; solid infill extrusion width = 0.45mm
; top infill extrusion width = 0.40mm
; first layer extrusion width = 0.42mm

M73 P0 R66
M201 X1250 Y1250 Z400 E5000 ; sets maximum accelerations, mm/sec^2
M203 X180 Y180 Z12 E80 ; sets maximum feedrates, mm/sec
M204 P1250 R1250 T1250 ; sets acceleration (P, T) and retract acceleration (R), mm/sec^2
M205 X8.00 Y8.00 Z2.00 E10.00 ; sets the jerk limits, mm/sec
M205 S0 T0 ; sets the minimum extruding and travel feed rate, mm/sec
M107
G90 ; use absolute coordinates
M83 ; extruder relative mode
M104 S170 ; set extruder temp for bed leveling
M140 S60 ; set bed temp
M109 R170 ; wait for bed leveling temp
M190 S60 ; wait for bed temp
G28 ; home all without mesh bed level
G29 ; mesh bed leveling 
M104 S215 ; set extruder temp
G92 E0.0
G1 Y-2.0 X179 F2400
G1 Z3 F720
M109 S215 ; wait for extruder temp

; intro line
G1 X170 F1000
G1 Z0.2 F720
G1 X110.0 E8.0 F900
M73 P0 R65
G1 X40.0 E10.0 F700
G92 E0.0

M221 S95 ; set flow
G21 ; set units to millimeters
G90 ; use absolute coordinates
M83 ; use relative distances for extrusion
M900 K0.2 ; Filament gcode
;BEFORE_LAYER_CHANGE
G92 E0.0
;0.2


G1 Z0.200 F9000.000
;AFTER_LAYER_CHANGE
;0.2
G1 E-3.20000 F4200.00000
G1 Z0.400 F9000.000
G1 X88.914 Y52.002
G1 Z0.200
G1 E3.20000 F2400.00000
M204 S800
G1 F1200.000
G1 X89.452 Y51.812 E0.01666
G1 X90.005 Y51.750 E0.01621
G1 X90.555 Y51.813 E0.01616
G1 X91.090 Y52.004 E0.01656
G1 X91.563 Y52.306 E0.01635
G1 X91.994 Y52.729 E0.01761
G1 X94.857 Y56.531 E0.13879
G1 X97.922 Y60.936 E0.15648
G1 X100.513 Y64.933 E0.13893
G1 X103.281 Y69.524 E0.15632
G1 X106.081 Y74.590 E0.16878
G1 X108.258 Y78.924 E0.14140
G1 X109.805 Y82.303 E0.10838
G1 X111.237 Y85.755 E0.10898
G1 X112.512 Y89.239 E0.10819
G1 X113.599 Y92.744 E0.10700
G1 X114.457 Y96.233 E0.10477
G1 X114.893 Y98.592 E0.06994
G1 X115.287 Y101.995 E0.09989
G1 X115.376 Y104.299 E0.06725
G1 X115.216 Y107.550 E0.09490
G1 X114.903 Y109.693 E0.06316
G1 X114.406 Y111.808 E0.06334
G1 X113.737 Y113.815 E0.06168
G1 X112.875 Y115.757 E0.06197
G1 X111.354 Y118.317 E0.08683
G1 X110.068 Y119.986 E0.06144
G1 X108.644 Y121.498 E0.06057
G1 X107.110 Y122.845 E0.05951
G1 X105.395 Y124.088 E0.06178
G1 X102.761 Y125.588 E0.08837
G1 X100.747 Y126.468 E0.06409
G1 X97.767 Y127.423 E0.09127
G1 X95.589 Y127.897 E0.06499
G1 X92.316 Y128.297 E0.09613
G1 X89.998 Y128.375 E0.06766
G1 X87.684 Y128.297 E0.06751
G1 X84.412 Y127.898 E0.09611
G1 X82.233 Y127.423 E0.06501
G1 X79.254 Y126.468 E0.09123
G1 X77.240 Y125.589 E0.06409
G1 X74.605 Y124.088 E0.08842
G1 X72.889 Y122.844 E0.06180
G1 X71.358 Y121.500 E0.05942
G1 X69.933 Y119.987 E0.06061
G1 X68.646 Y118.317 E0.06147
G1 X67.125 Y115.757 E0.08683
G1 X66.262 Y113.812 E0.06205
G1 X65.594 Y111.808 E0.06159
G1 X65.097 Y109.691 E0.06341
G1 X64.784 Y107.550 E0.06311
G1 X64.624 Y104.298 E0.09495
G1 X64.713 Y101.993 E0.06725
G1 X65.108 Y98.590 E0.09989
G1 X65.543 Y96.233 E0.06991
G1 X66.401 Y92.746 E0.10470
G1 X67.489 Y89.237 E0.10711
G1 X68.763 Y85.754 E0.10815
G1 X70.194 Y82.305 E0.10890
G1 X71.743 Y78.922 E0.10849
G1 X73.920 Y74.589 E0.14141
G1 X76.718 Y69.527 E0.16865
G1 X79.487 Y64.934 E0.15639
G1 X82.079 Y60.934 E0.13898
G1 X85.142 Y56.533 E0.15636
G1 X88.003 Y52.732 E0.13872
G1 X88.438 Y52.305 E0.01778
G1 X88.863 Y52.035 E0.01469
M204 S1250
G1 E-2.24000 F4200.00000
G1 F7200.000
G1 X89.452 Y51.812 E-0.34907
G1 X90.005 Y51.750 E-0.30807
G1 X90.462 Y51.803 E-0.25486
G1 E-0.04800 F4200.00000
G1 Z0.400 F9000.000
G1 X81.968 Y72.148
G1 Z0.200
G1 E3.20000 F2400.00000
M204 S800
G1 F1200.000
G1 X98.032 Y72.148 E0.46845
G1 X98.449 Y72.313 E0.01307
G1 X98.646 Y72.413 E0.00644
G1 X99.002 Y72.639 E0.01230
G1 X99.337 Y72.916 E0.01268
G1 X99.626 Y73.224 E0.01229
G1 X99.761 Y73.398 E0.00644
G1 X99.989 Y73.757 E0.01239
G1 X100.171 Y74.144 E0.01249
G1 X100.303 Y74.552 E0.01249
G1 X100.383 Y74.969 E0.01239
G1 X100.404 Y75.189 E0.00644
G1 X100.410 Y120.510 E1.32153
G1 X100.384 Y120.924 E0.01211
G1 X100.349 Y121.142 E0.00644
G1 X100.244 Y121.554 E0.01240
G1 X100.085 Y121.955 E0.01258
G1 X99.766 Y122.495 E0.01828
G1 X99.486 Y122.834 E0.01283
G1 X99.174 Y123.128 E0.01249
G1 X98.827 Y123.380 E0.01249
G1 X98.452 Y123.586 E0.01249
G1 X98.054 Y123.744 E0.01249
G1 X97.642 Y123.849 E0.01239
G1 X97.424 Y123.884 E0.00644
G1 X97.010 Y123.910 E0.01211
G1 X82.987 Y123.910 E0.40890
G1 X82.364 Y123.851 E0.01824
G1 X81.946 Y123.744 E0.01258
G1 X81.548 Y123.586 E0.01249
G1 X81.176 Y123.381 E0.01239
G1 X80.993 Y123.257 E0.00644
G1 X80.665 Y122.986 E0.01239
G1 X80.374 Y122.676 E0.01239
G1 X80.239 Y122.502 E0.00644
G1 X80.010 Y122.140 E0.01249
G1 X79.760 Y121.565 E0.01828
G1 X79.650 Y121.139 E0.01283
G1 X79.596 Y120.714 E0.01249
G1 X79.590 Y75.390 E1.32162
G1 X79.616 Y74.976 E0.01211
G1 X79.651 Y74.758 E0.00644
G1 X79.756 Y74.349 E0.01230
G1 X79.830 Y74.141 E0.00644
G1 X80.011 Y73.757 E0.01239
G1 X80.241 Y73.395 E0.01249
G1 X80.514 Y73.065 E0.01249
G1 X80.826 Y72.772 E0.01249
G1 X81.173 Y72.520 E0.01249
G1 X81.548 Y72.314 E0.01249
G1 X81.912 Y72.170 E0.01141
M204 S1250
G1 X82.115 Y71.776 F9000.000
G1 E-2.24000 F4200.00000
G1 F7200.000
G1 X83.557 Y72.168 E-0.91200
G1 E-0.04800 F4200.00000
G1 Z0.400 F9000.000
G1 X102.441 Y103.411
G1 Z0.200
G1 E3.20000 F2400.00000
M204 S800
G1 F1200.000
G1 X102.721 Y103.279 E0.00901
G1 X103.015 Y103.184 E0.00902
G1 X103.441 Y103.116 E0.01257
G1 X103.750 Y103.116 E0.00902
G1 X104.057 Y103.155 E0.00901
G1 X104.480 Y103.278 E0.01285
G1 X104.881 Y103.482 E0.01311
G1 X105.236 Y103.758 E0.01312
G1 X105.533 Y104.095 E0.01311
G1 X105.762 Y104.483 E0.01312
G1 X105.915 Y104.906 E0.01311
G1 X105.985 Y105.350 E0.01311
G1 X105.971 Y105.799 E0.01311
G1 X105.873 Y106.239 E0.01312
G1 X105.694 Y106.651 E0.01312
G1 X105.441 Y107.023 E0.01312
G1 X105.123 Y107.341 E0.01311
G1 X104.759 Y107.589 E0.01285
G1 X104.479 Y107.721 E0.00901
G1 X104.185 Y107.816 E0.00902
G1 X103.759 Y107.884 E0.01257
G1 X103.450 Y107.884 E0.00902
G1 X103.143 Y107.845 E0.00901
G1 X102.720 Y107.722 E0.01285
G1 X102.320 Y107.518 E0.01311
G1 X101.964 Y107.242 E0.01312
G1 X101.667 Y106.905 E0.01311
G1 X101.438 Y106.517 E0.01312
G1 X101.285 Y106.094 E0.01311
G1 X101.215 Y105.650 E0.01312
G1 X101.229 Y105.201 E0.01311
G1 X101.327 Y104.761 E0.01312
G1 X101.506 Y104.349 E0.01312
G1 X101.759 Y103.977 E0.01312
G1 X102.077 Y103.659 E0.01311
G1 X102.391 Y103.445 E0.01110
M204 S1250
G1 X102.318 Y103.950 F9000.000
M204 S800
G1 F1200.000
G1 X102.629 Y103.740 E0.01094
G1 X102.860 Y103.631 E0.00746
G1 X103.103 Y103.552 E0.00746
G1 X103.470 Y103.493 E0.01084
G1 X103.726 Y103.493 E0.00746
G1 X103.980 Y103.526 E0.00746
G1 X104.340 Y103.630 E0.01094
G1 X104.678 Y103.802 E0.01104
G1 X104.977 Y104.034 E0.01104
G1 X105.227 Y104.318 E0.01104
G1 X105.420 Y104.644 E0.01104
G1 X105.548 Y105.000 E0.01104
G1 X105.607 Y105.374 E0.01104
G1 X105.595 Y105.752 E0.01103
G1 X105.513 Y106.121 E0.01104
G1 X105.362 Y106.469 E0.01104
G1 X105.149 Y106.782 E0.01104
G1 X104.882 Y107.050 E0.01104
G1 X104.572 Y107.260 E0.01094
G1 X104.340 Y107.369 E0.00746
G1 X104.097 Y107.448 E0.00746
G1 X103.730 Y107.507 E0.01084
G1 X103.474 Y107.507 E0.00746
G1 X103.220 Y107.474 E0.00746
G1 X102.860 Y107.370 E0.01094
G1 X102.522 Y107.198 E0.01103
G1 X102.223 Y106.966 E0.01104
G1 X101.973 Y106.682 E0.01103
G1 X101.780 Y106.356 E0.01104
G1 X101.652 Y106.000 E0.01103
G1 X101.593 Y105.626 E0.01104
G1 X101.605 Y105.248 E0.01104
G1 X101.687 Y104.879 E0.01104
G1 X101.838 Y104.531 E0.01104
G1 X102.051 Y104.218 E0.01104
G1 X102.276 Y103.993 E0.00929
M204 S1250
G1 X102.256 Y103.580 F9000.000
G1 E-2.24000 F4200.00000
G1 F7200.000
G1 X102.629 Y103.740 E-0.24068
G1 X102.860 Y103.631 E-0.14173
G1 X103.103 Y103.552 E-0.14177
G1 X103.470 Y103.493 E-0.20605
G1 X103.726 Y103.493 E-0.14181
G1 X103.798 Y103.503 E-0.03997
G1 E-0.04800 F4200.00000
G1 Z0.400 F9000.000
G1 X78.785 Y105.350
G1 Z0.200
G1 E3.20000 F2400.00000
M204 S800
G1 F1200.000
G1 X78.771 Y105.799 E0.01311
G1 X78.673 Y106.239 E0.01312
G1 X78.494 Y106.651 E0.01312
G1 X78.241 Y107.023 E0.01312
G1 X77.923 Y107.341 E0.01311
G1 X77.559 Y107.589 E0.01285
G1 X77.279 Y107.721 E0.00901
G1 X76.985 Y107.816 E0.00902
G1 X76.559 Y107.884 E0.01257
G1 X76.250 Y107.884 E0.00902
G1 X75.943 Y107.845 E0.00901
G1 X75.520 Y107.722 E0.01285
G1 X75.120 Y107.518 E0.01311
G1 X74.764 Y107.242 E0.01312
G1 X74.467 Y106.905 E0.01311
G1 X74.238 Y106.517 E0.01312
G1 X74.085 Y106.094 E0.01311
G1 X74.015 Y105.650 E0.01312
G1 X74.029 Y105.201 E0.01311
G1 X74.127 Y104.761 E0.01312
G1 X74.306 Y104.349 E0.01312
G1 X74.559 Y103.977 E0.01312
G1 X74.877 Y103.659 E0.01311
G1 X75.241 Y103.411 E0.01285
G1 X75.521 Y103.279 E0.00901
G1 X75.815 Y103.184 E0.00902
G1 X76.241 Y103.116 E0.01257
G1 X76.550 Y103.116 E0.00902
G1 X76.857 Y103.155 E0.00901
G1 X77.280 Y103.278 E0.01285
G1 X77.681 Y103.482 E0.01311
G1 X78.036 Y103.758 E0.01312
G1 X78.333 Y104.095 E0.01311
G1 X78.562 Y104.483 E0.01312
G1 X78.715 Y104.906 E0.01311
G1 X78.776 Y105.291 E0.01137
M204 S1250
G1 X78.403 Y105.350 F9000.000
M204 S800
G1 F1200.000
G1 X78.395 Y105.752 E0.01173
G1 X78.313 Y106.121 E0.01104
G1 X78.162 Y106.469 E0.01104
G1 X77.949 Y106.782 E0.01104
G1 X77.682 Y107.050 E0.01104
G1 X77.372 Y107.260 E0.01094
G1 X77.140 Y107.369 E0.00746
G1 X76.897 Y107.448 E0.00746
G1 X76.530 Y107.507 E0.01084
G1 X76.274 Y107.507 E0.00746
G1 X76.020 Y107.474 E0.00746
G1 X75.660 Y107.370 E0.01094
G1 X75.322 Y107.198 E0.01103
G1 X75.023 Y106.966 E0.01104
G1 X74.773 Y106.682 E0.01103
G1 X74.580 Y106.356 E0.01104
G1 X74.452 Y106.000 E0.01103
G1 X74.393 Y105.626 E0.01104
G1 X74.405 Y105.248 E0.01104
G1 X74.487 Y104.879 E0.01104
G1 X74.638 Y104.531 E0.01104
G1 X74.851 Y104.218 E0.01104
G1 X75.118 Y103.950 E0.01104
G1 X75.429 Y103.740 E0.01094
G1 X75.660 Y103.631 E0.00746
G1 X75.903 Y103.552 E0.00746
G1 X76.270 Y103.493 E0.01084
G1 X76.526 Y103.493 E0.00746
G1 X76.780 Y103.526 E0.00746
G1 X77.140 Y103.630 E0.01094
G1 X77.478 Y103.802 E0.01104
G1 X77.777 Y104.034 E0.01104
G1 X78.027 Y104.318 E0.01104
G1 X78.220 Y104.644 E0.01104
G1 X78.348 Y105.000 E0.01104
G1 X78.394 Y105.290 E0.00858
M204 S1250
G1 X78.763 Y105.524 F9000.000
G1 E-2.24000 F4200.00000
G1 F7200.000
G1 X78.395 Y105.752 E-0.25574
G1 X78.313 Y106.121 E-0.20982
G1 X78.162 Y106.469 E-0.20976
G1 X77.949 Y106.782 E-0.20977
G1 X77.915 Y106.816 E-0.02691
G1 E-0.04800 F4200.00000
G1 Z0.400 F9000.000
G1 X80.978 Y123.703
G1 Z0.200
G1 E3.20000 F2400.00000
M204 S800
G1 F1200.000
G1 X81.120 Y123.781 E0.00473
G1 X80.362 Y123.504 E0.02355
G1 X79.503 Y123.150 E0.02710
G1 X78.666 Y122.764 E0.02686
G1 X77.854 Y122.347 E0.02664
G1 X77.066 Y121.898 E0.02643
G1 X76.305 Y121.419 E0.02623
G1 X75.570 Y120.910 E0.02606
G1 X74.864 Y120.372 E0.02590
G1 X74.187 Y119.804 E0.02576
G1 X73.540 Y119.209 E0.02564
G1 X72.925 Y118.585 E0.02555
G1 X72.341 Y117.934 E0.02549
G1 X71.790 Y117.257 E0.02546
G1 X71.273 Y116.553 E0.02546
G1 X70.790 Y115.824 E0.02550
G1 X70.342 Y115.070 E0.02558
G1 X69.929 Y114.292 E0.02570
G1 X69.552 Y113.489 E0.02585
G1 X69.211 Y112.664 E0.02604
G1 X68.906 Y111.816 E0.02628
G1 X68.638 Y110.946 E0.02655
G1 X68.407 Y110.054 E0.02685
G1 X68.213 Y109.142 E0.02719
G1 X68.056 Y108.210 E0.02756
G1 X67.935 Y107.259 E0.02795
G1 X67.850 Y106.290 E0.02837
G1 X67.802 Y105.304 E0.02880
G1 X67.789 Y104.301 E0.02925
G1 X67.811 Y103.282 E0.02970
G1 X67.867 Y102.250 E0.03016
G1 X67.957 Y101.204 E0.03062
G1 X68.080 Y100.145 E0.03107
G1 X68.234 Y99.076 E0.03151
G1 X68.420 Y97.996 E0.03194
G1 X68.635 Y96.907 E0.03236
G1 X68.879 Y95.811 E0.03275
G1 X69.149 Y94.711 E0.03304
G1 X69.771 Y92.484 E0.06742
G1 X70.116 Y91.373 E0.03392
G1 X70.876 Y89.132 E0.06901
G1 X71.284 Y88.018 E0.03460
G1 X72.159 Y85.783 E0.06997
G1 X72.618 Y84.676 E0.03494
G1 X73.583 Y82.469 E0.07025
G1 X74.082 Y81.380 E0.03492
G1 X75.114 Y79.222 E0.06976
G1 X76.176 Y77.107 E0.06900
G1 X77.261 Y75.045 E0.06794
G1 X78.911 Y72.063 E0.09939
G1 X80.010 Y70.164 E0.06396
G1 X81.099 Y68.344 E0.06186
G1 X82.170 Y66.611 E0.05941
G1 X84.218 Y63.431 E0.11030
G1 X85.641 Y61.321 E0.07421
G1 X86.932 Y59.469 E0.06583
G1 X88.405 Y57.427 E0.07340
G1 X89.995 Y55.309 E0.07723
G1 X90.461 Y55.906 E0.02207
G1 X91.934 Y57.890 E0.07207
G1 X93.068 Y59.468 E0.05666
G1 X94.359 Y61.321 E0.06585
G1 X95.782 Y63.431 E0.07421
G1 X97.830 Y66.611 E0.11030
G1 X98.901 Y68.344 E0.05941
G1 X99.990 Y70.164 E0.06186
G1 X101.089 Y72.063 E0.06396
G1 X102.739 Y75.045 E0.09939
G1 X103.824 Y77.107 E0.06794
G1 X104.886 Y79.222 E0.06900
G1 X105.918 Y81.380 E0.06976
G1 X106.417 Y82.469 E0.03492
G1 X107.382 Y84.676 E0.07025
G1 X107.841 Y85.783 E0.03494
G1 X108.716 Y88.018 E0.06997
G1 X109.124 Y89.132 E0.03460
G1 X109.884 Y91.373 E0.06901
G1 X110.229 Y92.484 E0.03392
G1 X110.851 Y94.711 E0.06742
G1 X111.121 Y95.811 E0.03304
G1 X111.365 Y96.907 E0.03275
G1 X111.580 Y97.996 E0.03236
G1 X111.766 Y99.076 E0.03194
G1 X111.920 Y100.145 E0.03151
G1 X112.043 Y101.204 E0.03107
G1 X112.133 Y102.250 E0.03062
G1 X112.189 Y103.282 E0.03016
G1 X112.211 Y104.301 E0.02970
G1 X112.198 Y105.304 E0.02925
G1 X112.150 Y106.290 E0.02880
G1 X112.065 Y107.259 E0.02837
G1 X111.944 Y108.210 E0.02795
G1 X111.787 Y109.142 E0.02756
G1 X111.593 Y110.054 E0.02719
G1 X111.362 Y110.946 E0.02685
G1 X111.094 Y111.816 E0.02655
G1 X110.789 Y112.664 E0.02628
G1 X110.448 Y113.489 E0.02604
G1 X110.071 Y114.292 E0.02585
G1 X109.658 Y115.070 E0.02570
G1 X109.210 Y115.824 E0.02558
G1 X108.727 Y116.553 E0.02550
G1 X108.210 Y117.257 E0.02546
G1 X107.659 Y117.934 E0.02546
G1 X107.075 Y118.585 E0.02549
G1 X106.460 Y119.209 E0.02555
G1 X105.813 Y119.804 E0.02564
G1 X105.136 Y120.372 E0.02576
G1 X104.430 Y120.910 E0.02590
G1 X103.695 Y121.419 E0.02606
G1 X102.934 Y121.898 E0.02623
G1 X102.146 Y122.347 E0.02643
G1 X101.334 Y122.764 E0.02664
G1 X100.497 Y123.150 E0.02686
G1 X99.638 Y123.504 E0.02710
G1 X98.880 Y123.781 E0.02355
G1 X99.030 Y123.699 E0.00500
G1 X99.415 Y123.419 E0.01388
G1 X99.762 Y123.093 E0.01389
G1 X100.076 Y122.712 E0.01439
G1 X100.424 Y122.121 E0.02000
G1 X100.603 Y121.671 E0.01413
G1 X100.719 Y121.219 E0.01361
G1 X100.759 Y120.966 E0.00747
G1 X100.787 Y120.522 E0.01297
G1 X100.781 Y75.171 E1.32239
G1 X100.757 Y74.916 E0.00747
G1 X100.669 Y74.458 E0.01360
G1 X100.522 Y74.005 E0.01387
G1 X100.320 Y73.575 E0.01387
G1 X100.070 Y73.181 E0.01360
G1 X99.913 Y72.978 E0.00748
G1 X99.600 Y72.645 E0.01333
G1 X99.219 Y72.330 E0.01440
G1 X98.833 Y72.085 E0.01333
G1 X98.605 Y71.969 E0.00747
G1 X98.104 Y71.771 E0.01569
G1 X81.896 Y71.771 E0.47264
G1 X81.387 Y71.972 E0.01595
G1 X80.970 Y72.201 E0.01387
G1 X80.585 Y72.481 E0.01387
G1 X80.238 Y72.807 E0.01387
G1 X79.935 Y73.173 E0.01387
G1 X79.680 Y73.575 E0.01387
G1 X79.482 Y73.997 E0.01360
G1 X79.395 Y74.238 E0.00748
G1 X79.281 Y74.681 E0.01334
G1 X79.241 Y74.934 E0.00747
G1 X79.213 Y75.378 E0.01297
G1 X79.219 Y120.738 E1.32266
G1 X79.279 Y121.210 E0.01388
G1 X79.403 Y121.688 E0.01440
G1 X79.675 Y122.317 E0.02000
G1 X79.930 Y122.719 E0.01387
G1 X80.087 Y122.922 E0.00748
G1 X80.407 Y123.262 E0.01360
G1 X80.766 Y123.559 E0.01360
G1 X80.929 Y123.669 E0.00573
M204 S1250
G1 E-2.24000 F4200.00000
G1 F7200.000
G1 X81.120 Y123.781 E-0.12301
G1 X80.362 Y123.504 E-0.44752
G1 X79.792 Y123.269 E-0.34148
G1 E-0.04800 F4200.00000
G1 Z0.400 F9000.000
G1 X82.659 Y124.258
G1 Z0.200
G1 E3.20000 F2400.00000
M204 S800
G1 F1200.000
G1 X82.969 Y124.287 E0.00909
G1 X97.022 Y124.287 E0.40977
G1 X97.298 Y124.270 E0.00808
G1 X95.994 Y124.593 E0.03917
G1 X95.036 Y124.782 E0.02847
G1 X94.061 Y124.937 E0.02880
G1 X93.069 Y125.057 E0.02914
G1 X92.060 Y125.144 E0.02953
G1 X91.035 Y125.195 E0.02993
G1 X90.000 Y125.211 E0.03018
G1 X88.965 Y125.195 E0.03018
G1 X87.940 Y125.144 E0.02993
G1 X86.931 Y125.057 E0.02953
G1 X85.939 Y124.937 E0.02914
G1 X84.964 Y124.782 E0.02880
G1 X84.006 Y124.593 E0.02847
G1 X82.717 Y124.274 E0.03872
M204 S1250
G1 E-2.24000 F4200.00000
G1 F7200.000
G1 X82.969 Y124.287 E-0.14014
G1 X84.362 Y124.287 E-0.77186
G1 E-0.04800 F4200.00000
