; generated by Slic3r 1.3.0 on 2020-07-29 at 17:51:58

; external perimeters extrusion width = 0.44mm (2.86mm^3/s)
; perimeters extrusion width = 0.56mm (4.14mm^3/s)
; infill extrusion width = 0.50mm (3.66mm^3/s)
; solid infill extrusion width = 0.56mm (3.10mm^3/s)
; top infill extrusion width = 0.56mm (3.10mm^3/s)

M107
;D3D:START:START
T0
M104 S215 T0

G21
G90
M107
T0
G28
G29
M109 T0 S215 T0
G0 F3000
M107
T0
G92 E0
G0 X0 Y149 Z0.1 F3600
G1 Y49 E6.5 F1200
G0 Z1
G92 E0
; Filament gcode

G21 ; set units to millimeters
G90 ; use absolute coordinates
M82 ; use absolute distances for extrusion
G92 E0
G1 Z0.300 F7800.000
G1 E-2.00000 F2400.00000
G92 E0
G1 X51.298 Y99.702 F7800.000
G1 E2.00000 F2400.00000
G1 F1800
G1 X51.613 Y99.589 E2.01108
G1 X52.028 Y99.535 E2.02493
G1 X52.380 Y99.565 E2.03666
G1 X52.700 Y99.658 E2.04770
G1 X52.996 Y99.809 E2.05870
G1 X53.259 Y100.013 E2.06971
G1 X53.477 Y100.260 E2.08064
G1 X53.597 Y100.450 E2.08807
G1 X53.692 Y100.652 E2.09550
G1 X53.785 Y100.969 E2.10643
G1 X53.816 Y101.300 E2.11744
G1 X53.784 Y101.631 E2.12845
G1 X53.692 Y101.950 E2.13946
G1 X53.541 Y102.246 E2.15047
G1 X53.337 Y102.509 E2.16148
G1 X53.090 Y102.727 E2.17240
G1 X52.900 Y102.847 E2.17983
G1 X52.698 Y102.942 E2.18726
G1 X52.381 Y103.035 E2.19819
G1 X52.050 Y103.066 E2.20920
G1 X51.719 Y103.035 E2.22021
G1 X51.400 Y102.942 E2.23122
G1 X51.103 Y102.791 E2.24225
G1 X50.825 Y102.571 E2.25398
G1 X50.560 Y102.248 E2.26783
G1 X50.408 Y101.950 E2.27891
G1 X50.315 Y101.631 E2.28992
G1 X50.284 Y101.300 E2.30093
G1 X50.315 Y100.969 E2.31194
G1 X50.408 Y100.650 E2.32296
G1 X50.559 Y100.354 E2.33396
G1 X50.763 Y100.091 E2.34498
G1 X51.012 Y99.872 E2.35598
G1 X51.247 Y99.733 E2.36501
G1 E0.36501 F2400.00000
G92 E0
G1 X52.050 Y50.466 F7800.000
G1 E2.00000 F2400.00000
G1 F1800
G1 X51.719 Y50.434 E2.01101
G1 X51.400 Y50.342 E2.02202
G1 X51.104 Y50.191 E2.03303
G1 X50.841 Y49.987 E2.04404
G1 X50.623 Y49.740 E2.05496
G1 X50.503 Y49.550 E2.06240
G1 X50.408 Y49.348 E2.06983
G1 X50.315 Y49.031 E2.08075
G1 X50.284 Y48.700 E2.09176
G1 X50.315 Y48.369 E2.10277
G1 X50.408 Y48.050 E2.11378
G1 X50.559 Y47.754 E2.12479
G1 X50.763 Y47.491 E2.13580
G1 X51.012 Y47.272 E2.14681
G1 X51.298 Y47.102 E2.15782
G1 X51.613 Y46.989 E2.16891
G1 X52.028 Y46.935 E2.18276
G1 X52.380 Y46.965 E2.19449
G1 X52.700 Y47.058 E2.20552
G1 X52.996 Y47.209 E2.21653
G1 X53.259 Y47.413 E2.22754
G1 X53.477 Y47.660 E2.23846
G1 X53.597 Y47.850 E2.24589
G1 X53.692 Y48.052 E2.25332
G1 X53.784 Y48.369 E2.26425
G1 X53.816 Y48.700 E2.27526
G1 X53.784 Y49.031 E2.28627
G1 X53.692 Y49.348 E2.29719
G1 X53.597 Y49.550 E2.30462
G1 X53.477 Y49.740 E2.31206
G1 X53.259 Y49.987 E2.32298
G1 X52.996 Y50.191 E2.33399
G1 X52.700 Y50.342 E2.34500
G1 X52.381 Y50.434 E2.35601
G1 X52.110 Y50.460 E2.36503
G1 E0.36503 F2400.00000
G92 E0
G1 X123.585 Y0.165 F7800.000
G1 E2.00000 F2400.00000
G1 F1800
G1 X123.585 Y149.835 E6.95850
G1 X63.753 Y149.835 E8.94071
G1 X61.406 Y149.761 E9.01850
G1 X59.071 Y149.541 E9.09621
G1 X56.754 Y149.174 E9.17391
G1 X54.465 Y148.662 E9.25161
G1 X52.213 Y148.008 E9.32932
G1 X50.006 Y147.213 E9.40702
G1 X47.854 Y146.282 E9.48472
G1 X45.764 Y145.217 E9.56243
G1 X43.745 Y144.023 E9.64013
G1 X41.805 Y142.705 E9.71783
G1 X39.952 Y141.267 E9.79554
G1 X38.193 Y139.716 E9.87324
G1 X36.534 Y138.057 E9.95094
G1 X34.983 Y136.298 E10.02864
G1 X33.545 Y134.445 E10.10635
G1 X32.227 Y132.505 E10.18405
G1 X31.033 Y130.486 E10.26175
G1 X29.968 Y128.396 E10.33946
G1 X29.037 Y126.244 E10.41716
G1 X28.242 Y124.037 E10.49486
G1 X27.588 Y121.785 E10.57257
G1 X27.076 Y119.496 E10.65027
G1 X26.709 Y117.179 E10.72797
G1 X26.489 Y114.844 E10.80568
G1 X26.415 Y112.497 E10.88347
G1 X26.415 Y37.503 E13.36801
G1 X26.489 Y35.156 E13.44580
G1 X26.709 Y32.821 E13.52350
G1 X27.076 Y30.504 E13.60120
G1 X27.588 Y28.215 E13.67891
G1 X28.242 Y25.963 E13.75661
G1 X29.037 Y23.756 E13.83431
G1 X29.968 Y21.604 E13.91202
G1 X31.033 Y19.514 E13.98972
G1 X32.227 Y17.495 E14.06742
G1 X33.545 Y15.555 E14.14513
G1 X34.983 Y13.702 E14.22283
G1 X36.534 Y11.943 E14.30053
G1 X38.193 Y10.284 E14.37824
G1 X39.952 Y8.733 E14.45594
G1 X41.805 Y7.295 E14.53364
G1 X43.745 Y5.977 E14.61135
G1 X45.764 Y4.783 E14.68905
G1 X47.854 Y3.718 E14.76675
G1 X50.006 Y2.787 E14.84445
G1 X52.213 Y1.992 E14.92216
G1 X54.465 Y1.338 E14.99986
G1 X56.754 Y0.826 E15.07756
G1 X59.071 Y0.459 E15.15527
G1 X61.406 Y0.239 E15.23297
G1 X63.753 Y0.165 E15.31076
G1 X123.525 Y0.165 E17.29099
G1 E15.29099 F2400.00000
G92 E0
G1 X38.482 Y10.371 F7800.000
G1 E2.00000 F2400.00000
G1 F1800
G1 X36.621 Y12.232 E2.08726
G1 X35.084 Y13.975 E2.16428
G1 X34.498 Y14.730 E2.19599
G1 X40.980 Y8.248 E2.49992
G1 X42.065 Y7.407 E2.54540
G1 X42.479 Y7.126 E2.56200
G1 X33.376 Y16.229 E2.98880
G1 X32.578 Y17.402 E3.03583
G1 X43.652 Y6.328 E3.55503
G1 X43.991 Y6.098 E3.56859
G1 X44.645 Y5.711 E3.59381
G1 X31.961 Y18.395 E4.18850
G1 X31.417 Y19.315 E4.22393
G1 X45.565 Y5.167 E4.88726
G1 X45.995 Y4.913 E4.90382
G1 X46.403 Y4.705 E4.91901
G1 X30.955 Y20.153 E5.64331
G1 X30.564 Y20.920 E5.67182
G1 X47.170 Y4.314 E6.45036
G1 X47.936 Y3.924 E6.47888
G1 X30.174 Y21.686 E7.31165
G1 X29.869 Y22.367 E7.33638
G1 X48.617 Y3.619 E8.21537
G1 X49.280 Y3.332 E8.23930
G1 X29.582 Y23.030 E9.16280
G1 X29.295 Y23.692 E9.18674
G1 X49.942 Y3.045 E10.15476
G1 X50.560 Y2.804 E10.17674
G1 X29.054 Y24.310 E11.18503
G1 X28.842 Y24.897 E11.20572
G1 X51.147 Y2.592 E12.25146
G1 X51.734 Y2.381 E12.27216
G1 X28.631 Y25.484 E13.35535
G1 X28.419 Y26.072 E13.37605
G1 X52.322 Y2.169 E14.49669
G1 X52.859 Y2.008 E14.51529
G1 X28.258 Y26.609 E15.66870
G1 X28.104 Y27.139 E15.68699
G1 X53.389 Y1.854 E16.87245
G1 X53.919 Y1.700 E16.89075
G1 X27.950 Y27.669 E18.10827
G1 X27.796 Y28.199 E18.12656
G1 X54.449 Y1.546 E19.37615
G1 X54.949 Y1.422 E19.39323
G1 X27.672 Y28.699 E20.67209
G1 X27.564 Y29.183 E20.68854
G1 X55.433 Y1.314 E21.99517
G1 X55.917 Y1.205 E22.01162
G1 X27.455 Y29.667 E23.34602
G1 X27.347 Y30.151 E23.36246
G1 X56.401 Y1.097 E24.72463
G1 X56.885 Y0.989 E24.74108
G1 X27.239 Y30.635 E26.13102
G1 X27.167 Y31.084 E26.14608
G1 X57.334 Y0.917 E27.56044
G1 X57.780 Y0.846 E27.57543
G1 X27.096 Y31.530 E29.01404
G1 X27.025 Y31.977 E29.02903
G1 X58.227 Y0.775 E30.49190
G1 X58.673 Y0.704 E30.50689
G1 X26.954 Y32.423 E31.99402
G1 X26.884 Y32.870 E32.00901
G1 X59.120 Y0.634 E33.52040
G1 X59.541 Y0.588 E33.53444
G1 X26.838 Y33.291 E35.06771
G1 X26.799 Y33.707 E35.08153
G1 X59.957 Y0.549 E36.63610
G1 X60.372 Y0.510 E36.64992
G1 X26.760 Y34.122 E38.22579
G1 X26.721 Y34.537 E38.23962
G1 X60.787 Y0.471 E39.83679
G1 X61.202 Y0.431 E39.85061
G1 X26.681 Y34.952 E41.46909
G1 X26.648 Y35.361 E41.48270
G1 X61.611 Y0.398 E43.12192
G1 X61.999 Y0.386 E43.13480
G1 X26.636 Y35.749 E44.79279
G1 X26.624 Y36.137 E44.80566
G1 X62.387 Y0.374 E46.48241
G1 X62.775 Y0.361 E46.49529
G1 X26.611 Y36.525 E48.19081
G1 X26.599 Y36.914 E48.20368
G1 X63.164 Y0.349 E49.91798
G1 X63.552 Y0.337 E49.93085
G1 X26.587 Y37.302 E51.66391
G1 X26.577 Y37.687 E51.67669
G1 X63.937 Y0.327 E53.42829
G1 X64.313 Y0.327 E53.44075
G1 X26.577 Y38.063 E55.20996
G1 X26.577 Y38.439 E55.22243
G1 X64.689 Y0.327 E57.00927
G1 X65.065 Y0.327 E57.02173
G1 X26.577 Y38.815 E58.82619
G1 X26.577 Y39.191 E58.83865
G1 X65.441 Y0.327 E60.66074
G1 X65.817 Y0.327 E60.67320
G1 X26.577 Y39.567 E62.51291
G1 X26.577 Y39.943 E62.52537
G1 X66.193 Y0.327 E64.38271
G1 X66.569 Y0.327 E64.39517
G1 X26.577 Y40.319 E66.27013
G1 X26.577 Y40.694 E66.28259
G1 X66.944 Y0.327 E68.17517
G1 X67.320 Y0.327 E68.18763
G1 X26.577 Y41.070 E70.09784
G1 X26.577 Y41.446 E70.11030
G1 X67.696 Y0.327 E72.03813
G1 X68.072 Y0.327 E72.05059
G1 X26.577 Y41.822 E73.99605
G1 X26.577 Y42.198 E74.00851
G1 X68.448 Y0.327 E75.97158
G1 X68.824 Y0.327 E75.98405
G1 X26.577 Y42.574 E77.96475
G1 X26.577 Y42.950 E77.97721
G1 X69.200 Y0.327 E79.97553
G1 X69.576 Y0.327 E79.98800
G1 X26.577 Y43.326 E82.00394
G1 X26.577 Y43.702 E82.01641
G1 X69.952 Y0.327 E84.04998
G1 X70.328 Y0.327 E84.06244
G1 X26.577 Y44.078 E86.11364
G1 X26.577 Y44.453 E86.12610
G1 X70.703 Y0.327 E88.19492
G1 X71.079 Y0.327 E88.20738
G1 X26.577 Y44.829 E90.29382
G1 X26.577 Y45.205 E90.30628
G1 X71.455 Y0.327 E92.41035
G1 X71.831 Y0.327 E92.42281
G1 X26.577 Y45.581 E94.54450
G1 X26.577 Y45.957 E94.55697
G1 X72.207 Y0.327 E96.69628
G1 X72.583 Y0.327 E96.70874
G1 X26.577 Y46.333 E98.86568
G1 X26.577 Y46.709 E98.87814
G1 X72.959 Y0.327 E101.05270
G1 X73.335 Y0.327 E101.06517
G1 X26.577 Y47.085 E103.25735
G1 X26.577 Y47.461 E103.26981
G1 X73.711 Y0.327 E105.47962
G1 X74.087 Y0.327 E105.49209
G1 X26.577 Y47.836 E107.71952
G1 X26.577 Y48.212 E107.73198
G1 X74.462 Y0.327 E109.97704
G1 X74.838 Y0.327 E109.98950
G1 X26.577 Y48.588 E112.25218
G1 X26.577 Y48.964 E112.26464
G1 X75.214 Y0.327 E114.54495
G1 X75.590 Y0.327 E114.55741
G1 X26.577 Y49.340 E116.85534
G1 X26.577 Y49.716 E116.86780
G1 X75.966 Y0.327 E119.18335
G1 X76.342 Y0.327 E119.19581
G1 X26.577 Y50.092 E121.52899
G1 X26.577 Y50.468 E121.54145
G1 X76.718 Y0.327 E123.89225
G1 X77.094 Y0.327 E123.90471
G1 X26.577 Y50.844 E126.27314
G1 X26.577 Y51.220 E126.28560
G1 X77.470 Y0.327 E128.67165
G1 X77.846 Y0.327 E128.68411
G1 X26.577 Y51.595 E131.08778
G1 X26.577 Y51.971 E131.10024
G1 X78.221 Y0.327 E133.52154
G1 X78.597 Y0.327 E133.53400
G1 X26.577 Y52.347 E135.97292
G1 X26.577 Y52.723 E135.98538
G1 X78.973 Y0.327 E138.44192
G1 X79.349 Y0.327 E138.45438
G1 X26.577 Y53.099 E140.92855
G1 X26.577 Y53.475 E140.94101
G1 X79.725 Y0.327 E143.43280
G1 X80.101 Y0.327 E143.44526
G1 X26.577 Y53.851 E145.95468
G1 X26.577 Y54.227 E145.96714
G1 X80.477 Y0.327 E148.49417
G1 X80.853 Y0.327 E148.50664
G1 X26.577 Y54.603 E151.05130
G1 X26.577 Y54.979 E151.06376
G1 X81.229 Y0.327 E153.62604
G1 X81.605 Y0.327 E153.63851
G1 X26.577 Y55.354 E156.21842
G1 X26.577 Y55.730 E156.23088
G1 X81.980 Y0.327 E158.82841
G1 X82.356 Y0.327 E158.84087
G1 X26.577 Y56.106 E161.45603
G1 X26.577 Y56.482 E161.46849
G1 X82.732 Y0.327 E164.10127
G1 X83.108 Y0.327 E164.11373
G1 X26.577 Y56.858 E166.76413
G1 X26.577 Y57.234 E166.77660
G1 X83.484 Y0.327 E169.44462
G1 X83.860 Y0.327 E169.45709
G1 X26.577 Y57.610 E172.14274
G1 X26.577 Y57.986 E172.15520
G1 X84.236 Y0.327 E174.85847
G1 X84.612 Y0.327 E174.87094
G1 X26.577 Y58.362 E177.59183
G1 X26.577 Y58.738 E177.60430
G1 X84.988 Y0.327 E180.34282
G1 X85.363 Y0.327 E180.35528
G1 X26.577 Y59.113 E183.11143
G1 X26.577 Y59.489 E183.12389
G1 X85.739 Y0.327 E185.89766
G1 X86.115 Y0.327 E185.91012
G1 X26.577 Y59.865 E188.70151
G1 X26.577 Y60.241 E188.71398
G1 X86.491 Y0.327 E191.52299
G1 X86.867 Y0.327 E191.53546
G1 X26.577 Y60.617 E194.36210
G1 X26.577 Y60.993 E194.37456
G1 X87.243 Y0.327 E197.21882
G1 X87.619 Y0.327 E197.23129
G1 X26.577 Y61.369 E200.09318
G1 X26.577 Y61.745 E200.10564
G1 X87.995 Y0.327 E202.98515
G1 X88.371 Y0.327 E202.99761
G1 X26.577 Y62.121 E205.89475
G1 X26.577 Y62.497 E205.90721
G1 X88.747 Y0.327 E208.82197
G1 X89.122 Y0.327 E208.83443
G1 X26.577 Y62.872 E211.76682
G1 X26.577 Y63.248 E211.77928
G1 X89.498 Y0.327 E214.72929
G1 X89.874 Y0.327 E214.74175
G1 X26.577 Y63.624 E217.70938
G1 X26.577 Y64.000 E217.72184
G1 X90.250 Y0.327 E220.70710
G1 X90.626 Y0.327 E220.71956
G1 X26.577 Y64.376 E223.72244
G1 X26.577 Y64.752 E223.73490
G1 X91.002 Y0.327 E226.75540
G1 X91.378 Y0.327 E226.76786
G1 X26.577 Y65.128 E229.80599
G1 X26.577 Y65.504 E229.81845
G1 X91.754 Y0.327 E232.87420
G1 X92.130 Y0.327 E232.88666
G1 X26.577 Y65.880 E235.96004
G1 X26.577 Y66.256 E235.97250
G1 X92.506 Y0.327 E239.06350
G1 X92.881 Y0.327 E239.07596
G1 X26.577 Y66.631 E242.18458
G1 X26.577 Y67.007 E242.19704
G1 X93.257 Y0.327 E245.32329
G1 X93.633 Y0.327 E245.33575
G1 X26.577 Y67.383 E248.47962
G1 X26.577 Y67.759 E248.49208
G1 X94.009 Y0.327 E251.65357
G1 X94.385 Y0.327 E251.66603
G1 X26.577 Y68.135 E254.84515
G1 X26.577 Y68.511 E254.85761
G1 X94.761 Y0.327 E258.05435
G1 X95.137 Y0.327 E258.06681
G1 X26.577 Y68.887 E261.28118
G1 X26.577 Y69.263 E261.29364
G1 X95.513 Y0.327 E264.52563
G1 X95.889 Y0.327 E264.53809
G1 X26.577 Y69.639 E267.78770
G1 X26.577 Y70.015 E267.80016
G1 X96.265 Y0.327 E271.06740
G1 X96.640 Y0.327 E271.07986
G1 X26.577 Y70.390 E274.36472
G1 X26.577 Y70.766 E274.37718
G1 X97.016 Y0.327 E277.67966
G1 X97.392 Y0.327 E277.69213
G1 X26.577 Y71.142 E281.01223
G1 X26.577 Y71.518 E281.02469
G1 X50.074 Y48.021 E282.12633
G1 X50.231 Y47.714 E282.13775
G1 X50.465 Y47.412 E282.15044
G1 X50.752 Y47.159 E282.16312
G1 X51.081 Y46.964 E282.17580
G1 X51.159 Y46.936 E282.17855
G1 X97.768 Y0.327 E284.36377
G1 X98.144 Y0.327 E284.37623
G1 X51.668 Y46.804 E286.55524
G1 X51.918 Y46.771 E286.56363
G1 X52.064 Y46.783 E286.56847
G1 X98.520 Y0.327 E288.74653
G1 X98.896 Y0.327 E288.75899
G1 X52.396 Y46.827 E290.93909
G1 X52.688 Y46.911 E290.94914
G1 X99.272 Y0.327 E293.13320
G1 X99.648 Y0.327 E293.14566
G1 X52.938 Y47.037 E295.33563
G1 X53.164 Y47.187 E295.34462
G1 X100.024 Y0.327 E297.54159
G1 X100.399 Y0.327 E297.55405
G1 X53.369 Y47.357 E299.75902
G1 X53.546 Y47.557 E299.76785
G1 X100.775 Y0.327 E301.98218
G1 X101.151 Y0.327 E301.99464
G1 X53.699 Y47.780 E304.21943
G1 X53.824 Y48.031 E304.22872
G1 X101.527 Y0.327 E306.46525
G1 X101.903 Y0.327 E306.47772
G1 X53.913 Y48.318 E308.72771
G1 X53.943 Y48.422 E308.73133
G1 X53.964 Y48.642 E308.73865
G1 X102.279 Y0.327 E311.00386
G1 X102.655 Y0.327 E311.01632
G1 X53.958 Y49.024 E313.29941
G1 X53.943 Y49.184 E313.30476
G1 X53.849 Y49.509 E313.31598
G1 X103.031 Y0.327 E315.62185
G1 X103.407 Y0.327 E315.63431
G1 X26.577 Y77.157 E319.23640
G1 X26.577 Y77.533 E319.24886
G1 X103.783 Y0.327 E322.86857
G1 X104.158 Y0.327 E322.88103
G1 X26.577 Y77.908 E326.51837
G1 X26.577 Y78.284 E326.53083
G1 X104.534 Y0.327 E330.18578
G1 X104.910 Y0.327 E330.19825
G1 X26.577 Y78.660 E333.87083
G1 X26.577 Y79.036 E333.88329
G1 X105.286 Y0.327 E337.57350
G1 X105.662 Y0.327 E337.58596
G1 X26.577 Y79.412 E341.29379
G1 X26.577 Y79.788 E341.30625
G1 X106.038 Y0.327 E345.03170
G1 X106.414 Y0.327 E345.04416
G1 X26.577 Y80.164 E348.78724
G1 X26.577 Y80.540 E348.79970
G1 X106.790 Y0.327 E352.56040
G1 X107.166 Y0.327 E352.57287
G1 X26.577 Y80.916 E356.35119
G1 X26.577 Y81.292 E356.36365
G1 X107.542 Y0.327 E360.15960
G1 X107.917 Y0.327 E360.17206
G1 X26.577 Y81.667 E363.98563
G1 X26.577 Y82.043 E363.99809
G1 X108.293 Y0.327 E367.82929
G1 X108.669 Y0.327 E367.84175
G1 X26.577 Y82.419 E371.69057
G1 X26.577 Y82.795 E371.70303
G1 X109.045 Y0.327 E375.56948
G1 X109.421 Y0.327 E375.58194
G1 X26.577 Y83.171 E379.46601
G1 X26.577 Y83.547 E379.47847
G1 X109.797 Y0.327 E383.38016
G1 X110.173 Y0.327 E383.39262
G1 X26.577 Y83.923 E387.31193
G1 X26.577 Y84.299 E387.32440
G1 X110.549 Y0.327 E391.26133
G1 X110.925 Y0.327 E391.27380
G1 X26.577 Y84.675 E395.22836
G1 X26.577 Y85.051 E395.24082
G1 X111.301 Y0.327 E399.21301
G1 X111.676 Y0.327 E399.22547
G1 X26.577 Y85.426 E403.21528
G1 X26.577 Y85.802 E403.22774
G1 X112.052 Y0.327 E407.23517
G1 X112.428 Y0.327 E407.24763
G1 X26.577 Y86.178 E411.27269
G1 X26.577 Y86.554 E411.28515
G1 X112.804 Y0.327 E415.32783
G1 X113.180 Y0.327 E415.34029
G1 X26.577 Y86.930 E419.40060
G1 X26.577 Y87.306 E419.41306
G1 X113.556 Y0.327 E423.49099
G1 X113.932 Y0.327 E423.50345
G1 X26.577 Y87.682 E427.59900
G1 X26.577 Y88.058 E427.61147
G1 X114.308 Y0.327 E431.72464
G1 X114.684 Y0.327 E431.73710
G1 X26.577 Y88.434 E435.86790
G1 X26.577 Y88.810 E435.88036
G1 X115.060 Y0.327 E440.02879
G1 X115.435 Y0.327 E440.04125
G1 X26.577 Y89.185 E444.20730
G1 X26.577 Y89.561 E444.21976
G1 X115.811 Y0.327 E448.40343
G1 X116.187 Y0.327 E448.41589
G1 X26.577 Y89.937 E452.61719
G1 X26.577 Y90.313 E452.62965
G1 X116.563 Y0.327 E456.84857
G1 X116.939 Y0.327 E456.86103
G1 X26.577 Y90.689 E461.09757
G1 X26.577 Y91.065 E461.11003
G1 X117.315 Y0.327 E465.36420
G1 X117.691 Y0.327 E465.37666
G1 X26.577 Y91.441 E469.64845
G1 X26.577 Y91.817 E469.66091
G1 X118.067 Y0.327 E473.95032
G1 X118.443 Y0.327 E473.96279
G1 X26.577 Y92.193 E478.26982
G1 X26.577 Y92.569 E478.28228
G1 X118.819 Y0.327 E482.60695
G1 X119.194 Y0.327 E482.61941
G1 X26.577 Y92.944 E486.96169
G1 X26.577 Y93.320 E486.97415
G1 X119.570 Y0.327 E491.33406
