; generated by Slic3r 1.3.1-dev (Build 2d100c4) on 2020-05-22 at 09:29:02

; external perimeters extrusion width = 0.45mm (2.44mm^3/s)
; perimeters extrusion width = 0.45mm (3.26mm^3/s)
; infill extrusion width = 0.45mm (6.51mm^3/s)
; solid infill extrusion width = 0.45mm (6.51mm^3/s)
; top infill extrusion width = 0.40mm (2.86mm^3/s)

M107
G92 E0
M190 S60 ; set bed temperature and wait for it to be reached
;D3D:START:START
T0
M104 S215 T0

G21
G90
M107
T0
G28
G29
M109 T0 S215 T0
G0 F3000
M107
T0
G92 E0
G0 X0 Y149 Z0.1 F3600
G1 Y49 E6.5 F1200
G0 Z1
G92 E0
; Filament gcode

G21 ; set units to millimeters
G90 ; use absolute coordinates
M82 ; use absolute distances for extrusion
G92 E0
G1 Z0.300 F9000.000
G1 E-3.20000 F4200.00000
G92 E0
G1 Z0.500 F9000.000
G1 X73.338 Y73.166 F9000.000
G1 Z0.300 F9000.000
G1 E3.20000 F4200.00000
M201 X800 Y800
M204 P800 T800
G1 F1200.000
G1 X74.588 Y72.064 E3.25521
G1 X75.680 Y71.217 E3.30100
G1 X76.938 Y70.356 E3.35150
G1 X78.373 Y69.508 E3.40671
G1 X79.604 Y68.880 E3.45250
G1 X81.001 Y68.271 E3.50300
G1 X82.570 Y67.706 E3.55821
G1 X84.035 Y67.285 E3.60872
G1 X85.383 Y66.984 E3.65450
G1 X86.888 Y66.741 E3.70500
G1 X88.405 Y66.593 E3.75550
G1 X90.071 Y66.541 E3.81072
G1 X91.453 Y66.584 E3.85650
G1 X92.971 Y66.723 E3.90701
G1 X94.617 Y66.984 E3.96222
G1 X95.965 Y67.285 E4.00801
G1 X97.430 Y67.706 E4.05851
G1 X98.999 Y68.271 E4.11372
G1 X100.267 Y68.820 E4.15951
G1 X101.627 Y69.508 E4.21001
G1 X102.941 Y70.280 E4.26051
G1 X104.205 Y71.133 E4.31101
G1 X105.522 Y72.154 E4.36622
G1 X106.558 Y73.068 E4.41201
G1 X107.639 Y74.143 E4.46251
G1 X108.741 Y75.393 E4.51772
G1 X109.589 Y76.485 E4.56351
G1 X110.449 Y77.744 E4.61401
G1 X111.297 Y79.178 E4.66922
G1 X111.925 Y80.409 E4.71501
G1 X112.534 Y81.807 E4.76551
G1 X113.099 Y83.375 E4.82073
G1 X113.520 Y84.840 E4.87123
G1 X113.821 Y86.189 E4.91702
G1 X114.064 Y87.693 E4.96752
G1 X114.212 Y89.211 E5.01802
G1 X114.265 Y90.876 E5.07323
G1 X114.221 Y92.258 E5.11902
G1 X114.082 Y93.776 E5.16952
G1 X113.821 Y95.422 E5.22473
G1 X113.520 Y96.771 E5.27052
G1 X113.099 Y98.236 E5.32102
G1 X112.534 Y99.804 E5.37623
G1 X111.985 Y101.072 E5.42202
G1 X111.297 Y102.432 E5.47252
G1 X110.525 Y103.747 E5.52302
G1 X109.672 Y105.010 E5.57352
G1 X108.651 Y106.327 E5.62874
G1 X107.639 Y107.467 E5.67924
G1 X106.662 Y108.445 E5.72502
G1 X105.522 Y109.456 E5.77552
G1 X104.320 Y110.394 E5.82602
G1 X102.941 Y111.331 E5.88124
G1 X101.627 Y112.103 E5.93174
G1 X100.267 Y112.791 E5.98224
G1 X99.150 Y113.274 E6.02257
G1 X98.250 Y113.460 E6.05301
G1 X81.750 Y113.460 E6.59965
G1 X80.850 Y113.274 E6.63009
G1 X79.733 Y112.791 E6.67041
G1 X78.373 Y112.103 E6.72092
G1 X76.938 Y111.254 E6.77613
G1 X75.795 Y110.477 E6.82191
G1 X74.588 Y109.547 E6.87242
G1 X73.442 Y108.542 E6.92292
G1 X72.361 Y107.467 E6.97342
G1 X71.259 Y106.217 E7.02863
G1 X70.328 Y105.010 E7.07913
G1 X69.551 Y103.867 E7.12492
G1 X68.703 Y102.432 E7.18013
G1 X68.075 Y101.201 E7.22592
G1 X67.466 Y99.804 E7.27642
G1 X66.901 Y98.236 E7.33163
G1 X66.516 Y96.908 E7.37742
G1 X66.179 Y95.422 E7.42792
G1 X65.936 Y93.917 E7.47842
G1 X65.788 Y92.400 E7.52892
G1 X65.735 Y90.734 E7.58414
G1 X65.779 Y89.353 E7.62992
G1 X65.918 Y87.835 E7.68043
G1 X66.179 Y86.189 E7.73564
G1 X66.480 Y84.840 E7.78143
G1 X66.901 Y83.375 E7.83193
G1 X67.466 Y81.807 E7.88714
G1 X68.075 Y80.409 E7.93764
G1 X68.703 Y79.178 E7.98343
G1 X69.551 Y77.744 E8.03864
G1 X70.328 Y76.600 E8.08443
G1 X71.259 Y75.393 E8.13493
G1 X72.263 Y74.247 E8.18543
G1 X73.296 Y73.208 E8.23394
M201 X1250 Y1250
M204 P1250 T1250
G1 F7200.000
G1 X73.442 Y73.068 E8.12185
G1 F7200.000
G1 X74.478 Y72.154 E7.35595
G1 F7200.000
G1 X74.588 Y72.064 E7.27710
G1 F7200.000
G1 X75.680 Y71.217 E6.51121
G1 F7200.000
G1 X75.795 Y71.133 E6.43226
G1 F7200.000
G1 X76.938 Y70.356 E5.66637
G1 F7200.000
G1 X77.059 Y70.280 E5.58751
G1 F7200.000
G1 X77.670 Y69.918 E5.19394
G1 E5.03394 F4200.00000
G92 E0
G1 Z0.500 F9000.000
G1 X98.946 Y80.609 F9000.000
G1 Z0.300 F9000.000
G1 E3.20000 F4200.00000
M201 X800 Y800
M204 P800 T800
G1 F1200.000
G1 X81.054 Y80.609 E3.79277
G1 X81.054 Y110.135 E4.77095
G1 X79.737 Y109.473 E4.81977
G1 X78.585 Y108.792 E4.86411
G1 X77.478 Y108.040 E4.90844
G1 X76.421 Y107.220 E4.95278
G1 X75.417 Y106.335 E4.99712
G1 X74.470 Y105.388 E5.04146
G1 X73.585 Y104.384 E5.08579
G1 X72.765 Y103.327 E5.13013
G1 X72.013 Y102.220 E5.17447
G1 X71.332 Y101.068 E5.21880
G1 X70.724 Y99.876 E5.26314
G1 X70.193 Y98.648 E5.30748
G1 X69.739 Y97.388 E5.35182
G1 X69.366 Y96.103 E5.39616
G1 X69.074 Y94.797 E5.44049
G1 X68.865 Y93.475 E5.48483
G1 X68.739 Y92.143 E5.52917
G1 X68.697 Y90.805 E5.57351
G1 X68.739 Y89.468 E5.61784
G1 X68.865 Y88.135 E5.66218
G1 X69.074 Y86.813 E5.70652
G1 X69.366 Y85.507 E5.75086
G1 X69.739 Y84.222 E5.79520
G1 X70.193 Y82.963 E5.83953
G1 X70.724 Y81.735 E5.88387
G1 X71.332 Y80.542 E5.92821
G1 X72.013 Y79.390 E5.97255
G1 X72.765 Y78.283 E6.01688
G1 X73.585 Y77.226 E6.06122
G1 X74.470 Y76.222 E6.10556
G1 X75.417 Y75.276 E6.14990
G1 X76.421 Y74.391 E6.19424
G1 X77.478 Y73.570 E6.23857
G1 X78.585 Y72.818 E6.28291
G1 X79.737 Y72.137 E6.32725
G1 X80.929 Y71.529 E6.37159
G1 X82.158 Y70.998 E6.41592
G1 X83.417 Y70.544 E6.46026
G1 X84.702 Y70.171 E6.50460
G1 X86.008 Y69.879 E6.54894
G1 X87.330 Y69.670 E6.59327
G1 X88.662 Y69.544 E6.63761
G1 X90.000 Y69.502 E6.68195
G1 X91.338 Y69.544 E6.72629
G1 X92.670 Y69.670 E6.77062
G1 X93.992 Y69.879 E6.81496
G1 X95.298 Y70.171 E6.85930
G1 X96.583 Y70.544 E6.90364
G1 X97.842 Y70.998 E6.94797
G1 X99.071 Y71.529 E6.99231
G1 X100.263 Y72.137 E7.03665
G1 X101.415 Y72.818 E7.08099
G1 X102.522 Y73.570 E7.12533
G1 X103.579 Y74.391 E7.16966
G1 X104.583 Y75.276 E7.21400
G1 X105.530 Y76.222 E7.25834
G1 X106.415 Y77.226 E7.30268
G1 X107.235 Y78.283 E7.34701
G1 X107.987 Y79.390 E7.39135
G1 X108.668 Y80.542 E7.43569
G1 X109.276 Y81.735 E7.48003
G1 X109.807 Y82.963 E7.52436
G1 X110.261 Y84.222 E7.56870
G1 X110.634 Y85.507 E7.61304
G1 X110.926 Y86.813 E7.65738
G1 X111.135 Y88.135 E7.70171
G1 X111.261 Y89.468 E7.74605
G1 X111.303 Y90.805 E7.79039
G1 X111.261 Y92.143 E7.83473
G1 X111.135 Y93.475 E7.87906
G1 X110.926 Y94.797 E7.92340
G1 X110.634 Y96.103 E7.96774
G1 X110.261 Y97.388 E8.01208
G1 X109.807 Y98.648 E8.05642
G1 X109.276 Y99.876 E8.10075
G1 X108.668 Y101.068 E8.14509
G1 X107.987 Y102.220 E8.18943
G1 X107.235 Y103.327 E8.23377
G1 X106.415 Y104.384 E8.27810
G1 X105.530 Y105.388 E8.32244
G1 X104.583 Y106.335 E8.36678
G1 X103.579 Y107.220 E8.41112
G1 X102.522 Y108.040 E8.45545
G1 X101.415 Y108.792 E8.49979
G1 X100.263 Y109.473 E8.54413
G1 X98.946 Y110.135 E8.59295
G1 X98.946 Y80.669 E9.56914
M201 X1250 Y1250
M204 P1250 T1250
G1 X98.681 Y80.875 F9000.000
M201 X800 Y800
M204 P800 T800
G1 F1200.000
G1 X81.319 Y80.875 E10.14431
G1 X81.319 Y110.539 E11.12709
G1 X80.816 Y110.322 E11.14525
G1 X79.609 Y109.706 E11.19014
G1 X78.443 Y109.017 E11.23503
G1 X77.322 Y108.255 E11.27992
G1 X76.251 Y107.425 E11.32481
G1 X75.235 Y106.528 E11.36970
G1 X74.277 Y105.570 E11.41459
G1 X73.381 Y104.554 E11.45948
G1 X72.550 Y103.483 E11.50437
G1 X71.789 Y102.363 E11.54926
G1 X71.099 Y101.196 E11.59415
G1 X70.484 Y99.989 E11.63905
G1 X69.945 Y98.745 E11.68394
G1 X69.487 Y97.470 E11.72883
G1 X69.108 Y96.169 E11.77372
G1 X68.813 Y94.847 E11.81861
G1 X68.601 Y93.509 E11.86350
G1 X68.473 Y92.160 E11.90839
G1 X68.431 Y90.805 E11.95328
G1 X68.473 Y89.451 E11.99817
G1 X68.601 Y88.102 E12.04306
G1 X68.813 Y86.764 E12.08795
G1 X69.108 Y85.441 E12.13284
G1 X69.487 Y84.140 E12.17773
G1 X69.945 Y82.865 E12.22262
G1 X70.484 Y81.622 E12.26751
G1 X71.099 Y80.414 E12.31241
G1 X71.789 Y79.248 E12.35730
G1 X72.550 Y78.127 E12.40219
G1 X73.381 Y77.057 E12.44708
G1 X74.277 Y76.040 E12.49197
G1 X75.235 Y75.082 E12.53686
G1 X76.251 Y74.186 E12.58175
G1 X77.322 Y73.355 E12.62664
G1 X78.443 Y72.594 E12.67153
G1 X79.609 Y71.904 E12.71642
G1 X80.816 Y71.289 E12.76131
G1 X82.060 Y70.751 E12.80620
G1 X83.335 Y70.292 E12.85109
G1 X84.636 Y69.914 E12.89599
G1 X85.958 Y69.618 E12.94088
G1 X87.297 Y69.406 E12.98577
G1 X88.646 Y69.279 E13.03066
G1 X90.000 Y69.236 E13.07555
G1 X91.354 Y69.279 E13.12044
G1 X92.703 Y69.406 E13.16533
G1 X94.042 Y69.618 E13.21022
G1 X95.364 Y69.914 E13.25511
G1 X96.665 Y70.292 E13.30000
G1 X97.940 Y70.751 E13.34489
G1 X99.184 Y71.289 E13.38978
G1 X100.391 Y71.904 E13.43468
G1 X101.557 Y72.594 E13.47957
G1 X102.678 Y73.355 E13.52446
G1 X103.749 Y74.186 E13.56935
G1 X104.765 Y75.082 E13.61424
G1 X105.723 Y76.040 E13.65913
G1 X106.619 Y77.057 E13.70402
G1 X107.450 Y78.127 E13.74891
G1 X108.211 Y79.248 E13.79380
G1 X108.901 Y80.414 E13.83869
G1 X109.516 Y81.622 E13.88358
G1 X110.055 Y82.865 E13.92847
G1 X110.513 Y84.140 E13.97336
G1 X110.892 Y85.441 E14.01825
G1 X111.187 Y86.764 E14.06314
G1 X111.399 Y88.102 E14.10804
G1 X111.527 Y89.451 E14.15293
G1 X111.569 Y90.805 E14.19782
G1 X111.527 Y92.160 E14.24271
G1 X111.399 Y93.509 E14.28760
G1 X111.187 Y94.847 E14.33249
G1 X110.892 Y96.169 E14.37738
G1 X110.513 Y97.470 E14.42227
G1 X110.055 Y98.745 E14.46716
G1 X109.516 Y99.989 E14.51205
G1 X108.901 Y101.196 E14.55694
G1 X108.211 Y102.363 E14.60183
G1 X107.450 Y103.483 E14.64672
G1 X106.619 Y104.554 E14.69161
G1 X105.723 Y105.570 E14.73651
G1 X104.765 Y106.528 E14.78140
G1 X103.749 Y107.425 E14.82629
G1 X102.678 Y108.255 E14.87118
G1 X101.557 Y109.017 E14.91607
G1 X100.391 Y109.706 E14.96096
G1 X99.184 Y110.322 E15.00585
G1 X98.681 Y110.539 E15.02401
G1 X98.681 Y80.935 E16.00480
M201 X1250 Y1250
M204 P1250 T1250
G1 X98.415 Y81.140 F9000.000
M201 X800 Y800
M204 P800 T800
G1 F1200.000
G1 X81.585 Y81.140 E16.56237
G1 X81.585 Y110.944 E17.54974
G1 X80.703 Y110.562 E17.58158
G1 X79.481 Y109.939 E17.62702
G1 X78.300 Y109.241 E17.67246
G1 X77.166 Y108.470 E17.71791
G1 X76.082 Y107.629 E17.76335
G1 X75.053 Y106.722 E17.80879
G1 X74.083 Y105.752 E17.85424
G1 X73.176 Y104.723 E17.89968
G1 X72.335 Y103.639 E17.94513
G1 X71.564 Y102.505 E17.99057
G1 X70.866 Y101.324 E18.03601
G1 X70.243 Y100.102 E18.08146
G1 X69.698 Y98.843 E18.12690
G1 X69.234 Y97.553 E18.17235
G1 X68.851 Y96.235 E18.21779
G1 X68.552 Y94.897 E18.26323
G1 X68.337 Y93.542 E18.30868
G1 X68.208 Y92.176 E18.35412
G1 X68.165 Y90.805 E18.39957
G1 X68.208 Y89.434 E18.44501
G1 X68.337 Y88.069 E18.49045
G1 X68.552 Y86.714 E18.53590
G1 X68.851 Y85.375 E18.58134
G1 X69.234 Y84.058 E18.62678
G1 X69.698 Y82.767 E18.67223
G1 X70.243 Y81.508 E18.71767
G1 X70.866 Y80.286 E18.76312
G1 X71.564 Y79.105 E18.80856
G1 X72.335 Y77.971 E18.85400
G1 X73.176 Y76.887 E18.89945
G1 X74.083 Y75.858 E18.94489
G1 X75.053 Y74.888 E18.99034
G1 X76.082 Y73.981 E19.03578
G1 X77.166 Y73.140 E19.08122
G1 X78.300 Y72.369 E19.12667
G1 X79.481 Y71.671 E19.17211
G1 X80.703 Y71.048 E19.21755
G1 X81.962 Y70.504 E19.26300
G1 X83.253 Y70.039 E19.30844
G1 X84.570 Y69.656 E19.35389
G1 X85.909 Y69.357 E19.39933
G1 X87.263 Y69.142 E19.44477
G1 X88.629 Y69.013 E19.49022
G1 X90.000 Y68.970 E19.53566
G1 X91.371 Y69.013 E19.58111
G1 X92.737 Y69.142 E19.62655
G1 X94.091 Y69.357 E19.67199
G1 X95.430 Y69.656 E19.71744
G1 X96.747 Y70.039 E19.76288
G1 X98.038 Y70.504 E19.80832
G1 X99.297 Y71.048 E19.85377
G1 X100.519 Y71.671 E19.89921
G1 X101.700 Y72.369 E19.94466
G1 X102.834 Y73.140 E19.99010
G1 X103.918 Y73.981 E20.03554
G1 X104.947 Y74.888 E20.08099
G1 X105.917 Y75.858 E20.12643
G1 X106.824 Y76.887 E20.17188
G1 X107.665 Y77.971 E20.21732
G1 X108.436 Y79.105 E20.26276
G1 X109.134 Y80.286 E20.30821
G1 X109.757 Y81.508 E20.35365
G1 X110.302 Y82.767 E20.39909
G1 X110.766 Y84.058 E20.44454
G1 X111.149 Y85.375 E20.48998
G1 X111.448 Y86.714 E20.53543
G1 X111.663 Y88.069 E20.58087
G1 X111.792 Y89.434 E20.62631
G1 X111.835 Y90.805 E20.67176
G1 X111.792 Y92.176 E20.71720
G1 X111.663 Y93.542 E20.76264
G1 X111.448 Y94.897 E20.80809
G1 X111.149 Y96.235 E20.85353
G1 X110.766 Y97.553 E20.89898
G1 X110.302 Y98.843 E20.94442
G1 X109.757 Y100.102 E20.98986
G1 X109.134 Y101.324 E21.03531
G1 X108.436 Y102.505 E21.08075
G1 X107.665 Y103.639 E21.12620
G1 X106.824 Y104.723 E21.17164
G1 X105.917 Y105.752 E21.21708
G1 X104.947 Y106.722 E21.26253
G1 X103.918 Y107.629 E21.30797
G1 X102.834 Y108.470 E21.35341
G1 X101.700 Y109.241 E21.39886
G1 X100.519 Y109.939 E21.44430
G1 X99.297 Y110.562 E21.48975
G1 X98.415 Y110.944 E21.52158
G1 X98.415 Y81.200 E22.50696
M201 X1250 Y1250
M204 P1250 T1250
G1 F7200.000
G1 X92.929 Y81.181 E19.46696
G1 E19.30696 F4200.00000
G92 E0
G1 Z0.500 F9000.000
G1 X80.891 Y80.340 F9000.000
G1 Z0.300 F9000.000
G1 E3.20000 F4200.00000
M201 X800 Y800
M204 P800 T800
G1 F1200.000
G1 X80.891 Y80.717 E3.21250
G1 X68.942 Y92.666 E3.77352
G1 X68.974 Y93.010 E3.78498
G1 X80.891 Y81.093 E4.34448
G1 X80.891 Y81.469 E4.35697
G1 X69.007 Y93.354 E4.91494
G1 X69.048 Y93.690 E4.92616
G1 X80.891 Y81.846 E5.48220
G1 X80.891 Y82.222 E5.49470
G1 X69.099 Y94.014 E6.04833
G1 X69.151 Y94.339 E6.05925
G1 X80.891 Y82.599 E6.61046
G1 X80.891 Y82.975 E6.62296
G1 X69.202 Y94.664 E7.17175
G1 X69.261 Y94.982 E7.18248
G1 X80.891 Y83.352 E7.72851
G1 X80.891 Y83.728 E7.74101
G1 X69.330 Y95.290 E8.28381
G1 X69.399 Y95.597 E8.29428
G1 X80.891 Y84.104 E8.83385
G1 X80.891 Y84.481 E8.84635
G1 X69.467 Y95.905 E9.38269
G1 X69.540 Y96.209 E9.39307
G1 X80.891 Y84.857 E9.92601
G1 X80.891 Y85.234 E9.93850
G1 X69.625 Y96.500 E10.46747
G1 X69.709 Y96.792 E10.47755
G1 X80.891 Y85.610 E11.00254
G1 X80.891 Y85.986 E11.01503
G1 X69.794 Y97.084 E11.53604
G1 X69.879 Y97.375 E11.54612
G1 X80.891 Y86.363 E12.06315
G1 X80.891 Y86.739 E12.07565
G1 X69.977 Y97.654 E12.58808
G1 X70.076 Y97.931 E12.59785
G1 X80.891 Y87.116 E13.10560
G1 X80.891 Y87.492 E13.11810
G1 X70.176 Y98.208 E13.62117
G1 X70.276 Y98.484 E13.63094
G1 X80.891 Y87.869 E14.12934
G1 X80.891 Y88.245 E14.14183
G1 X70.381 Y98.756 E14.63530
G1 X70.494 Y99.018 E14.64480
G1 X80.891 Y88.621 E15.13293
G1 X80.891 Y88.998 E15.14542
G1 X70.608 Y99.281 E15.62821
G1 X70.722 Y99.544 E15.63771
G1 X80.891 Y89.374 E16.11516
G1 X80.891 Y89.751 E16.12766
G1 X70.836 Y99.807 E16.59977
G1 X70.960 Y100.059 E16.60911
G1 X80.891 Y90.127 E17.07540
G1 X80.891 Y90.503 E17.08789
G1 X71.087 Y100.308 E17.54822
G1 X71.214 Y100.558 E17.55751
G1 X80.891 Y90.880 E18.01187
G1 X80.891 Y91.256 E18.02436
G1 X71.341 Y100.807 E18.47276
G1 X71.468 Y101.056 E18.48204
G1 X80.891 Y91.633 E18.92443
G1 X80.891 Y92.009 E18.93693
G1 X71.608 Y101.292 E19.37276
G1 X71.748 Y101.529 E19.38188
G1 X80.891 Y92.386 E19.81114
G1 X80.891 Y92.762 E19.82364
G1 X71.888 Y101.765 E20.24634
G1 X72.028 Y102.002 E20.25546
G1 X80.891 Y93.138 E20.67159
G1 X80.891 Y93.515 E20.68408
G1 X72.171 Y102.235 E21.09350
G1 X72.323 Y102.459 E21.10250
G1 X80.891 Y93.891 E21.50477
G1 X80.891 Y94.268 E21.51726
G1 X72.475 Y102.684 E21.91238
G1 X72.628 Y102.908 E21.92138
G1 X80.891 Y94.644 E22.30935
G1 X80.891 Y95.020 E22.32184
G1 X72.780 Y103.132 E22.70266
G1 X72.937 Y103.351 E22.71162
G1 X80.891 Y95.397 E23.08508
G1 X80.891 Y95.773 E23.09758
G1 X73.101 Y103.563 E23.46332
G1 X73.266 Y103.775 E23.47222
G1 X80.891 Y96.150 E23.83024
G1 X80.891 Y96.526 E23.84274
G1 X73.430 Y103.987 E24.19304
G1 X73.595 Y104.199 E24.20195
G1 X80.891 Y96.902 E24.54453
G1 X80.891 Y97.279 E24.55702
G1 X73.764 Y104.406 E24.89164
G1 X73.941 Y104.606 E24.90049
G1 X80.891 Y97.655 E25.22682
G1 X80.891 Y98.032 E25.23932
G1 X74.117 Y104.806 E25.55737
G1 X74.293 Y105.006 E25.56623
G1 X80.891 Y98.408 E25.87600
G1 X80.891 Y98.785 E25.88850
G1 X74.470 Y105.206 E26.18999
G1 X74.652 Y105.401 E26.19883
G1 X80.891 Y99.161 E26.49177
G1 X80.891 Y99.537 E26.50427
G1 X74.840 Y105.589 E26.78838
G1 X75.028 Y105.777 E26.79721
G1 X80.891 Y99.914 E27.07248
G1 X80.891 Y100.290 E27.08498
G1 X75.216 Y105.965 E27.35142
G1 X75.405 Y106.153 E27.36025
G1 X80.891 Y100.667 E27.61785
G1 X80.891 Y101.043 E27.63035
G1 X75.599 Y106.336 E27.87882
G1 X75.799 Y106.512 E27.88768
G1 X80.891 Y101.419 E28.12676
G1 X80.891 Y101.796 E28.13926
G1 X75.999 Y106.688 E28.36895
G1 X76.199 Y106.865 E28.37780
G1 X80.891 Y102.172 E28.59810
G1 X80.891 Y102.549 E28.61060
G1 X76.399 Y107.041 E28.82151
G1 X76.606 Y107.211 E28.83039
G1 X80.891 Y102.925 E29.03159
G1 X80.891 Y103.302 E29.04409
G1 X76.818 Y107.375 E29.23534
