; generated by Slic3r 1.3.0 on 2020-11-18 at 23:33:24

; external perimeters extrusion width = 0.44mm (2.38mm^3/s)
; perimeters extrusion width = 0.56mm (4.14mm^3/s)
; infill extrusion width = 0.50mm (7.31mm^3/s)
; solid infill extrusion width = 0.56mm (8.27mm^3/s)
; top infill extrusion width = 0.56mm (4.14mm^3/s)

M107
M190 S60 ; set bed temperature and wait for it to be reached
;D3D:START:START
T0
M104 S215 T0

G21
G90
M107
T0
G28
G29
M109 T0 S215 T0
G0 F3000
M107
T0
G92 E0
G0 X0 Y149 Z0.1 F3600
G1 Y49 E6.5 F1200
G0 Z1
G92 E0
; Filament gcode

G21 ; set units to millimeters
G90 ; use absolute coordinates
M82 ; use absolute distances for extrusion
G92 E0
G1 Z0.300 F9000.000
G1 E-3.20000 F4200.00000
G92 E0
G1 Z0.500 F9000.000
G1 X83.835 Y80.757 F9000.000
G1 Z0.300 F9000.000
G1 E3.20000 F4200.00000
M201 X800 Y800
M204 P800 T800
G1 F1200
G1 X83.835 Y111.358 E4.21378
G1 X83.253 Y111.189 E4.23387
G1 X81.962 Y110.724 E4.27931
G1 X80.703 Y110.179 E4.32476
G1 X79.481 Y109.556 E4.37020
G1 X78.300 Y108.858 E4.41564
G1 X77.166 Y108.087 E4.46109
G1 X76.082 Y107.247 E4.50653
G1 X75.053 Y106.339 E4.55197
G1 X74.083 Y105.369 E4.59742
G1 X73.176 Y104.340 E4.64286
G1 X72.335 Y103.257 E4.68831
G1 X71.564 Y102.122 E4.73375
G1 X70.866 Y100.941 E4.77919
G1 X70.243 Y99.719 E4.82464
G1 X69.698 Y98.460 E4.87008
G1 X69.234 Y97.170 E4.91553
G1 X68.851 Y95.853 E4.96097
G1 X68.552 Y94.514 E5.00641
G1 X68.337 Y93.159 E5.05186
G1 X68.208 Y91.793 E5.09730
G1 X68.165 Y90.422 E5.14275
G1 X68.208 Y89.051 E5.18819
G1 X68.337 Y87.686 E5.23363
G1 X68.552 Y86.331 E5.27908
G1 X68.851 Y84.992 E5.32452
G1 X69.234 Y83.675 E5.36996
G1 X69.698 Y82.384 E5.41541
G1 X70.243 Y81.126 E5.46085
G1 X70.866 Y79.903 E5.50630
G1 X71.564 Y78.723 E5.55174
G1 X72.335 Y77.588 E5.59718
G1 X73.176 Y76.504 E5.64263
G1 X74.083 Y75.475 E5.68807
G1 X75.053 Y74.505 E5.73352
G1 X76.082 Y73.598 E5.77896
G1 X77.166 Y72.758 E5.82440
G1 X78.300 Y71.987 E5.86985
G1 X79.481 Y71.288 E5.91529
G1 X80.703 Y70.666 E5.96073
G1 X81.962 Y70.121 E6.00618
G1 X83.253 Y69.656 E6.05162
G1 X84.570 Y69.273 E6.09707
G1 X85.909 Y68.974 E6.14251
G1 X87.263 Y68.760 E6.18795
G1 X88.629 Y68.631 E6.23340
G1 X90.000 Y68.587 E6.27884
G1 X91.302 Y68.628 E6.32200
G1 X92.737 Y68.760 E6.36973
G1 X94.091 Y68.974 E6.41517
G1 X95.430 Y69.273 E6.46061
G1 X96.747 Y69.656 E6.50606
G1 X98.038 Y70.121 E6.55150
G1 X99.297 Y70.666 E6.59694
G1 X100.519 Y71.288 E6.64239
G1 X101.700 Y71.987 E6.68783
G1 X102.834 Y72.758 E6.73328
G1 X103.918 Y73.598 E6.77872
G1 X104.947 Y74.505 E6.82416
G1 X105.917 Y75.475 E6.86961
G1 X106.824 Y76.504 E6.91505
G1 X107.665 Y77.588 E6.96049
G1 X108.436 Y78.723 E7.00594
G1 X109.134 Y79.903 E7.05138
G1 X109.757 Y81.126 E7.09683
G1 X110.302 Y82.384 E7.14227
G1 X110.766 Y83.675 E7.18771
G1 X111.149 Y84.992 E7.23316
G1 X111.448 Y86.331 E7.27860
G1 X111.663 Y87.686 E7.32405
G1 X111.792 Y89.051 E7.36949
G1 X111.835 Y90.422 E7.41493
G1 X111.792 Y91.793 E7.46038
G1 X111.663 Y93.159 E7.50582
G1 X111.448 Y94.514 E7.55126
G1 X111.149 Y95.853 E7.59671
G1 X110.766 Y97.170 E7.64215
G1 X110.302 Y98.460 E7.68760
G1 X109.757 Y99.719 E7.73304
G1 X109.134 Y100.941 E7.77848
G1 X108.436 Y102.122 E7.82393
G1 X107.665 Y103.257 E7.86937
G1 X106.824 Y104.340 E7.91481
G1 X105.917 Y105.369 E7.96026
G1 X104.947 Y106.339 E8.00570
G1 X103.918 Y107.247 E8.05115
G1 X102.834 Y108.087 E8.09659
G1 X101.700 Y108.858 E8.14203
G1 X100.519 Y109.556 E8.18748
G1 X99.297 Y110.179 E8.23292
G1 X98.038 Y110.724 E8.27837
G1 X96.747 Y111.189 E8.32381
G1 X96.165 Y111.358 E8.34390
G1 X96.165 Y80.757 E9.35768
G1 X83.895 Y80.757 E9.76418
M201 X1250 Y1250
M204 P1250 T1250
G1 X83.673 Y80.565 F9000.000
M201 X800 Y800
M204 P800 T800
G1 F1200
G1 X68.885 Y95.352 E10.45840
G1 X68.954 Y95.660 E10.46887
G1 X83.673 Y80.941 E11.15987
G1 X83.673 Y81.317 E11.17236
G1 X69.027 Y95.964 E11.85994
G1 X69.111 Y96.255 E11.87002
G1 X83.673 Y81.694 E12.55363
G1 X83.673 Y82.070 E12.56612
G1 X69.196 Y96.547 E13.24574
G1 X69.281 Y96.839 E13.25583
G1 X83.673 Y82.447 E13.93147
G1 X83.673 Y82.823 E13.94397
G1 X69.366 Y97.130 E14.61564
G1 X69.462 Y97.410 E14.62546
G1 X83.673 Y83.199 E15.29260
G1 X83.673 Y83.576 E15.30509
G1 X69.562 Y97.687 E15.96755
G1 X69.661 Y97.964 E15.97732
G1 X83.673 Y83.952 E16.63510
G1 X83.673 Y84.329 E16.64759
G1 X69.761 Y98.240 E17.30070
G1 X69.863 Y98.515 E17.31041
G1 X83.673 Y84.705 E17.95872
G1 X83.673 Y85.081 E17.97121
G1 X69.977 Y98.777 E18.61418
G1 X70.091 Y99.040 E18.62368
G1 X83.673 Y85.458 E19.26131
G1 X83.673 Y85.834 E19.27381
G1 X70.204 Y99.303 E19.90610
G1 X70.318 Y99.565 E19.91560
G1 X83.673 Y86.211 E20.54256
G1 X83.673 Y86.587 E20.55506
G1 X70.438 Y99.822 E21.17639
G1 X70.565 Y100.071 E21.18568
G1 X83.673 Y86.963 E21.80105
G1 X83.673 Y87.340 E21.81355
G1 X70.692 Y100.321 E22.42295
G1 X70.819 Y100.570 E22.43224
G1 X83.673 Y87.716 E23.03568
G1 X83.673 Y88.093 E23.04818
G1 X70.946 Y100.819 E23.64566
G1 X71.081 Y101.061 E23.65484
G1 X83.673 Y88.469 E24.24598
G1 X83.673 Y88.845 E24.25848
G1 X71.221 Y101.297 E24.84306
G1 X71.361 Y101.534 E24.85218
G1 X83.673 Y89.222 E25.43019
G1 X83.673 Y89.598 E25.44269
G1 X71.500 Y101.770 E26.01413
G1 X71.640 Y102.007 E26.02325
G1 X83.673 Y89.975 E26.58813
G1 X83.673 Y90.351 E26.60063
G1 X71.789 Y102.235 E27.15854
G1 X71.941 Y102.459 E27.16754
G1 X83.673 Y90.727 E27.71831
G1 X83.673 Y91.104 E27.73080
G1 X72.093 Y102.683 E28.27442
G1 X72.245 Y102.907 E28.28341
G1 X83.673 Y91.480 E28.81988
G1 X83.673 Y91.857 E28.83238
G1 X72.398 Y103.132 E29.36169
G1 X72.558 Y103.347 E29.37062
G1 X83.673 Y92.233 E29.89241
G1 X83.673 Y92.609 E29.90490
G1 X72.723 Y103.559 E30.41897
G1 X72.887 Y103.771 E30.42787
G1 X83.673 Y92.986 E30.93422
G1 X83.673 Y93.362 E30.94671
G1 X73.052 Y103.983 E31.44534
G1 X73.216 Y104.195 E31.45424
G1 X83.673 Y93.739 E31.94515
G1 X83.673 Y94.115 E31.95764
G1 X73.388 Y104.400 E32.44048
G1 X73.564 Y104.600 E32.44933
G1 X83.673 Y94.491 E32.92388
G1 X83.673 Y94.868 E32.93638
G1 X73.741 Y104.800 E33.40265
G1 X73.917 Y105.000 E33.41151
G1 X83.673 Y95.244 E33.86950
G1 X83.673 Y95.621 E33.88200
G1 X74.093 Y105.200 E34.33172
G1 X74.276 Y105.393 E34.34055
G1 X83.673 Y95.997 E34.78169
G1 X83.673 Y96.373 E34.79418
G1 X74.464 Y105.582 E35.22648
G1 X74.653 Y105.770 E35.23532
G1 X83.673 Y96.750 E35.65878
G1 X83.673 Y97.126 E35.67128
G1 X74.841 Y105.958 E36.08590
G1 X75.029 Y106.146 E36.09474
G1 X83.673 Y97.503 E36.50053
G1 X83.673 Y97.879 E36.51303
G1 X75.223 Y106.329 E36.90973
G1 X75.423 Y106.505 E36.91859
G1 X83.673 Y98.255 E37.30590
G1 X83.673 Y98.632 E37.31840
G1 X75.623 Y106.682 E37.69632
G1 X75.823 Y106.858 E37.70517
G1 X83.673 Y99.008 E38.07370
G1 X83.673 Y99.384 E38.08620
G1 X76.023 Y107.035 E38.44534
G1 X76.227 Y107.206 E38.45421
G1 X83.673 Y99.761 E38.80375
G1 X83.673 Y100.137 E38.81625
G1 X76.439 Y107.371 E39.15584
G1 X76.651 Y107.535 E39.16474
G1 X83.673 Y100.514 E39.49438
G1 X83.673 Y100.890 E39.50688
G1 X76.863 Y107.700 E39.82656
G1 X77.075 Y107.864 E39.83547
G1 X83.673 Y101.266 E40.14521
G1 X83.673 Y101.643 E40.15770
G1 X77.291 Y108.025 E40.45730
G1 X77.515 Y108.177 E40.46630
G1 X83.673 Y102.019 E40.75538
G1 X83.673 Y102.396 E40.76787
G1 X77.739 Y108.329 E41.04643
G1 X77.963 Y108.482 E41.05543
G1 X83.673 Y102.772 E41.32347
G1 X83.673 Y103.148 E41.33596
G1 X78.187 Y108.634 E41.59348
G1 X78.415 Y108.782 E41.60251
G1 X83.673 Y103.525 E41.84932
G1 X83.673 Y103.901 E41.86182
G1 X78.652 Y108.922 E42.09753
G1 X78.888 Y109.062 E42.10665
G1 X83.673 Y104.278 E42.33125
G1 X83.673 Y104.654 E42.34374
G1 X79.125 Y109.202 E42.55724
G1 X79.362 Y109.342 E42.56636
G1 X83.673 Y105.030 E42.76876
G1 X83.673 Y105.407 E42.78125
G1 X79.603 Y109.477 E42.97231
G1 X79.852 Y109.604 E42.98160
G1 X83.673 Y105.783 E43.16095
G1 X83.673 Y106.160 E43.17344
G1 X80.102 Y109.731 E43.34109
G1 X80.351 Y109.858 E43.35038
G1 X83.673 Y106.536 E43.50632
G1 X83.673 Y106.912 E43.51881
G1 X80.600 Y109.985 E43.66304
G1 X80.857 Y110.104 E43.67245
G1 X83.673 Y107.289 E43.80463
G1 X83.673 Y107.665 E43.81712
G1 X81.120 Y110.218 E43.93697
G1 X81.383 Y110.332 E43.94648
G1 X83.673 Y108.042 E44.05399
G1 X83.673 Y108.418 E44.06649
G1 X81.645 Y110.446 E44.16167
G1 X81.908 Y110.559 E44.17117
G1 X83.673 Y108.794 E44.25402
G1 X83.673 Y109.171 E44.26652
G1 X82.182 Y110.661 E44.33650
G1 X82.459 Y110.761 E44.34626
G1 X83.673 Y109.547 E44.40325
G1 X83.673 Y109.924 E44.41574
G1 X82.736 Y110.861 E44.45973
G1 X83.012 Y110.960 E44.46950
G1 X83.673 Y110.300 E44.50050
G1 X83.673 Y110.676 E44.51299
G1 X83.292 Y111.057 E44.53085
M201 X1250 Y1250
M204 P1250 T1250
G1 F7200
G1 X83.673 Y110.676 E44.23270
G1 F7200
G1 X83.673 Y110.300 E44.02411
G1 F7200
G1 X83.012 Y110.960 E43.50662
G1 F7200
G1 X82.736 Y110.861 E43.34361
G1 F7200
G1 X83.673 Y109.924 E42.60922
G1 F7200
G1 X83.673 Y109.547 E42.40063
G1 F7200
G1 X82.512 Y110.708 E41.49085
G1 E41.33085 F4200.00000
G92 E0
G1 Z0.500 F9000.000
G1 X104.661 Y106.250 F9000.000
G1 Z0.300 F9000.000
G1 E3.20000 F4200.00000
M201 X800 Y800
M204 P800 T800
G1 F1200
G1 X105.828 Y105.083 E3.25479
G1 X106.723 Y104.068 E3.29972
G1 X107.587 Y102.947 E3.34671
G1 X102.524 Y108.010 E3.58440
G1 X101.372 Y108.786 E3.63051
G1 X108.363 Y101.795 E3.95870
G1 X108.908 Y100.874 E3.99423
G1 X100.451 Y109.330 E4.39124
G1 X99.656 Y109.749 E4.42105
G1 X109.326 Y100.079 E4.87501
G1 X109.691 Y99.337 E4.90245
G1 X98.915 Y110.114 E5.40836
G1 X98.251 Y110.401 E5.43236
G1 X109.978 Y98.674 E5.98291
G1 X110.237 Y98.039 E6.00568
G1 X97.616 Y110.660 E6.59819
G1 X97.028 Y110.871 E6.61894
G1 X110.449 Y97.450 E7.24901
G1 X110.649 Y96.874 E7.26925
G1 X96.452 Y111.071 E7.93575
G1 X96.327 Y111.107 E7.94005
G1 X96.327 Y110.819 E7.94961
G1 X110.803 Y96.344 E8.62919
G1 X110.957 Y95.813 E8.64753
G1 X96.327 Y110.443 E9.33434
G1 X96.327 Y110.067 E9.34684
G1 X111.077 Y95.317 E10.03926
G1 X111.185 Y94.832 E10.05575
G1 X96.327 Y109.690 E10.75327
G1 X96.327 Y109.314 E10.76576
G1 X111.292 Y94.349 E11.46831
G1 X111.363 Y93.901 E11.48334
G1 X96.327 Y108.937 E12.18922
G1 X96.327 Y108.561 E12.20172
G1 X111.434 Y93.454 E12.91092
G1 X111.504 Y93.008 E12.92591
G1 X96.327 Y108.185 E13.63839
G1 X96.327 Y107.808 E13.65089
G1 X111.543 Y92.592 E14.36521
G1 X111.582 Y92.177 E14.37907
G1 X96.327 Y107.432 E15.09524
G1 X96.327 Y107.055 E15.10773
G1 X111.622 Y91.761 E15.82575
G1 X111.640 Y91.367 E15.83885
G1 X96.327 Y106.679 E16.55771
G1 X96.327 Y106.303 E16.57020
G1 X111.652 Y90.978 E17.28963
G1 X111.664 Y90.589 E17.30254
G1 X96.327 Y105.926 E18.02254
G1 X96.327 Y105.550 E18.03503
G1 X111.669 Y90.208 E18.75527
G1 X111.658 Y89.843 E18.76739
G1 X96.327 Y105.173 E19.48709
G1 X96.327 Y104.797 E19.49958
G1 X111.646 Y89.478 E20.21874
G1 X111.635 Y89.113 E20.23086
G1 X96.327 Y104.421 E20.94948
G1 X96.327 Y104.044 E20.96198
G1 X111.611 Y88.761 E21.67948
G1 X111.578 Y88.417 E21.69094
G1 X96.327 Y103.668 E22.40691
G1 X96.327 Y103.291 E22.41941
G1 X111.546 Y88.073 E23.13385
G1 X111.513 Y87.729 E23.14532
G1 X96.327 Y102.915 E23.85824
G1 X96.327 Y102.539 E23.87073
G1 X111.468 Y87.398 E24.58153
G1 X111.416 Y87.073 E24.59245
G1 X96.327 Y102.162 E25.30083
G1 X96.327 Y101.786 E25.31332
G1 X111.365 Y86.748 E26.01929
G1 X111.314 Y86.423 E26.03021
G1 X96.327 Y101.409 E26.73376
G1 X96.327 Y101.033 E26.74625
G1 X111.252 Y86.108 E27.44693
G1 X111.184 Y85.800 E27.45740
G1 X96.327 Y100.657 E28.15485
G1 X96.327 Y100.280 E28.16735
G1 X111.115 Y85.493 E28.86157
G1 X111.046 Y85.185 E28.87204
G1 X96.327 Y99.904 E29.56304
G1 X96.327 Y99.527 E29.57553
G1 X110.973 Y84.881 E30.26311
G1 X110.889 Y84.590 E30.27320
G1 X96.327 Y99.151 E30.95680
G1 X96.327 Y98.775 E30.96929
G1 X110.804 Y84.298 E31.64892
G1 X110.719 Y84.006 E31.65900
G1 X96.327 Y98.398 E32.33465
G1 X96.327 Y98.022 E32.34714
G1 X110.634 Y83.715 E33.01881
G1 X110.538 Y83.435 E33.02864
G1 X96.327 Y97.645 E33.69577
G1 X96.327 Y97.269 E33.70827
G1 X110.438 Y83.158 E34.37073
G1 X110.339 Y82.881 E34.38049
G1 X96.327 Y96.893 E35.03827
G1 X96.327 Y96.516 E35.05077
G1 X110.239 Y82.605 E35.70387
G1 X110.137 Y82.330 E35.71359
G1 X96.327 Y96.140 E36.36189
G1 X96.327 Y95.763 E36.37439
G1 X110.023 Y82.068 E37.01736
G1 X109.909 Y81.805 E37.02686
G1 X96.327 Y95.387 E37.66449
G1 X96.327 Y95.011 E37.67699
G1 X109.796 Y81.542 E38.30928
G1 X109.682 Y81.279 E38.31878
G1 X96.327 Y94.634 E38.94574
G1 X96.327 Y94.258 E38.95823
G1 X109.562 Y81.023 E39.57957
G1 X109.435 Y80.773 E39.58886
G1 X96.327 Y93.881 E40.20423
G1 X96.327 Y93.505 E40.21673
G1 X109.308 Y80.524 E40.82613
G1 X109.181 Y80.275 E40.83542
G1 X96.327 Y93.129 E41.43886
G1 X96.327 Y92.752 E41.45136
G1 X109.054 Y80.025 E42.04884
G1 X108.919 Y79.784 E42.05802
G1 X96.327 Y92.376 E42.64917
G1 X96.327 Y91.999 E42.66166
G1 X108.779 Y79.547 E43.24624
G1 X108.639 Y79.311 E43.25536
G1 X96.327 Y91.623 E43.83337
G1 X96.327 Y91.247 E43.84587
G1 X108.500 Y79.074 E44.41732
G1 X108.360 Y78.838 E44.42644
G1 X96.327 Y90.870 E44.99132
G1 X96.327 Y90.494 E45.00381
G1 X108.211 Y78.610 E45.56173
G1 X108.059 Y78.386 E45.57072
G1 X96.327 Y90.117 E46.12149
G1 X96.327 Y89.741 E46.13399
G1 X107.907 Y78.162 E46.67761
G1 X107.755 Y77.937 E46.68660
G1 X96.327 Y89.365 E47.22307
G1 X96.327 Y88.988 E47.23556
G1 X107.602 Y77.713 E47.76488
G1 X107.442 Y77.497 E47.77381
G1 X96.327 Y88.612 E48.29560
G1 X96.327 Y88.235 E48.30809
G1 X107.277 Y77.285 E48.82216
G1 X107.113 Y77.073 E48.83106
G1 X96.327 Y87.859 E49.33741
G1 X96.327 Y87.483 E49.34990
G1 X106.948 Y76.862 E49.84853
G1 X106.784 Y76.650 E49.85743
G1 X96.327 Y87.106 E50.34834
G1 X96.327 Y86.730 E50.36083
G1 X106.612 Y76.445 E50.84367
G1 X106.436 Y76.245 E50.85252
G1 X96.327 Y86.354 E51.32708
G1 X96.327 Y85.977 E51.33957
G1 X106.259 Y76.045 E51.80585
G1 X106.083 Y75.845 E51.81470
G1 X96.327 Y85.601 E52.27270
G1 X96.327 Y85.224 E52.28520
G1 X105.907 Y75.645 E52.73491
G1 X105.827 Y75.554 E52.73894
G1 X105.724 Y75.451 E52.74376
G1 X96.327 Y84.848 E53.18489
G1 X96.327 Y84.472 E53.19739
G1 X105.536 Y75.263 E53.62969
G1 X105.347 Y75.075 E53.63852
G1 X96.327 Y84.095 E54.06199
G1 X96.327 Y83.719 E54.07448
G1 X105.159 Y74.887 E54.48911
G1 X104.971 Y74.699 E54.49795
G1 X96.327 Y83.342 E54.90374
G1 X96.327 Y82.966 E54.91624
G1 X104.778 Y74.516 E55.31294
G1 X104.577 Y74.339 E55.32180
G1 X96.327 Y82.590 E55.70911
G1 X96.327 Y82.213 E55.72161
G1 X104.377 Y74.163 E56.09953
G1 X104.177 Y73.987 E56.10838
G1 X96.327 Y81.837 E56.47692
G1 X96.327 Y81.460 E56.48941
G1 X103.977 Y73.810 E56.84856
G1 X103.773 Y73.638 E56.85742
G1 X96.327 Y81.084 E57.20697
G1 X96.327 Y80.708 E57.21946
G1 X103.561 Y73.474 E57.55905
G1 X103.349 Y73.310 E57.56796
G1 X96.063 Y80.595 E57.90999
G1 X95.687 Y80.595 E57.92249
G1 X103.137 Y73.145 E58.27224
G1 X102.925 Y72.981 E58.28114
G1 X95.311 Y80.595 E58.63861
G1 X94.934 Y80.595 E58.65111
G1 X102.709 Y72.820 E59.01611
G1 X102.485 Y72.668 E59.02511
G1 X94.558 Y80.595 E59.39726
G1 X94.181 Y80.595 E59.40976
G1 X102.261 Y72.516 E59.78907
G1 X102.037 Y72.363 E59.79806
G1 X93.805 Y80.595 E60.18451
G1 X93.429 Y80.595 E60.19701
G1 X101.813 Y72.211 E60.59061
G1 X101.585 Y72.063 E60.59965
G1 X93.052 Y80.595 E61.00021
G1 X92.676 Y80.595 E61.01271
G1 X101.348 Y71.923 E61.41984
G1 X101.112 Y71.783 E61.42896
G1 X92.299 Y80.595 E61.84266
G1 X91.923 Y80.595 E61.85516
G1 X100.875 Y71.643 E62.27542
G1 X100.639 Y71.503 E62.28455
G1 X91.547 Y80.595 E62.71138
G1 X91.170 Y80.595 E62.72387
G1 X100.397 Y71.368 E63.15704
G1 X100.148 Y71.241 E63.16633
G1 X90.794 Y80.595 E63.60546
G1 X90.417 Y80.595 E63.61795
G1 X99.898 Y71.114 E64.06305
G1 X99.649 Y70.987 E64.07234
G1 X90.041 Y80.595 E64.52339
G1 X89.665 Y80.595 E64.53589
G1 X99.400 Y70.860 E64.99291
G1 X99.143 Y70.740 E65.00231
G1 X89.288 Y80.595 E65.46496
G1 X88.912 Y80.595 E65.47745
G1 X98.880 Y70.627 E65.94544
G1 X98.618 Y70.513 E65.95494
G1 X88.535 Y80.595 E66.42826
G1 X88.159 Y80.595 E66.44075
G1 X98.355 Y70.399 E66.91941
G1 X98.092 Y70.286 E66.92891
G1 X87.783 Y80.595 E67.41290
G1 X87.406 Y80.595 E67.42540
G1 X97.818 Y70.183 E67.91419
G1 X97.541 Y70.084 E67.92395
G1 X87.030 Y80.595 E68.41742
G1 X86.653 Y80.595 E68.42992
G1 X97.264 Y69.984 E68.92807
G1 X96.988 Y69.884 E68.93783
G1 X86.277 Y80.595 E69.44066
G1 X85.901 Y80.595 E69.45315
G1 X96.708 Y69.788 E69.96051
