; generated by Slic3r 1.3.0 on 2020-11-18 at 23:33:24

; external perimeters extrusion width = 0.44mm (2.86mm^3/s)
; perimeters extrusion width = 0.56mm (4.14mm^3/s)
; infill extrusion width = 0.50mm (3.66mm^3/s)
; solid infill extrusion width = 0.56mm (3.10mm^3/s)
; top infill extrusion width = 0.56mm (3.10mm^3/s)

M107
;D3D:START:START
T0
M104 S215 T0

G21
G90
M107
T0
G28
G29
M109 T0 S215 T0
G0 F3000
M107
T0
G92 E0
G0 X0 Y149 Z0.1 F3600
G1 Y49 E6.5 F1200
G0 Z1
G92 E0
; Filament gcode

G21 ; set units to millimeters
G90 ; use absolute coordinates
M82 ; use absolute distances for extrusion
G92 E0
G1 Z0.300 F7800.000
G1 E-2.00000 F2400.00000
G92 E0
G1 X68.835 Y65.757 F7800.000
G1 E2.00000 F2400.00000
G1 F1800
G1 X68.835 Y96.358 E3.01378
G1 X68.253 Y96.189 E3.03387
G1 X66.962 Y95.724 E3.07931
G1 X65.703 Y95.179 E3.12476
G1 X64.481 Y94.556 E3.17020
G1 X63.300 Y93.858 E3.21564
G1 X62.166 Y93.087 E3.26109
G1 X61.082 Y92.247 E3.30653
G1 X60.053 Y91.339 E3.35197
G1 X59.083 Y90.369 E3.39742
G1 X58.176 Y89.340 E3.44286
G1 X57.335 Y88.257 E3.48831
G1 X56.564 Y87.122 E3.53375
G1 X55.866 Y85.941 E3.57919
G1 X55.243 Y84.719 E3.62464
G1 X54.698 Y83.460 E3.67008
G1 X54.234 Y82.170 E3.71553
G1 X53.851 Y80.853 E3.76097
G1 X53.552 Y79.514 E3.80641
G1 X53.337 Y78.159 E3.85186
G1 X53.208 Y76.793 E3.89730
G1 X53.165 Y75.422 E3.94275
G1 X53.208 Y74.051 E3.98819
G1 X53.337 Y72.686 E4.03363
G1 X53.552 Y71.331 E4.07908
G1 X53.851 Y69.992 E4.12452
G1 X54.234 Y68.675 E4.16996
G1 X54.698 Y67.384 E4.21541
G1 X55.243 Y66.126 E4.26085
G1 X55.866 Y64.903 E4.30630
G1 X56.564 Y63.723 E4.35174
G1 X57.335 Y62.588 E4.39718
G1 X58.176 Y61.504 E4.44263
G1 X59.083 Y60.475 E4.48807
G1 X60.053 Y59.505 E4.53352
G1 X61.082 Y58.598 E4.57896
G1 X62.166 Y57.758 E4.62440
G1 X63.300 Y56.987 E4.66985
G1 X64.481 Y56.288 E4.71529
G1 X65.703 Y55.666 E4.76073
G1 X66.962 Y55.121 E4.80618
G1 X68.253 Y54.656 E4.85162
G1 X69.570 Y54.273 E4.89707
G1 X70.909 Y53.974 E4.94251
G1 X72.263 Y53.760 E4.98795
G1 X73.629 Y53.631 E5.03340
G1 X75.000 Y53.587 E5.07884
G1 X76.302 Y53.628 E5.12200
G1 X77.737 Y53.760 E5.16973
G1 X79.091 Y53.974 E5.21517
G1 X80.430 Y54.273 E5.26061
G1 X81.747 Y54.656 E5.30606
G1 X83.038 Y55.121 E5.35150
G1 X84.297 Y55.666 E5.39694
G1 X85.519 Y56.288 E5.44239
G1 X86.700 Y56.987 E5.48783
G1 X87.834 Y57.758 E5.53328
G1 X88.918 Y58.598 E5.57872
G1 X89.947 Y59.505 E5.62416
G1 X90.917 Y60.475 E5.66961
G1 X91.824 Y61.504 E5.71505
G1 X92.665 Y62.588 E5.76049
G1 X93.436 Y63.723 E5.80594
G1 X94.134 Y64.903 E5.85138
G1 X94.757 Y66.126 E5.89683
G1 X95.302 Y67.384 E5.94227
G1 X95.766 Y68.675 E5.98771
G1 X96.149 Y69.992 E6.03316
G1 X96.448 Y71.331 E6.07860
G1 X96.663 Y72.686 E6.12405
G1 X96.792 Y74.051 E6.16949
G1 X96.835 Y75.422 E6.21493
G1 X96.792 Y76.793 E6.26038
G1 X96.663 Y78.159 E6.30582
G1 X96.448 Y79.514 E6.35126
G1 X96.149 Y80.853 E6.39671
G1 X95.766 Y82.170 E6.44215
G1 X95.302 Y83.460 E6.48760
G1 X94.757 Y84.719 E6.53304
G1 X94.134 Y85.941 E6.57848
G1 X93.436 Y87.122 E6.62393
G1 X92.665 Y88.257 E6.66937
G1 X91.824 Y89.340 E6.71481
G1 X90.917 Y90.369 E6.76026
G1 X89.947 Y91.339 E6.80570
G1 X88.918 Y92.247 E6.85115
G1 X87.834 Y93.087 E6.89659
G1 X86.700 Y93.858 E6.94203
G1 X85.519 Y94.556 E6.98748
G1 X84.297 Y95.179 E7.03292
G1 X83.038 Y95.724 E7.07837
G1 X81.747 Y96.189 E7.12381
G1 X81.165 Y96.358 E7.14390
G1 X81.165 Y65.757 E8.15768
G1 X68.895 Y65.757 E8.56418
G1 X68.673 Y65.565 F7800.000
G1 F1800
G1 X53.885 Y80.352 E9.25840
G1 X53.954 Y80.660 E9.26887
G1 X68.673 Y65.941 E9.95987
G1 X68.673 Y66.317 E9.97236
G1 X54.027 Y80.964 E10.65994
G1 X54.111 Y81.255 E10.67002
G1 X68.673 Y66.694 E11.35363
G1 X68.673 Y67.070 E11.36612
G1 X54.196 Y81.547 E12.04574
G1 X54.281 Y81.839 E12.05583
G1 X68.673 Y67.447 E12.73147
G1 X68.673 Y67.823 E12.74397
G1 X54.366 Y82.130 E13.41564
G1 X54.462 Y82.410 E13.42546
G1 X68.673 Y68.199 E14.09260
G1 X68.673 Y68.576 E14.10509
G1 X54.562 Y82.687 E14.76755
G1 X54.661 Y82.964 E14.77732
G1 X68.673 Y68.952 E15.43510
G1 X68.673 Y69.329 E15.44759
G1 X54.761 Y83.240 E16.10070
G1 X54.863 Y83.515 E16.11041
G1 X68.673 Y69.705 E16.75872
G1 X68.673 Y70.081 E16.77121
G1 X54.977 Y83.777 E17.41418
G1 X55.091 Y84.040 E17.42368
G1 X68.673 Y70.458 E18.06131
G1 X68.673 Y70.834 E18.07381
G1 X55.204 Y84.303 E18.70610
G1 X55.318 Y84.565 E18.71560
G1 X68.673 Y71.211 E19.34256
G1 X68.673 Y71.587 E19.35506
G1 X55.438 Y84.822 E19.97639
G1 X55.565 Y85.071 E19.98568
G1 X68.673 Y71.963 E20.60105
G1 X68.673 Y72.340 E20.61355
G1 X55.692 Y85.321 E21.22295
G1 X55.819 Y85.570 E21.23224
G1 X68.673 Y72.716 E21.83568
G1 X68.673 Y73.093 E21.84818
G1 X55.946 Y85.819 E22.44566
G1 X56.081 Y86.061 E22.45484
G1 X68.673 Y73.469 E23.04598
G1 X68.673 Y73.845 E23.05848
G1 X56.221 Y86.297 E23.64306
G1 X56.361 Y86.534 E23.65218
G1 X68.673 Y74.222 E24.23019
G1 X68.673 Y74.598 E24.24269
G1 X56.500 Y86.770 E24.81413
G1 X56.640 Y87.007 E24.82325
G1 X68.673 Y74.975 E25.38813
G1 X68.673 Y75.351 E25.40063
G1 X56.789 Y87.235 E25.95854
G1 X56.941 Y87.459 E25.96754
G1 X68.673 Y75.727 E26.51831
G1 X68.673 Y76.104 E26.53080
G1 X57.093 Y87.683 E27.07442
G1 X57.245 Y87.907 E27.08341
G1 X68.673 Y76.480 E27.61988
G1 X68.673 Y76.857 E27.63238
G1 X57.398 Y88.132 E28.16169
G1 X57.558 Y88.347 E28.17062
G1 X68.673 Y77.233 E28.69241
G1 X68.673 Y77.609 E28.70490
G1 X57.723 Y88.559 E29.21897
G1 X57.887 Y88.771 E29.22787
G1 X68.673 Y77.986 E29.73422
G1 X68.673 Y78.362 E29.74671
G1 X58.052 Y88.983 E30.24534
G1 X58.216 Y89.195 E30.25424
G1 X68.673 Y78.739 E30.74515
G1 X68.673 Y79.115 E30.75764
G1 X58.388 Y89.400 E31.24048
G1 X58.564 Y89.600 E31.24933
G1 X68.673 Y79.491 E31.72388
G1 X68.673 Y79.868 E31.73638
G1 X58.741 Y89.800 E32.20265
G1 X58.917 Y90.000 E32.21151
G1 X68.673 Y80.244 E32.66950
G1 X68.673 Y80.621 E32.68200
G1 X59.093 Y90.200 E33.13172
G1 X59.276 Y90.393 E33.14055
G1 X68.673 Y80.997 E33.58169
G1 X68.673 Y81.373 E33.59418
G1 X59.464 Y90.582 E34.02648
G1 X59.653 Y90.770 E34.03532
G1 X68.673 Y81.750 E34.45878
G1 X68.673 Y82.126 E34.47128
G1 X59.841 Y90.958 E34.88590
G1 X60.029 Y91.146 E34.89474
G1 X68.673 Y82.503 E35.30053
G1 X68.673 Y82.879 E35.31303
G1 X60.223 Y91.329 E35.70973
G1 X60.423 Y91.505 E35.71859
G1 X68.673 Y83.255 E36.10590
G1 X68.673 Y83.632 E36.11840
G1 X60.623 Y91.682 E36.49632
G1 X60.823 Y91.858 E36.50517
G1 X68.673 Y84.008 E36.87370
G1 X68.673 Y84.384 E36.88620
G1 X61.023 Y92.035 E37.24534
G1 X61.227 Y92.206 E37.25421
G1 X68.673 Y84.761 E37.60375
G1 X68.673 Y85.137 E37.61625
G1 X61.439 Y92.371 E37.95584
G1 X61.651 Y92.535 E37.96474
G1 X68.673 Y85.514 E38.29438
G1 X68.673 Y85.890 E38.30688
G1 X61.863 Y92.700 E38.62656
G1 X62.075 Y92.864 E38.63547
G1 X68.673 Y86.266 E38.94521
G1 X68.673 Y86.643 E38.95770
G1 X62.291 Y93.025 E39.25730
G1 X62.515 Y93.177 E39.26630
G1 X68.673 Y87.019 E39.55538
G1 X68.673 Y87.396 E39.56787
G1 X62.739 Y93.329 E39.84643
G1 X62.963 Y93.482 E39.85543
G1 X68.673 Y87.772 E40.12347
G1 X68.673 Y88.148 E40.13596
G1 X63.187 Y93.634 E40.39348
G1 X63.415 Y93.782 E40.40251
G1 X68.673 Y88.525 E40.64932
G1 X68.673 Y88.901 E40.66182
G1 X63.652 Y93.922 E40.89753
G1 X63.888 Y94.062 E40.90665
G1 X68.673 Y89.278 E41.13125
G1 X68.673 Y89.654 E41.14374
G1 X64.125 Y94.202 E41.35724
G1 X64.362 Y94.342 E41.36636
G1 X68.673 Y90.030 E41.56876
G1 X68.673 Y90.407 E41.58125
G1 X64.603 Y94.477 E41.77231
G1 X64.852 Y94.604 E41.78160
G1 X68.673 Y90.783 E41.96095
G1 X68.673 Y91.160 E41.97344
G1 X65.102 Y94.731 E42.14109
G1 X65.351 Y94.858 E42.15038
G1 X68.673 Y91.536 E42.30632
G1 X68.673 Y91.912 E42.31881
G1 X65.600 Y94.985 E42.46304
G1 X65.857 Y95.104 E42.47245
G1 X68.673 Y92.289 E42.60463
G1 X68.673 Y92.665 E42.61712
G1 X66.120 Y95.218 E42.73697
G1 X66.383 Y95.332 E42.74648
G1 X68.673 Y93.042 E42.85399
G1 X68.673 Y93.418 E42.86649
G1 X66.645 Y95.446 E42.96167
G1 X66.908 Y95.559 E42.97117
G1 X68.673 Y93.794 E43.05402
G1 X68.673 Y94.171 E43.06652
G1 X67.182 Y95.661 E43.13650
G1 X67.459 Y95.761 E43.14626
G1 X68.673 Y94.547 E43.20325
G1 X68.673 Y94.924 E43.21574
G1 X67.736 Y95.861 E43.25973
G1 X68.012 Y95.960 E43.26950
G1 X68.673 Y95.300 E43.30050
G1 X68.673 Y95.676 E43.31299
G1 X68.292 Y96.057 E43.33085
G1 E41.33085 F2400.00000
G92 E0
G1 X89.661 Y91.250 F7800.000
G1 E2.00000 F2400.00000
G1 F1800
G1 X90.828 Y90.083 E2.05479
G1 X91.723 Y89.068 E2.09972
G1 X92.587 Y87.947 E2.14671
G1 X87.524 Y93.010 E2.38440
G1 X86.372 Y93.786 E2.43051
G1 X93.363 Y86.795 E2.75870
G1 X93.908 Y85.874 E2.79423
G1 X85.451 Y94.330 E3.19124
G1 X84.656 Y94.749 E3.22105
G1 X94.326 Y85.079 E3.67501
G1 X94.691 Y84.337 E3.70245
G1 X83.915 Y95.114 E4.20836
G1 X83.251 Y95.401 E4.23236
G1 X94.978 Y83.674 E4.78291
G1 X95.237 Y83.039 E4.80568
G1 X82.616 Y95.660 E5.39819
G1 X82.028 Y95.871 E5.41894
G1 X95.449 Y82.450 E6.04901
G1 X95.649 Y81.874 E6.06925
G1 X81.452 Y96.071 E6.73575
G1 X81.327 Y96.107 E6.74005
G1 X81.327 Y95.819 E6.74961
G1 X95.803 Y81.344 E7.42919
G1 X95.957 Y80.813 E7.44753
G1 X81.327 Y95.443 E8.13434
G1 X81.327 Y95.067 E8.14684
G1 X96.077 Y80.317 E8.83926
G1 X96.185 Y79.832 E8.85575
G1 X81.327 Y94.690 E9.55327
G1 X81.327 Y94.314 E9.56576
G1 X96.292 Y79.349 E10.26831
G1 X96.363 Y78.901 E10.28334
G1 X81.327 Y93.937 E10.98922
G1 X81.327 Y93.561 E11.00172
G1 X96.434 Y78.454 E11.71092
G1 X96.504 Y78.008 E11.72591
G1 X81.327 Y93.185 E12.43839
G1 X81.327 Y92.808 E12.45089
G1 X96.543 Y77.592 E13.16521
G1 X96.582 Y77.177 E13.17907
G1 X81.327 Y92.432 E13.89524
G1 X81.327 Y92.055 E13.90773
G1 X96.622 Y76.761 E14.62575
G1 X96.640 Y76.367 E14.63885
G1 X81.327 Y91.679 E15.35771
G1 X81.327 Y91.303 E15.37020
G1 X96.652 Y75.978 E16.08963
G1 X96.664 Y75.589 E16.10254
G1 X81.327 Y90.926 E16.82254
G1 X81.327 Y90.550 E16.83503
G1 X96.669 Y75.208 E17.55527
G1 X96.658 Y74.843 E17.56739
G1 X81.327 Y90.173 E18.28709
G1 X81.327 Y89.797 E18.29958
G1 X96.646 Y74.478 E19.01874
G1 X96.635 Y74.113 E19.03086
G1 X81.327 Y89.421 E19.74948
G1 X81.327 Y89.044 E19.76198
G1 X96.611 Y73.761 E20.47948
G1 X96.578 Y73.417 E20.49094
G1 X81.327 Y88.668 E21.20691
G1 X81.327 Y88.291 E21.21941
G1 X96.546 Y73.073 E21.93385
G1 X96.513 Y72.729 E21.94532
G1 X81.327 Y87.915 E22.65824
G1 X81.327 Y87.539 E22.67073
G1 X96.468 Y72.398 E23.38153
G1 X96.416 Y72.073 E23.39245
G1 X81.327 Y87.162 E24.10083
G1 X81.327 Y86.786 E24.11332
G1 X96.365 Y71.748 E24.81929
G1 X96.314 Y71.423 E24.83021
G1 X81.327 Y86.409 E25.53376
G1 X81.327 Y86.033 E25.54625
G1 X96.252 Y71.108 E26.24693
G1 X96.184 Y70.800 E26.25740
G1 X81.327 Y85.657 E26.95485
G1 X81.327 Y85.280 E26.96735
G1 X96.115 Y70.493 E27.66157
G1 X96.046 Y70.185 E27.67204
G1 X81.327 Y84.904 E28.36304
G1 X81.327 Y84.527 E28.37553
G1 X95.973 Y69.881 E29.06311
G1 X95.889 Y69.590 E29.07320
G1 X81.327 Y84.151 E29.75680
G1 X81.327 Y83.775 E29.76929
G1 X95.804 Y69.298 E30.44892
G1 X95.719 Y69.006 E30.45900
G1 X81.327 Y83.398 E31.13465
G1 X81.327 Y83.022 E31.14714
G1 X95.634 Y68.715 E31.81881
G1 X95.538 Y68.435 E31.82864
G1 X81.327 Y82.645 E32.49577
G1 X81.327 Y82.269 E32.50827
G1 X95.438 Y68.158 E33.17073
G1 X95.339 Y67.881 E33.18049
G1 X81.327 Y81.893 E33.83827
G1 X81.327 Y81.516 E33.85077
G1 X95.239 Y67.605 E34.50387
G1 X95.137 Y67.330 E34.51359
G1 X81.327 Y81.140 E35.16189
G1 X81.327 Y80.763 E35.17439
G1 X95.023 Y67.068 E35.81736
G1 X94.909 Y66.805 E35.82686
G1 X81.327 Y80.387 E36.46449
G1 X81.327 Y80.011 E36.47699
G1 X94.796 Y66.542 E37.10928
G1 X94.682 Y66.279 E37.11878
G1 X81.327 Y79.634 E37.74574
G1 X81.327 Y79.258 E37.75823
G1 X94.562 Y66.023 E38.37957
G1 X94.435 Y65.773 E38.38886
G1 X81.327 Y78.881 E39.00423
G1 X81.327 Y78.505 E39.01673
G1 X94.308 Y65.524 E39.62613
G1 X94.181 Y65.275 E39.63542
G1 X81.327 Y78.129 E40.23886
G1 X81.327 Y77.752 E40.25136
G1 X94.054 Y65.025 E40.84884
G1 X93.919 Y64.784 E40.85802
G1 X81.327 Y77.376 E41.44917
G1 X81.327 Y76.999 E41.46166
G1 X93.779 Y64.547 E42.04624
G1 X93.639 Y64.311 E42.05536
G1 X81.327 Y76.623 E42.63337
G1 X81.327 Y76.247 E42.64587
G1 X93.500 Y64.074 E43.21732
G1 X93.360 Y63.838 E43.22644
G1 X81.327 Y75.870 E43.79132
G1 X81.327 Y75.494 E43.80381
G1 X93.211 Y63.610 E44.36173
G1 X93.059 Y63.386 E44.37072
G1 X81.327 Y75.117 E44.92149
G1 X81.327 Y74.741 E44.93399
G1 X92.907 Y63.162 E45.47761
G1 X92.755 Y62.937 E45.48660
G1 X81.327 Y74.365 E46.02307
G1 X81.327 Y73.988 E46.03556
G1 X92.602 Y62.713 E46.56488
G1 X92.442 Y62.497 E46.57381
G1 X81.327 Y73.612 E47.09560
G1 X81.327 Y73.235 E47.10809
G1 X92.277 Y62.285 E47.62216
G1 X92.113 Y62.073 E47.63106
G1 X81.327 Y72.859 E48.13741
G1 X81.327 Y72.483 E48.14990
G1 X91.948 Y61.862 E48.64853
G1 X91.784 Y61.650 E48.65743
G1 X81.327 Y72.106 E49.14834
G1 X81.327 Y71.730 E49.16083
G1 X91.612 Y61.445 E49.64367
G1 X91.436 Y61.245 E49.65252
G1 X81.327 Y71.354 E50.12708
G1 X81.327 Y70.977 E50.13957
G1 X91.259 Y61.045 E50.60585
G1 X91.083 Y60.845 E50.61470
G1 X81.327 Y70.601 E51.07270
G1 X81.327 Y70.224 E51.08520
G1 X90.907 Y60.645 E51.53491
G1 X90.827 Y60.554 E51.53894
G1 X90.724 Y60.451 E51.54376
G1 X81.327 Y69.848 E51.98489
G1 X81.327 Y69.472 E51.99739
G1 X90.536 Y60.263 E52.42969
G1 X90.347 Y60.075 E52.43852
G1 X81.327 Y69.095 E52.86199
G1 X81.327 Y68.719 E52.87448
G1 X90.159 Y59.887 E53.28911
G1 X89.971 Y59.699 E53.29795
G1 X81.327 Y68.342 E53.70374
G1 X81.327 Y67.966 E53.71624
G1 X89.778 Y59.516 E54.11294
G1 X89.577 Y59.339 E54.12180
G1 X81.327 Y67.590 E54.50911
G1 X81.327 Y67.213 E54.52161
G1 X89.377 Y59.163 E54.89953
G1 X89.177 Y58.987 E54.90838
G1 X81.327 Y66.837 E55.27692
G1 X81.327 Y66.460 E55.28941
G1 X88.977 Y58.810 E55.64856
G1 X88.773 Y58.638 E55.65742
G1 X81.327 Y66.084 E56.00697
G1 X81.327 Y65.708 E56.01946
G1 X88.561 Y58.474 E56.35905
G1 X88.349 Y58.310 E56.36796
G1 X81.063 Y65.595 E56.70999
G1 X80.687 Y65.595 E56.72249
G1 X88.137 Y58.145 E57.07224
G1 X87.925 Y57.981 E57.08114
G1 X80.311 Y65.595 E57.43861
G1 X79.934 Y65.595 E57.45111
G1 X87.709 Y57.820 E57.81611
G1 X87.485 Y57.668 E57.82511
G1 X79.558 Y65.595 E58.19726
G1 X79.181 Y65.595 E58.20976
G1 X87.261 Y57.516 E58.58907
G1 X87.037 Y57.363 E58.59806
G1 X78.805 Y65.595 E58.98451
G1 X78.429 Y65.595 E58.99701
G1 X86.813 Y57.211 E59.39061
G1 X86.585 Y57.063 E59.39965
G1 X78.052 Y65.595 E59.80021
G1 X77.676 Y65.595 E59.81271
G1 X86.348 Y56.923 E60.21984
G1 X86.112 Y56.783 E60.22896
G1 X77.299 Y65.595 E60.64266
G1 X76.923 Y65.595 E60.65516
G1 X85.875 Y56.643 E61.07542
G1 X85.639 Y56.503 E61.08455
G1 X76.547 Y65.595 E61.51138
G1 X76.170 Y65.595 E61.52387
G1 X85.397 Y56.368 E61.95704
G1 X85.148 Y56.241 E61.96633
G1 X75.794 Y65.595 E62.40546
G1 X75.417 Y65.595 E62.41795
G1 X84.898 Y56.114 E62.86305
G1 X84.649 Y55.987 E62.87234
G1 X75.041 Y65.595 E63.32339
G1 X74.665 Y65.595 E63.33589
G1 X84.400 Y55.860 E63.79291
G1 X84.143 Y55.740 E63.80231
G1 X74.288 Y65.595 E64.26496
G1 X73.912 Y65.595 E64.27745
G1 X83.880 Y55.627 E64.74544
G1 X83.618 Y55.513 E64.75494
G1 X73.535 Y65.595 E65.22826
G1 X73.159 Y65.595 E65.24075
G1 X83.355 Y55.399 E65.71941
G1 X83.092 Y55.286 E65.72891
G1 X72.783 Y65.595 E66.21290
G1 X72.406 Y65.595 E66.22540
G1 X82.818 Y55.183 E66.71419
G1 X82.541 Y55.084 E66.72395
G1 X72.030 Y65.595 E67.21742
G1 X71.653 Y65.595 E67.22992
G1 X82.264 Y54.984 E67.72807
G1 X81.988 Y54.884 E67.73783
G1 X71.277 Y65.595 E68.24066
G1 X70.901 Y65.595 E68.25315
G1 X81.708 Y54.788 E68.76051
G1 X81.416 Y54.703 E68.77059
G1 X70.524 Y65.595 E69.28192
G1 X70.148 Y65.595 E69.29442
G1 X81.124 Y54.618 E69.80973
G1 X80.833 Y54.534 E69.81981
G1 X69.771 Y65.595 E70.33910
G1 X69.395 Y65.595 E70.35160
G1 X80.541 Y54.449 E70.87486
G1 X80.238 Y54.376 E70.88523
G1 X69.019 Y65.595 E71.41191
G1 X68.642 Y65.595 E71.42441
G1 X79.930 Y54.307 E71.95432
G1 X79.622 Y54.239 E71.96479
G1 X53.816 Y80.045 E73.17629
G1 X53.748 Y79.737 E73.18675
G1 X79.315 Y54.170 E74.38703
G1 X78.999 Y54.109 E74.39770
G1 X53.686 Y79.422 E75.58604
G1 X53.635 Y79.097 E75.59696
G1 X78.674 Y54.057 E76.77246
G1 X78.349 Y54.006 E76.78338
G1 X53.584 Y78.772 E77.94605
G1 X53.532 Y78.447 E77.95697
G1 X78.024 Y53.955 E79.10679
G1 X77.693 Y53.910 E79.11790
G1 X53.487 Y78.116 E80.25428
G1 X53.454 Y77.772 E80.26575
G1 X77.348 Y53.878 E81.38747
G1 X77.003 Y53.847 E81.39897
G1 X53.422 Y77.428 E82.50603
