; generated by Slic3r 1.3.1-dev (Build (Unknown revision)) on 2020-04-14 at 08:06:06

; external perimeters extrusion width = 0.44mm (2.86mm^3/s)
; perimeters extrusion width = 0.56mm (4.14mm^3/s)
; infill extrusion width = 0.50mm (3.66mm^3/s)
; solid infill extrusion width = 0.56mm (3.10mm^3/s)
; top infill extrusion width = 0.56mm (3.10mm^3/s)

M107
G92 E0
;D3D:START:START
T0
M104 S215 T0

G21
G90
M107
T0
G28
G29
M109 T0 S215 T0
G0 F3000
M107
T0
G92 E0
G0 X0 Y149 Z0.1 F3600
G1 Y49 E6.5 F1200
G0 Z1
G92 E0
; Filament gcode

G21 ; set units to millimeters
G90 ; use absolute coordinates
M82 ; use absolute distances for extrusion
G92 E0
G1 Z0.300 F7800.000
G1 E-2.00000 F2400.00000
G92 E0
G1 X65.499 Y58.051 F7800.000
G1 E2.00000 F2400.00000
G1 F1800.000
G1 X65.813 Y57.756 E2.01427
G1 X66.165 Y57.500 E2.02872
G1 X66.730 Y57.206 E2.04981
G1 X83.262 Y57.206 E2.59751
G1 X83.654 Y57.394 E2.61191
G1 X84.023 Y57.627 E2.62636
G1 X84.497 Y58.046 E2.64732
G1 X84.776 Y58.383 E2.66182
G1 X85.011 Y58.753 E2.67632
G1 X85.265 Y59.339 E2.69750
G1 X85.404 Y59.963 E2.71868
G1 X85.431 Y60.386 E2.73273
G1 X85.425 Y105.716 E4.23446
G1 X85.371 Y106.143 E4.24873
G1 X85.262 Y106.567 E4.26323
G1 X85.011 Y107.147 E4.28419
G1 X84.772 Y107.523 E4.29891
G1 X84.354 Y107.997 E4.31986
G1 X84.012 Y108.280 E4.33459
G1 X83.467 Y108.602 E4.35554
G1 X83.060 Y108.764 E4.37005
G1 X82.636 Y108.872 E4.38455
G1 X82.024 Y108.931 E4.40494
G1 X67.986 Y108.931 E4.86999
G1 X67.563 Y108.904 E4.88404
G1 X66.946 Y108.766 E4.90499
G1 X66.539 Y108.605 E4.91949
G1 X66.161 Y108.397 E4.93377
G1 X65.813 Y108.144 E4.94805
G1 X65.499 Y107.849 E4.96232
G1 X65.224 Y107.517 E4.97659
G1 X64.989 Y107.147 E4.99110
G1 X64.738 Y106.567 E5.01205
G1 X64.628 Y106.136 E5.02678
G1 X64.569 Y105.524 E5.04717
G1 X64.575 Y60.184 E6.54923
G1 X64.629 Y59.757 E6.56351
G1 X64.738 Y59.333 E6.57801
G1 X64.989 Y58.753 E6.59896
G1 X65.224 Y58.383 E6.61347
G1 X65.460 Y58.097 E6.62575
G1 X65.693 Y58.233 F7800.000
G1 F1800.000
G1 X65.982 Y57.961 E6.63892
G1 X66.305 Y57.726 E6.65216
G1 X66.795 Y57.472 E6.67044
G1 X83.202 Y57.472 E7.21399
G1 X83.525 Y57.627 E7.22587
G1 X83.863 Y57.841 E7.23910
G1 X84.306 Y58.231 E7.25867
G1 X84.561 Y58.539 E7.27193
G1 X84.775 Y58.877 E7.28518
G1 X85.011 Y59.422 E7.30484
G1 X85.140 Y60.001 E7.32449
G1 X85.165 Y60.395 E7.33757
G1 X85.159 Y105.699 E8.83847
G1 X85.109 Y106.093 E8.85164
G1 X85.010 Y106.481 E8.86490
G1 X84.775 Y107.023 E8.88446
G1 X84.559 Y107.363 E8.89781
G1 X84.169 Y107.806 E8.91737
G1 X83.859 Y108.063 E8.93071
G1 X83.350 Y108.363 E8.95028
G1 X82.978 Y108.510 E8.96354
G1 X82.591 Y108.610 E8.97679
G1 X82.011 Y108.665 E8.99608
G1 X67.995 Y108.665 E9.46043
G1 X67.601 Y108.640 E9.47351
G1 X67.024 Y108.511 E9.49308
G1 X66.652 Y108.364 E9.50634
G1 X66.304 Y108.173 E9.51950
G1 X65.982 Y107.939 E9.53267
G1 X65.693 Y107.667 E9.54584
G1 X65.439 Y107.361 E9.55901
G1 X65.225 Y107.023 E9.57227
G1 X64.990 Y106.481 E9.59183
G1 X64.890 Y106.091 E9.60518
G1 X64.835 Y105.511 E9.62447
G1 X64.841 Y60.201 E11.12556
G1 X64.891 Y59.807 E11.13872
G1 X64.990 Y59.419 E11.15198
G1 X65.225 Y58.877 E11.17155
G1 X65.439 Y58.539 E11.18480
G1 X65.654 Y58.279 E11.19598
G1 E9.19598 F2400.00000
G92 E0
G1 X61.841 Y88.244 F7800.000
G1 E2.00000 F2400.00000
G1 F1800.000
G1 X62.246 Y88.362 E2.01397
G1 X62.632 Y88.559 E2.02831
G1 X62.974 Y88.824 E2.04265
G1 X63.260 Y89.149 E2.05699
G1 X63.480 Y89.521 E2.07132
G1 X63.627 Y89.928 E2.08566
G1 X63.695 Y90.356 E2.10000
G1 X63.681 Y90.788 E2.11433
G1 X63.587 Y91.211 E2.12867
G1 X63.415 Y91.608 E2.14301
G1 X63.172 Y91.966 E2.15735
G1 X62.866 Y92.272 E2.17168
G1 X62.517 Y92.509 E2.18566
G1 X62.246 Y92.636 E2.19558
G1 X61.961 Y92.729 E2.20550
G1 X61.555 Y92.793 E2.21911
G1 X61.256 Y92.793 E2.22904
G1 X60.959 Y92.756 E2.23896
G1 X60.554 Y92.638 E2.25293
G1 X60.168 Y92.441 E2.26727
G1 X59.826 Y92.176 E2.28161
G1 X59.540 Y91.851 E2.29594
G1 X59.320 Y91.479 E2.31028
G1 X59.173 Y91.072 E2.32462
G1 X59.105 Y90.644 E2.33895
G1 X59.119 Y90.212 E2.35329
G1 X59.213 Y89.789 E2.36763
G1 X59.385 Y89.392 E2.38197
G1 X59.628 Y89.034 E2.39631
G1 X59.934 Y88.728 E2.41064
G1 X60.292 Y88.485 E2.42498
G1 X60.679 Y88.318 E2.43896
G1 X60.969 Y88.243 E2.44888
G1 X61.256 Y88.207 E2.45844
G1 X61.544 Y88.207 E2.46800
G1 X61.782 Y88.237 E2.47593
G1 X61.787 Y88.505 F7800.000
G1 F1800.000
G1 X62.148 Y88.610 E2.48838
G1 X62.489 Y88.784 E2.50105
G1 X62.791 Y89.018 E2.51373
G1 X63.044 Y89.305 E2.52640
G1 X63.239 Y89.635 E2.53908
G1 X63.369 Y89.995 E2.55175
G1 X63.428 Y90.372 E2.56442
G1 X63.417 Y90.755 E2.57710
G1 X63.333 Y91.128 E2.58977
G1 X63.181 Y91.479 E2.60245
G1 X62.966 Y91.796 E2.61512
G1 X62.696 Y92.066 E2.62779
G1 X62.385 Y92.277 E2.64024
G1 X62.148 Y92.389 E2.64892
G1 X61.899 Y92.470 E2.65759
G1 X61.534 Y92.527 E2.66982
G1 X61.272 Y92.527 E2.67850
G1 X61.013 Y92.495 E2.68717
G1 X60.652 Y92.390 E2.69962
G1 X60.311 Y92.216 E2.71229
G1 X60.009 Y91.982 E2.72497
G1 X59.756 Y91.695 E2.73764
G1 X59.561 Y91.365 E2.75032
G1 X59.431 Y91.005 E2.76299
G1 X59.372 Y90.628 E2.77566
G1 X59.383 Y90.245 E2.78834
G1 X59.467 Y89.872 E2.80101
G1 X59.619 Y89.521 E2.81369
G1 X59.834 Y89.204 E2.82636
G1 X60.104 Y88.934 E2.83903
G1 X60.421 Y88.719 E2.85171
G1 X60.766 Y88.570 E2.86416
G1 X61.019 Y88.505 E2.87283
G1 X61.272 Y88.473 E2.88128
G1 X61.528 Y88.473 E2.88974
G1 X61.728 Y88.498 E2.89642
G1 X61.733 Y88.766 F7800.000
G1 F1800.000
G1 X62.050 Y88.858 E2.90735
G1 X62.346 Y89.009 E2.91836
G1 X62.609 Y89.213 E2.92937
G1 X62.828 Y89.462 E2.94038
G1 X62.998 Y89.748 E2.95139
G1 X63.110 Y90.061 E2.96240
G1 X63.162 Y90.389 E2.97341
G1 X63.152 Y90.721 E2.98442
G1 X63.079 Y91.046 E2.99543
G1 X62.947 Y91.351 E3.00644
G1 X62.760 Y91.626 E3.01745
G1 X62.526 Y91.861 E3.02846
G1 X62.253 Y92.046 E3.03939
G1 X62.050 Y92.141 E3.04682
G1 X61.837 Y92.211 E3.05425
G1 X61.513 Y92.262 E3.06508
G1 X61.289 Y92.262 E3.07252
G1 X61.067 Y92.234 E3.07995
G1 X60.750 Y92.142 E3.09087
G1 X60.454 Y91.991 E3.10188
G1 X60.191 Y91.787 E3.11289
G1 X59.972 Y91.538 E3.12390
G1 X59.802 Y91.252 E3.13491
G1 X59.690 Y90.939 E3.14592
G1 X59.638 Y90.611 E3.15693
G1 X59.648 Y90.279 E3.16794
G1 X59.721 Y89.954 E3.17895
G1 X59.853 Y89.649 E3.18996
G1 X60.039 Y89.374 E3.20097
G1 X60.274 Y89.139 E3.21198
G1 X60.549 Y88.953 E3.22299
G1 X60.852 Y88.822 E3.23392
G1 X61.069 Y88.766 E3.24135
G1 X61.289 Y88.738 E3.24869
G1 X61.674 Y88.759 E3.26145
G1 E1.26145 F2400.00000
G92 E0
G1 X86.319 Y90.212 F7800.000
G1 E2.00000 F2400.00000
G1 F1800.000
G1 X86.413 Y89.789 E2.01434
G1 X86.585 Y89.392 E2.02868
G1 X86.828 Y89.034 E2.04302
G1 X87.134 Y88.728 E2.05735
G1 X87.492 Y88.485 E2.07169
G1 X87.879 Y88.318 E2.08566
G1 X88.169 Y88.243 E2.09559
G1 X88.456 Y88.207 E2.10514
G1 X88.744 Y88.207 E2.11471
G1 X89.041 Y88.244 E2.12463
G1 X89.446 Y88.362 E2.13860
G1 X89.832 Y88.559 E2.15294
G1 X90.174 Y88.824 E2.16728
G1 X90.460 Y89.149 E2.18161
G1 X90.680 Y89.521 E2.19595
G1 X90.827 Y89.928 E2.21029
G1 X90.895 Y90.356 E2.22462
G1 X90.881 Y90.788 E2.23896
G1 X90.787 Y91.211 E2.25330
G1 X90.615 Y91.608 E2.26764
G1 X90.372 Y91.966 E2.28198
G1 X90.066 Y92.272 E2.29631
G1 X89.717 Y92.509 E2.31029
G1 X89.446 Y92.636 E2.32021
G1 X89.161 Y92.729 E2.33013
G1 X88.755 Y92.793 E2.34374
G1 X88.456 Y92.793 E2.35366
G1 X88.159 Y92.756 E2.36359
G1 X87.754 Y92.638 E2.37756
G1 X87.368 Y92.441 E2.39189
G1 X87.026 Y92.176 E2.40624
G1 X86.740 Y91.851 E2.42057
G1 X86.520 Y91.479 E2.43491
G1 X86.373 Y91.072 E2.44925
G1 X86.305 Y90.644 E2.46358
G1 X86.317 Y90.272 E2.47593
G1 X86.583 Y90.245 F7800.000
G1 F1800.000
G1 X86.667 Y89.872 E2.48861
G1 X86.819 Y89.521 E2.50128
G1 X87.034 Y89.204 E2.51396
G1 X87.304 Y88.934 E2.52663
G1 X87.621 Y88.719 E2.53930
G1 X87.966 Y88.570 E2.55175
G1 X88.219 Y88.505 E2.56043
G1 X88.472 Y88.473 E2.56888
G1 X88.728 Y88.473 E2.57733
G1 X88.987 Y88.505 E2.58601
G1 X89.348 Y88.610 E2.59846
G1 X89.689 Y88.784 E2.61113
G1 X89.991 Y89.018 E2.62381
G1 X90.244 Y89.305 E2.63648
G1 X90.439 Y89.635 E2.64915
G1 X90.569 Y89.995 E2.66183
G1 X90.628 Y90.372 E2.67450
G1 X90.617 Y90.755 E2.68717
G1 X90.533 Y91.128 E2.69985
G1 X90.381 Y91.479 E2.71252
G1 X90.166 Y91.796 E2.72520
G1 X89.896 Y92.066 E2.73787
G1 X89.585 Y92.277 E2.75032
G1 X89.348 Y92.389 E2.75899
G1 X89.099 Y92.470 E2.76767
G1 X88.734 Y92.527 E2.77989
G1 X88.472 Y92.527 E2.78857
G1 X88.213 Y92.495 E2.79725
G1 X87.852 Y92.390 E2.80970
G1 X87.511 Y92.216 E2.82237
G1 X87.209 Y91.982 E2.83505
G1 X86.956 Y91.695 E2.84772
G1 X86.761 Y91.365 E2.86039
G1 X86.631 Y91.005 E2.87307
G1 X86.572 Y90.628 E2.88574
G1 X86.582 Y90.305 E2.89642
G1 X86.848 Y90.279 F7800.000
G1 F1800.000
G1 X86.921 Y89.954 E2.90744
G1 X87.053 Y89.649 E2.91845
G1 X87.239 Y89.374 E2.92946
G1 X87.474 Y89.139 E2.94047
G1 X87.749 Y88.953 E2.95148
G1 X88.052 Y88.822 E2.96240
G1 X88.269 Y88.766 E2.96983
G1 X88.489 Y88.738 E2.97717
G1 X88.711 Y88.738 E2.98452
G1 X88.933 Y88.766 E2.99195
G1 X89.250 Y88.858 E3.00288
G1 X89.546 Y89.009 E3.01388
G1 X89.809 Y89.213 E3.02490
G1 X90.028 Y89.462 E3.03591
G1 X90.198 Y89.748 E3.04692
G1 X90.310 Y90.061 E3.05793
G1 X90.362 Y90.389 E3.06894
G1 X90.352 Y90.721 E3.07995
G1 X90.279 Y91.046 E3.09096
G1 X90.147 Y91.351 E3.10197
G1 X89.960 Y91.626 E3.11298
G1 X89.726 Y91.861 E3.12399
G1 X89.453 Y92.046 E3.13491
G1 X89.250 Y92.141 E3.14234
G1 X89.037 Y92.211 E3.14977
G1 X88.713 Y92.262 E3.16061
G1 X88.489 Y92.262 E3.16804
G1 X88.267 Y92.234 E3.17547
G1 X87.950 Y92.142 E3.18640
G1 X87.654 Y91.991 E3.19741
G1 X87.391 Y91.787 E3.20842
G1 X87.172 Y91.538 E3.21943
G1 X87.002 Y91.252 E3.23044
G1 X86.890 Y90.939 E3.24145
G1 X86.838 Y90.611 E3.25246
G1 X86.846 Y90.339 E3.26148
G1 E1.26148 F2400.00000
G92 E0
G1 X83.694 Y108.941 F7800.000
G1 E2.00000 F2400.00000
G1 F1800.000
G1 X83.636 Y108.811 E2.00472
G1 X84.165 Y108.498 E2.02507
G1 X84.540 Y108.188 E2.04119
G1 X84.986 Y107.683 E2.06352
G1 X85.246 Y107.272 E2.07963
G1 X85.514 Y106.653 E2.10197
G1 X85.632 Y106.193 E2.11772
G1 X85.690 Y105.732 E2.13310
G1 X85.696 Y60.378 E3.63566
G1 X85.668 Y59.926 E3.65068
G1 X85.518 Y59.257 E3.67339
G1 X85.246 Y58.628 E3.69609
G1 X84.991 Y58.227 E3.71184
G1 X84.688 Y57.860 E3.72758
G1 X84.183 Y57.414 E3.74992
G1 X83.783 Y57.161 E3.76560
G1 X83.322 Y56.940 E3.78252
G1 X66.665 Y56.940 E4.33436
G1 X66.025 Y57.273 E4.35826
G1 X65.643 Y57.551 E4.37392
G1 X65.305 Y57.869 E4.38930
G1 X65.009 Y58.227 E4.40468
G1 X64.754 Y58.628 E4.42043
G1 X64.486 Y59.247 E4.44277
G1 X64.368 Y59.707 E4.45852
G1 X64.310 Y60.168 E4.47390
G1 X64.304 Y105.536 E5.97693
G1 X64.365 Y106.182 E5.99843
G1 X64.486 Y106.653 E6.01454
G1 X64.754 Y107.272 E6.03688
G1 X65.009 Y107.673 E6.05263
G1 X65.305 Y108.031 E6.06801
G1 X65.643 Y108.349 E6.08339
G1 X66.019 Y108.622 E6.09878
G1 X66.350 Y108.804 E6.11130
G1 X66.293 Y108.937 E6.11610
G1 X65.330 Y108.589 E6.15003
G1 X64.467 Y108.233 E6.18093
G1 X63.627 Y107.846 E6.21157
G1 X62.811 Y107.427 E6.24196
G1 X62.020 Y106.976 E6.27212
G1 X61.255 Y106.495 E6.30206
G1 X60.518 Y105.984 E6.33180
G1 X59.808 Y105.443 E6.36136
G1 X59.128 Y104.873 E6.39076
G1 X58.478 Y104.274 E6.42004
G1 X57.859 Y103.647 E6.44921
G1 X57.273 Y102.993 E6.47832
G1 X56.719 Y102.312 E6.50739
G1 X56.199 Y101.605 E6.53647
G1 X55.714 Y100.872 E6.56559
G1 X55.263 Y100.115 E6.59480
G1 X54.848 Y99.332 E6.62414
G1 X54.469 Y98.526 E6.65365
G1 X54.127 Y97.697 E6.68338
G1 X53.821 Y96.844 E6.71338
G1 X53.552 Y95.970 E6.74367
G1 X53.320 Y95.075 E6.77432
G1 X53.125 Y94.159 E6.80534
G1 X52.967 Y93.224 E6.83678
G1 X52.845 Y92.269 E6.86866
G1 X52.760 Y91.296 E6.90100
G1 X52.712 Y90.306 E6.93384
G1 X52.699 Y89.300 E6.96717
G1 X52.721 Y88.279 E7.00101
G1 X52.777 Y87.243 E7.03538
G1 X52.867 Y86.195 E7.07025
G1 X52.990 Y85.134 E7.10563
G1 X53.145 Y84.062 E7.14152
G1 X53.331 Y82.980 E7.17789
G1 X53.547 Y81.889 E7.21473
G1 X53.790 Y80.794 E7.25188
G1 X54.361 Y78.575 E7.32780
G1 X55.032 Y76.340 E7.40510
G1 X55.399 Y75.226 E7.44395
G1 X56.202 Y72.981 E7.52293
G1 X56.628 Y71.868 E7.56243
G1 X57.537 Y69.637 E7.64223
G1 X58.011 Y68.535 E7.68198
G1 X59.001 Y66.342 E7.76169
G1 X60.562 Y63.116 E7.88042
G1 X61.637 Y61.027 E7.95827
G1 X62.730 Y58.992 E8.03478
G1 X64.383 Y56.058 E8.14637
G1 X65.479 Y54.197 E8.21790
G1 X66.561 Y52.418 E8.28687
G1 X67.619 Y50.731 E8.35286
G1 X69.144 Y48.379 E8.44572
G1 X70.105 Y46.946 E8.50289
G1 X71.444 Y45.004 E8.58103
G1 X72.995 Y42.837 E8.66932
G1 X74.624 Y40.652 E8.75962
G1 X75.001 Y40.181 E8.77961
G1 X75.529 Y40.852 E8.80792
G1 X77.005 Y42.837 E8.88985
G1 X78.556 Y45.004 E8.97815
G1 X79.895 Y46.946 E9.05630
G1 X80.856 Y48.379 E9.11346
G1 X82.381 Y50.731 E9.20632
G1 X83.439 Y52.418 E9.27231
G1 X84.521 Y54.197 E9.34128
G1 X85.617 Y56.058 E9.41282
G1 X87.270 Y58.992 E9.52440
G1 X88.363 Y61.027 E9.60091
G1 X89.438 Y63.116 E9.67877
G1 X90.999 Y66.342 E9.79750
G1 X91.989 Y68.535 E9.87720
G1 X92.463 Y69.637 E9.91695
G1 X93.372 Y71.868 E9.99675
G1 X93.798 Y72.981 E10.03625
G1 X94.601 Y75.226 E10.11523
G1 X94.968 Y76.340 E10.15408
G1 X95.639 Y78.575 E10.23139
G1 X96.210 Y80.794 E10.30730
G1 X96.453 Y81.889 E10.34446
G1 X96.669 Y82.980 E10.38130
G1 X96.855 Y84.062 E10.41767
G1 X97.010 Y85.134 E10.45355
G1 X97.133 Y86.195 E10.48893
G1 X97.223 Y87.243 E10.52381
G1 X97.279 Y88.279 E10.55817
G1 X97.301 Y89.300 E10.59202
G1 X97.288 Y90.306 E10.62535
G1 X97.240 Y91.296 E10.65818
G1 X97.155 Y92.269 E10.69053
G1 X97.033 Y93.224 E10.72241
G1 X96.875 Y94.159 E10.75385
G1 X96.680 Y95.075 E10.78487
G1 X96.448 Y95.970 E10.81551
G1 X96.179 Y96.844 E10.84581
G1 X95.873 Y97.697 E10.87580
G1 X95.531 Y98.526 E10.90554
G1 X95.152 Y99.332 E10.93505
G1 X94.737 Y100.115 E10.96439
G1 X94.286 Y100.872 E10.99359
G1 X93.801 Y101.605 E11.02272
G1 X93.281 Y102.312 E11.05179
G1 X92.727 Y102.993 E11.08087
G1 X92.141 Y103.647 E11.10997
G1 X91.522 Y104.274 E11.13915
G1 X90.872 Y104.873 E11.16842
G1 X90.192 Y105.443 E11.19783
G1 X89.482 Y105.984 E11.22738
G1 X88.745 Y106.495 E11.25712
G1 X87.980 Y106.976 E11.28706
G1 X87.189 Y107.427 E11.31722
G1 X86.373 Y107.846 E11.34761
G1 X85.533 Y108.233 E11.37825
G1 X84.670 Y108.589 E11.40916
G1 X83.752 Y108.923 E11.44154
G1 X82.552 Y109.293 F7800.000
G1 F1800.000
G1 X81.956 Y109.459 E11.46202
G1 X81.013 Y109.682 E11.49414
G1 X80.052 Y109.871 E11.52660
G1 X79.072 Y110.026 E11.55944
G1 X78.076 Y110.148 E11.59269
G1 X77.064 Y110.234 E11.62636
G1 X76.032 Y110.286 E11.66057
G1 X75.009 Y110.301 E11.69447
G1 X73.968 Y110.286 E11.72898
G1 X72.936 Y110.234 E11.76318
G1 X71.924 Y110.148 E11.79685
G1 X70.928 Y110.026 E11.83010
G1 X69.948 Y109.871 E11.86295
G1 X68.987 Y109.682 E11.89541
G1 X68.044 Y109.459 E11.92753
G1 X67.507 Y109.310 E11.94596
G1 X67.531 Y109.168 E11.95072
G1 X67.978 Y109.196 E11.96555
G1 X82.036 Y109.196 E12.43128
G1 X82.525 Y109.150 E12.44756
G1 X82.541 Y109.234 E12.45041
G1 E10.45041 F2400.00000
G92 E0
G1 X75.002 Y39.753 F7800.000
G1 E2.00000 F2400.00000
G1 F1800.000
G1 X75.740 Y40.691 E2.03954
G1 X77.219 Y42.680 E2.12166
G1 X78.773 Y44.852 E2.21013
G1 X80.115 Y46.797 E2.28841
G1 X81.077 Y48.233 E2.34569
G1 X82.605 Y50.588 E2.43869
G1 X83.665 Y52.279 E2.50481
G1 X84.749 Y54.061 E2.57390
G1 X85.847 Y55.925 E2.64558
G1 X87.503 Y58.864 E2.75734
G1 X88.598 Y60.903 E2.83402
G1 X89.676 Y62.998 E2.91206
G1 X91.240 Y66.230 E3.03101
G1 X92.232 Y68.428 E3.11091
G1 X92.708 Y69.535 E3.15083
G1 X93.619 Y71.770 E3.23080
G1 X94.047 Y72.889 E3.27049
G1 X94.852 Y75.140 E3.34968
G1 X95.221 Y76.260 E3.38876
G1 X95.895 Y78.503 E3.46636
G1 X96.468 Y80.732 E3.54260
G1 X96.713 Y81.834 E3.58000
G1 X96.930 Y82.931 E3.61705
G1 X97.117 Y84.020 E3.65365
G1 X97.273 Y85.099 E3.68977
G1 X97.397 Y86.168 E3.72541
G1 X97.488 Y87.225 E3.76055
G1 X97.545 Y88.269 E3.79520
G1 X97.567 Y89.299 E3.82934
G1 X97.554 Y90.315 E3.86298
G1 X97.505 Y91.314 E3.89614
G1 X97.419 Y92.297 E3.92883
G1 X97.296 Y93.262 E3.96106
G1 X97.136 Y94.209 E3.99287
G1 X96.939 Y95.136 E4.02427
G1 X96.704 Y96.043 E4.05530
G1 X96.431 Y96.928 E4.08600
G1 X96.121 Y97.792 E4.11641
G1 X95.774 Y98.633 E4.14656
G1 X95.389 Y99.451 E4.17649
G1 X94.968 Y100.245 E4.20626
G1 X94.511 Y101.014 E4.23589
G1 X94.019 Y101.757 E4.26544
G1 X93.491 Y102.475 E4.29495
G1 X92.929 Y103.166 E4.32445
G1 X92.334 Y103.829 E4.35398
