; generated by Slic3r 1.3.1-dev (Build 2d100c4) on 2020-07-30 at 17:28:24

; external perimeters extrusion width = 0.44mm (2.86mm^3/s)
; perimeters extrusion width = 0.56mm (4.14mm^3/s)
; infill extrusion width = 0.50mm (3.66mm^3/s)
; solid infill extrusion width = 0.56mm (3.10mm^3/s)
; top infill extrusion width = 0.56mm (3.10mm^3/s)

M107
G92 E0
;D3D:START:START
T0
M104 S215 T0

G21
G90
M107
T0
G28
G29
M109 T0 S215 T0
G0 F3000
M107
T0
G92 E0
G0 X0 Y149 Z0.1 F3600
G1 Y49 E6.5 F1200
G0 Z1
G92 E0
; Filament gcode

G21 ; set units to millimeters
G90 ; use absolute coordinates
M82 ; use absolute distances for extrusion
G92 E0
G1 Z0.300 F7800.000
G1 E-2.00000 F2400.00000
G92 E0
G1 X50.227 Y81.701 F7800.000
G1 E2.00000 F2400.00000
G1 F1800.000
G1 X99.773 Y81.701 E3.64146
G1 X99.773 Y66.691 E4.13873
G1 X100.220 Y66.691 E4.15353
G1 X100.659 Y67.164 E4.17491
G1 X101.208 Y67.895 E4.20521
G1 X101.735 Y68.781 E4.23935
G1 X102.189 Y69.792 E4.27604
G1 X102.547 Y70.931 E4.31561
G1 X102.749 Y71.959 E4.35033
G1 X102.807 Y72.418 E4.36564
G1 X102.883 Y73.566 E4.40377
G1 X102.883 Y83.309 E4.72653
G1 X47.117 Y83.309 E6.57404
G1 X47.117 Y73.566 E6.89680
G1 X47.194 Y72.413 E6.93509
G1 X47.251 Y71.960 E6.95023
G1 X47.454 Y70.929 E6.98503
G1 X47.755 Y69.948 E7.01904
G1 X48.209 Y68.892 E7.05711
G1 X48.793 Y67.894 E7.09544
G1 X49.341 Y67.164 E7.12565
G1 X49.780 Y66.691 E7.14704
G1 X50.227 Y66.691 E7.16183
G1 X50.227 Y81.641 E7.65712
G1 X50.492 Y81.436 F7800.000
G1 F1800.000
G1 X99.508 Y81.436 E9.28098
G1 X99.508 Y66.426 E9.77825
G1 X100.336 Y66.426 E9.80568
G1 X100.863 Y66.994 E9.83136
G1 X101.429 Y67.747 E9.86259
G1 X101.971 Y68.658 E9.89771
G1 X102.437 Y69.697 E9.93543
G1 X102.804 Y70.866 E9.97600
G1 X103.011 Y71.917 E10.01151
G1 X103.071 Y72.392 E10.02738
G1 X103.149 Y73.558 E10.06607
G1 X103.149 Y83.574 E10.39792
G1 X46.851 Y83.574 E12.26302
G1 X46.851 Y73.558 E12.59488
G1 X46.929 Y72.388 E12.63372
G1 X46.989 Y71.917 E12.64943
G1 X47.196 Y70.864 E12.68499
G1 X47.506 Y69.856 E12.71993
G1 X47.971 Y68.772 E12.75901
G1 X48.572 Y67.746 E12.79839
G1 X49.137 Y66.994 E12.82957
G1 X49.664 Y66.426 E12.85525
G1 X50.492 Y66.426 E12.88268
G1 X50.492 Y81.376 E13.37797
G1 X50.758 Y81.170 F7800.000
G1 F1800.000
G1 X99.242 Y81.170 E14.98423
G1 X99.242 Y66.160 E15.48150
G1 X100.452 Y66.160 E15.52157
G1 X101.067 Y66.823 E15.55155
G1 X101.650 Y67.599 E15.58371
G1 X102.207 Y68.536 E15.61981
G1 X102.686 Y69.603 E15.65855
G1 X103.062 Y70.800 E15.70012
G1 X103.274 Y71.875 E15.73642
G1 X103.336 Y72.367 E15.75285
G1 X103.414 Y73.549 E15.79209
G1 X103.414 Y83.840 E16.13303
G1 X46.586 Y83.840 E18.01574
G1 X46.586 Y73.549 E18.35668
G1 X46.665 Y72.362 E18.39608
G1 X46.726 Y71.875 E18.41235
G1 X46.938 Y70.799 E18.44867
G1 X47.256 Y69.764 E18.48454
G1 X47.733 Y68.652 E18.52465
G1 X48.350 Y67.599 E18.56508
G1 X48.933 Y66.823 E18.59722
G1 X49.548 Y66.160 E18.62719
G1 X50.758 Y66.160 E18.66727
G1 X50.758 Y81.110 E19.16255
G1 E17.16255 F2400.00000
G92 E0
G1 X49.793 Y67.060 F7800.000
G1 E2.00000 F2400.00000
G1 F1800.000
G1 X50.000 Y66.854 E2.00969
G1 X50.064 Y66.854 E2.01184
G1 X50.064 Y67.165 E2.02216
G1 X48.666 Y68.563 E2.08772
G1 X48.343 Y69.115 E2.10895
G1 X48.232 Y69.373 E2.11826
G1 X50.064 Y67.541 E2.20419
G1 X50.064 Y67.917 E2.21665
G1 X47.949 Y70.032 E2.31585
G1 X47.763 Y70.594 E2.33549
G1 X50.064 Y68.293 E2.44342
G1 X50.064 Y68.669 E2.45588
G1 X47.602 Y71.131 E2.57137
G1 X47.510 Y71.599 E2.58719
G1 X50.064 Y69.045 E2.70700
G1 X50.064 Y69.421 E2.71946
G1 X47.418 Y72.067 E2.84359
G1 X47.360 Y72.501 E2.85809
G1 X50.064 Y69.797 E2.98490
G1 X50.064 Y70.173 E2.99737
G1 X47.331 Y72.906 E3.12557
G1 X47.304 Y73.309 E3.13896
G1 X50.064 Y70.549 E3.26842
G1 X50.064 Y70.925 E3.28089
G1 X47.279 Y73.710 E3.41150
G1 X47.279 Y74.086 E3.42397
G1 X50.064 Y71.301 E3.55458
G1 X50.064 Y71.677 E3.56705
G1 X47.279 Y74.462 E3.69766
G1 X47.279 Y74.838 E3.71013
G1 X50.064 Y72.053 E3.84075
G1 X50.064 Y72.429 E3.85322
G1 X47.279 Y75.214 E3.98383
G1 X47.279 Y75.590 E3.99630
G1 X50.064 Y72.805 E4.12691
G1 X50.064 Y73.181 E4.13938
G1 X47.279 Y75.966 E4.26999
G1 X47.279 Y76.342 E4.28246
G1 X50.064 Y73.557 E4.41308
G1 X50.064 Y73.933 E4.42555
G1 X47.279 Y76.718 E4.55616
G1 X47.279 Y77.094 E4.56863
G1 X50.064 Y74.309 E4.69924
G1 X50.064 Y74.685 E4.71171
G1 X47.279 Y77.470 E4.84232
G1 X47.279 Y77.846 E4.85479
G1 X50.064 Y75.061 E4.98541
G1 X50.064 Y75.437 E4.99788
G1 X47.279 Y78.222 E5.12849
G1 X47.279 Y78.598 E5.14096
G1 X50.064 Y75.813 E5.27157
G1 X50.064 Y76.189 E5.28404
G1 X47.279 Y78.974 E5.41465
G1 X47.279 Y79.350 E5.42712
G1 X50.064 Y76.565 E5.55774
G1 X50.064 Y76.941 E5.57020
G1 X47.279 Y79.726 E5.70082
G1 X47.279 Y80.102 E5.71329
G1 X50.064 Y77.317 E5.84390
G1 X50.064 Y77.693 E5.85637
G1 X47.279 Y80.478 E5.98698
G1 X47.279 Y80.854 E5.99945
G1 X50.064 Y78.069 E6.13007
G1 X50.064 Y78.445 E6.14253
G1 X47.279 Y81.230 E6.27315
G1 X47.279 Y81.606 E6.28562
G1 X50.064 Y78.821 E6.41623
G1 X50.064 Y79.197 E6.42870
G1 X47.279 Y81.982 E6.55931
G1 X47.279 Y82.358 E6.57178
G1 X50.064 Y79.573 E6.70240
G1 X50.064 Y79.949 E6.71486
G1 X47.279 Y82.734 E6.84548
G1 X47.279 Y83.110 E6.85795
G1 X50.064 Y80.325 E6.98856
G1 X50.064 Y80.701 E7.00103
G1 X47.618 Y83.146 E7.11573
G1 X47.994 Y83.146 E7.12820
G1 X50.064 Y81.077 E7.22527
G1 X50.064 Y81.453 E7.23774
G1 X48.370 Y83.146 E7.31718
G1 X48.746 Y83.146 E7.32965
G1 X50.064 Y81.829 E7.39145
G1 X50.064 Y81.864 E7.39261
G1 X50.405 Y81.864 E7.40392
G1 X49.122 Y83.146 E7.46409
G1 X49.498 Y83.146 E7.47656
G1 X50.781 Y81.864 E7.53672
G1 X51.157 Y81.864 E7.54919
G1 X49.874 Y83.146 E7.60935
G1 X50.250 Y83.146 E7.62182
G1 X51.533 Y81.864 E7.68199
G1 X51.909 Y81.864 E7.69446
G1 X50.626 Y83.146 E7.75462
G1 X51.002 Y83.146 E7.76709
G1 X52.285 Y81.864 E7.82725
G1 X52.661 Y81.864 E7.83972
G1 X51.378 Y83.146 E7.89989
G1 X51.754 Y83.146 E7.91236
G1 X53.037 Y81.864 E7.97252
G1 X53.413 Y81.864 E7.98499
G1 X52.130 Y83.146 E8.04515
G1 X52.506 Y83.146 E8.05762
G1 X53.789 Y81.864 E8.11779
G1 X54.165 Y81.864 E8.13026
G1 X52.882 Y83.146 E8.19042
G1 X53.258 Y83.146 E8.20289
G1 X54.541 Y81.864 E8.26305
G1 X54.917 Y81.864 E8.27552
G1 X53.634 Y83.146 E8.33569
G1 X54.010 Y83.146 E8.34816
G1 X55.293 Y81.864 E8.40832
G1 X55.669 Y81.864 E8.42079
G1 X54.386 Y83.146 E8.48095
G1 X54.762 Y83.146 E8.49342
G1 X56.045 Y81.864 E8.55359
G1 X56.421 Y81.864 E8.56605
G1 X55.138 Y83.146 E8.62622
G1 X55.514 Y83.146 E8.63869
G1 X56.797 Y81.864 E8.69885
G1 X57.173 Y81.864 E8.71132
G1 X55.890 Y83.146 E8.77149
G1 X56.266 Y83.146 E8.78395
G1 X57.549 Y81.864 E8.84412
G1 X57.925 Y81.864 E8.85659
G1 X56.642 Y83.146 E8.91675
G1 X57.018 Y83.146 E8.92922
G1 X58.301 Y81.864 E8.98939
G1 X58.677 Y81.864 E9.00185
G1 X57.394 Y83.146 E9.06202
G1 X57.770 Y83.146 E9.07449
G1 X59.053 Y81.864 E9.13465
G1 X59.429 Y81.864 E9.14712
G1 X58.146 Y83.146 E9.20729
G1 X58.522 Y83.146 E9.21975
G1 X59.805 Y81.864 E9.27992
G1 X60.181 Y81.864 E9.29239
G1 X58.898 Y83.146 E9.35255
G1 X59.274 Y83.146 E9.36502
G1 X60.557 Y81.864 E9.42519
G1 X60.933 Y81.864 E9.43765
G1 X59.650 Y83.146 E9.49782
G1 X60.026 Y83.146 E9.51029
G1 X61.309 Y81.864 E9.57045
G1 X61.685 Y81.864 E9.58292
G1 X60.402 Y83.146 E9.64308
G1 X60.778 Y83.146 E9.65555
G1 X62.061 Y81.864 E9.71572
G1 X62.437 Y81.864 E9.72819
G1 X61.154 Y83.146 E9.78835
G1 X61.530 Y83.146 E9.80082
G1 X62.813 Y81.864 E9.86098
G1 X63.189 Y81.864 E9.87345
G1 X61.906 Y83.146 E9.93362
G1 X62.282 Y83.146 E9.94609
G1 X63.565 Y81.864 E10.00625
G1 X63.941 Y81.864 E10.01872
G1 X62.658 Y83.146 E10.07888
G1 X63.034 Y83.146 E10.09135
G1 X64.317 Y81.864 E10.15152
G1 X64.693 Y81.864 E10.16399
G1 X63.410 Y83.146 E10.22415
G1 X63.786 Y83.146 E10.23662
G1 X65.069 Y81.864 E10.29678
G1 X65.445 Y81.864 E10.30925
G1 X64.162 Y83.146 E10.36942
G1 X64.538 Y83.146 E10.38189
G1 X65.821 Y81.864 E10.44205
G1 X66.197 Y81.864 E10.45452
G1 X64.914 Y83.146 E10.51468
G1 X65.290 Y83.146 E10.52715
G1 X66.573 Y81.864 E10.58732
G1 X66.949 Y81.864 E10.59979
G1 X65.666 Y83.146 E10.65995
G1 X66.042 Y83.146 E10.67242
G1 X67.325 Y81.864 E10.73258
G1 X67.701 Y81.864 E10.74505
G1 X66.418 Y83.146 E10.80522
G1 X66.794 Y83.146 E10.81768
G1 X68.077 Y81.864 E10.87785
G1 X68.453 Y81.864 E10.89032
G1 X67.170 Y83.146 E10.95048
G1 X67.546 Y83.146 E10.96295
G1 X68.829 Y81.864 E11.02312
G1 X69.205 Y81.864 E11.03558
G1 X67.922 Y83.146 E11.09575
G1 X68.298 Y83.146 E11.10822
G1 X69.581 Y81.864 E11.16838
G1 X69.957 Y81.864 E11.18085
G1 X68.674 Y83.146 E11.24102
G1 X69.050 Y83.146 E11.25348
G1 X70.333 Y81.864 E11.31365
G1 X70.709 Y81.864 E11.32612
G1 X69.426 Y83.146 E11.38628
G1 X69.802 Y83.146 E11.39875
G1 X71.085 Y81.864 E11.45892
G1 X71.461 Y81.864 E11.47138
G1 X70.178 Y83.146 E11.53155
G1 X70.554 Y83.146 E11.54402
G1 X71.837 Y81.864 E11.60418
G1 X72.213 Y81.864 E11.61665
G1 X70.930 Y83.146 E11.67682
G1 X71.306 Y83.146 E11.68928
G1 X72.589 Y81.864 E11.74945
G1 X72.965 Y81.864 E11.76192
G1 X71.682 Y83.146 E11.82208
G1 X72.058 Y83.146 E11.83455
G1 X73.341 Y81.864 E11.89471
G1 X73.717 Y81.864 E11.90718
G1 X72.434 Y83.146 E11.96735
G1 X72.810 Y83.146 E11.97982
G1 X74.093 Y81.864 E12.03998
G1 X74.469 Y81.864 E12.05245
G1 X73.186 Y83.146 E12.11261
G1 X73.562 Y83.146 E12.12508
G1 X74.845 Y81.864 E12.18525
G1 X75.221 Y81.864 E12.19772
G1 X73.938 Y83.146 E12.25788
G1 X74.314 Y83.146 E12.27035
G1 X75.597 Y81.864 E12.33051
G1 X75.973 Y81.864 E12.34298
G1 X74.690 Y83.146 E12.40315
G1 X75.066 Y83.146 E12.41562
G1 X76.349 Y81.864 E12.47578
G1 X76.725 Y81.864 E12.48825
G1 X75.442 Y83.146 E12.54841
G1 X75.818 Y83.146 E12.56088
G1 X77.101 Y81.864 E12.62105
G1 X77.477 Y81.864 E12.63352
G1 X76.194 Y83.146 E12.69368
G1 X76.570 Y83.146 E12.70615
G1 X77.853 Y81.864 E12.76631
G1 X78.229 Y81.864 E12.77878
G1 X76.946 Y83.146 E12.83895
G1 X77.322 Y83.146 E12.85142
G1 X78.605 Y81.864 E12.91158
G1 X78.981 Y81.864 E12.92405
G1 X77.698 Y83.146 E12.98421
G1 X78.074 Y83.146 E12.99668
G1 X79.357 Y81.864 E13.05685
G1 X79.733 Y81.864 E13.06931
G1 X78.450 Y83.146 E13.12948
G1 X78.826 Y83.146 E13.14195
G1 X80.109 Y81.864 E13.20211
G1 X80.485 Y81.864 E13.21458
G1 X79.202 Y83.146 E13.27475
G1 X79.578 Y83.146 E13.28721
G1 X80.861 Y81.864 E13.34738
G1 X81.237 Y81.864 E13.35985
G1 X79.954 Y83.146 E13.42001
G1 X80.330 Y83.146 E13.43248
G1 X81.613 Y81.864 E13.49265
G1 X81.989 Y81.864 E13.50511
G1 X80.706 Y83.146 E13.56528
G1 X81.082 Y83.146 E13.57775
G1 X82.365 Y81.864 E13.63791
G1 X82.741 Y81.864 E13.65038
G1 X81.458 Y83.146 E13.71055
G1 X81.834 Y83.146 E13.72301
G1 X83.117 Y81.864 E13.78318
G1 X83.493 Y81.864 E13.79565
G1 X82.210 Y83.146 E13.85581
G1 X82.586 Y83.146 E13.86828
G1 X83.869 Y81.864 E13.92845
G1 X84.245 Y81.864 E13.94091
G1 X82.962 Y83.146 E14.00108
G1 X83.338 Y83.146 E14.01355
G1 X84.621 Y81.864 E14.07371
G1 X84.997 Y81.864 E14.08618
G1 X83.714 Y83.146 E14.14634
G1 X84.090 Y83.146 E14.15881
G1 X85.373 Y81.864 E14.21898
G1 X85.749 Y81.864 E14.23145
G1 X84.466 Y83.146 E14.29161
G1 X84.842 Y83.146 E14.30408
G1 X86.125 Y81.864 E14.36424
G1 X86.501 Y81.864 E14.37671
G1 X85.218 Y83.146 E14.43688
G1 X85.594 Y83.146 E14.44935
G1 X86.877 Y81.864 E14.50951
G1 X87.253 Y81.864 E14.52198
G1 X85.970 Y83.146 E14.58214
G1 X86.346 Y83.146 E14.59461
G1 X87.629 Y81.864 E14.65478
G1 X88.005 Y81.864 E14.66725
G1 X86.722 Y83.146 E14.72741
G1 X87.098 Y83.146 E14.73988
G1 X88.381 Y81.864 E14.80004
G1 X88.757 Y81.864 E14.81251
G1 X87.474 Y83.146 E14.87268
G1 X87.850 Y83.146 E14.88515
G1 X89.133 Y81.864 E14.94531
G1 X89.509 Y81.864 E14.95778
G1 X88.226 Y83.146 E15.01794
G1 X88.602 Y83.146 E15.03041
G1 X89.885 Y81.864 E15.09058
G1 X90.261 Y81.864 E15.10305
G1 X88.978 Y83.146 E15.16321
G1 X89.354 Y83.146 E15.17568
G1 X90.637 Y81.864 E15.23584
G1 X91.013 Y81.864 E15.24831
G1 X89.730 Y83.146 E15.30848
G1 X90.106 Y83.146 E15.32095
G1 X91.389 Y81.864 E15.38111
G1 X91.765 Y81.864 E15.39358
G1 X90.482 Y83.146 E15.45374
G1 X90.858 Y83.146 E15.46621
G1 X92.141 Y81.864 E15.52638
G1 X92.517 Y81.864 E15.53885
G1 X91.234 Y83.146 E15.59901
G1 X91.610 Y83.146 E15.61148
G1 X92.893 Y81.864 E15.67164
G1 X93.269 Y81.864 E15.68411
G1 X91.986 Y83.146 E15.74428
G1 X92.362 Y83.146 E15.75674
G1 X93.645 Y81.864 E15.81691
G1 X94.021 Y81.864 E15.82938
G1 X92.738 Y83.146 E15.88954
G1 X93.114 Y83.146 E15.90201
G1 X94.397 Y81.864 E15.96218
G1 X94.773 Y81.864 E15.97464
G1 X93.490 Y83.146 E16.03481
G1 X93.866 Y83.146 E16.04728
G1 X95.149 Y81.864 E16.10744
G1 X95.525 Y81.864 E16.11991
G1 X94.242 Y83.146 E16.18008
G1 X94.618 Y83.146 E16.19254
G1 X95.901 Y81.864 E16.25271
G1 X96.277 Y81.864 E16.26518
G1 X94.994 Y83.146 E16.32534
G1 X95.370 Y83.146 E16.33781
G1 X96.653 Y81.864 E16.39798
G1 X97.029 Y81.864 E16.41044
G1 X95.746 Y83.146 E16.47061
G1 X96.122 Y83.146 E16.48308
G1 X97.405 Y81.864 E16.54324
G1 X97.781 Y81.864 E16.55571
G1 X96.498 Y83.146 E16.61587
G1 X96.874 Y83.146 E16.62834
G1 X98.157 Y81.864 E16.68851
G1 X98.533 Y81.864 E16.70098
G1 X97.250 Y83.146 E16.76114
G1 X97.626 Y83.146 E16.77361
G1 X98.909 Y81.864 E16.83377
G1 X99.285 Y81.864 E16.84624
G1 X98.002 Y83.146 E16.90641
G1 X98.378 Y83.146 E16.91888
G1 X99.661 Y81.864 E16.97904
G1 X100.037 Y81.864 E16.99151
G1 X98.754 Y83.146 E17.05167
G1 X99.130 Y83.146 E17.06414
G1 X102.721 Y79.556 E17.23253
G1 X102.721 Y79.932 E17.24500
G1 X99.506 Y83.146 E17.39576
G1 X99.882 Y83.146 E17.40823
G1 X102.721 Y80.308 E17.54136
G1 X102.721 Y80.684 E17.55382
G1 X100.258 Y83.146 E17.66932
G1 X100.634 Y83.146 E17.68179
G1 X102.721 Y81.060 E17.77965
G1 X102.721 Y81.436 E17.79211
G1 X101.010 Y83.146 E17.87234
G1 X101.386 Y83.146 E17.88481
G1 X102.721 Y81.812 E17.94740
G1 X102.721 Y82.188 E17.95987
G1 X101.762 Y83.146 E18.00483
G1 X102.138 Y83.146 E18.01730
G1 X102.721 Y82.564 E18.04463
G1 X102.721 Y82.940 E18.05710
G1 X102.514 Y83.146 E18.06679
G1 E16.06679 F2400.00000
G92 E0
G1 X99.936 Y81.965 F7800.000
G1 E2.00000 F2400.00000
G1 F1800.000
G1 X102.721 Y79.180 E2.13061
G1 X102.721 Y78.804 E2.14308
G1 X99.936 Y81.589 E2.27370
G1 X99.936 Y81.213 E2.28616
G1 X102.721 Y78.428 E2.41678
G1 X102.721 Y78.052 E2.42925
G1 X99.936 Y80.837 E2.55986
G1 X99.936 Y80.461 E2.57233
G1 X102.721 Y77.676 E2.70294
G1 X102.721 Y77.300 E2.71541
G1 X99.936 Y80.085 E2.84603
G1 X99.936 Y79.709 E2.85849
G1 X102.721 Y76.924 E2.98911
G1 X102.721 Y76.548 E3.00158
G1 X99.936 Y79.333 E3.13219
G1 X99.936 Y78.957 E3.14466
G1 X102.721 Y76.172 E3.27527
G1 X102.721 Y75.796 E3.28774
G1 X99.936 Y78.581 E3.41836
G1 X99.936 Y78.205 E3.43082
G1 X102.721 Y75.420 E3.56144
G1 X102.721 Y75.044 E3.57391
G1 X99.936 Y77.829 E3.70452
G1 X99.936 Y77.453 E3.71699
G1 X102.721 Y74.668 E3.84760
G1 X102.721 Y74.292 E3.86007
G1 X99.936 Y77.077 E3.99069
G1 X99.936 Y76.701 E4.00315
G1 X102.721 Y73.916 E4.13377
G1 X102.721 Y73.540 E4.14624
G1 X99.936 Y76.325 E4.27685
G1 X99.936 Y75.949 E4.28932
G1 X102.702 Y73.183 E4.41903
G1 X102.678 Y72.831 E4.43075
G1 X99.936 Y75.573 E4.55936
G1 X99.936 Y75.197 E4.57182
G1 X102.655 Y72.478 E4.69933
G1 X102.620 Y72.137 E4.71071
G1 X99.936 Y74.821 E4.83658
G1 X99.936 Y74.445 E4.84905
G1 X102.572 Y71.809 E4.97269
G1 X102.510 Y71.494 E4.98331
G1 X99.936 Y74.069 E5.10405
G1 X99.936 Y73.693 E5.11652
G1 X102.448 Y71.180 E5.23436
G1 X102.384 Y70.868 E5.24492
G1 X99.936 Y73.317 E5.35975
G1 X99.936 Y72.941 E5.37222
G1 X102.294 Y70.582 E5.48283
G1 X102.204 Y70.296 E5.49278
G1 X99.936 Y72.565 E5.59917
G1 X99.936 Y72.189 E5.61164
G1 X102.114 Y70.010 E5.71382
G1 X102.019 Y69.730 E5.72365
G1 X99.936 Y71.813 E5.82136
G1 X99.936 Y71.437 E5.83383
G1 X101.903 Y69.470 E5.92608
G1 X101.786 Y69.210 E5.93551
G1 X99.936 Y71.061 E6.02230
G1 X99.936 Y70.685 E6.03477
G1 X101.670 Y68.951 E6.11610
G1 X101.543 Y68.701 E6.12537
G1 X99.936 Y70.309 E6.20077
G1 X99.936 Y69.933 E6.21324
G1 X101.403 Y68.466 E6.28206
G1 X101.263 Y68.230 E6.29116
G1 X99.936 Y69.557 E6.35340
G1 X99.936 Y69.181 E6.36587
G1 X101.123 Y67.994 E6.42153
G1 X100.966 Y67.775 E6.43047
G1 X99.936 Y68.805 E6.47880
G1 X99.936 Y68.429 E6.49127
G1 X100.805 Y67.560 E6.53203
G1 X100.644 Y67.345 E6.54094
G1 X99.936 Y68.053 E6.57414
G1 X99.936 Y67.677 E6.58661
G1 X100.473 Y67.140 E6.61181
G1 X100.292 Y66.945 E6.62064
G1 X99.936 Y67.301 E6.63735
G1 X99.936 Y67.060 E6.64534
