; generated by Slic3r 1.3.1-dev (Build 2d100c4) on 2020-05-22 at 13:21:24

; external perimeters extrusion width = 0.44mm (2.86mm^3/s)
; perimeters extrusion width = 0.56mm (4.14mm^3/s)
; infill extrusion width = 0.50mm (3.66mm^3/s)
; solid infill extrusion width = 0.56mm (3.10mm^3/s)
; top infill extrusion width = 0.56mm (3.10mm^3/s)

M107
G92 E0
;D3D:START:START
T0
M104 S215 T0

G21
G90
M107
T0
G28
G29
M109 T0 S215 T0
G0 F3000
M107
T0
G92 E0
G0 X0 Y149 Z0.1 F3600
G1 Y49 E6.5 F1200
G0 Z1
G92 E0
; Filament gcode

G21 ; set units to millimeters
G90 ; use absolute coordinates
M82 ; use absolute distances for extrusion
G92 E0
G1 Z0.300 F7800.000
G1 E-2.00000 F2400.00000
G92 E0
G1 X66.054 Y65.609 F7800.000
G1 E2.00000 F2400.00000
G1 F1800.000
G1 X66.054 Y95.135 E2.97818
G1 X64.737 Y94.473 E3.02700
G1 X63.585 Y93.792 E3.07134
G1 X62.478 Y93.040 E3.11567
G1 X61.421 Y92.220 E3.16001
G1 X60.417 Y91.335 E3.20435
G1 X59.470 Y90.388 E3.24869
G1 X58.585 Y89.384 E3.29303
G1 X57.765 Y88.327 E3.33736
G1 X57.013 Y87.220 E3.38170
G1 X56.332 Y86.068 E3.42604
G1 X55.724 Y84.876 E3.47037
G1 X55.193 Y83.648 E3.51471
G1 X54.739 Y82.388 E3.55905
G1 X54.366 Y81.103 E3.60339
G1 X54.074 Y79.797 E3.64772
G1 X53.865 Y78.475 E3.69206
G1 X53.739 Y77.143 E3.73640
G1 X53.697 Y75.805 E3.78074
G1 X53.739 Y74.468 E3.82508
G1 X53.865 Y73.135 E3.86941
G1 X54.074 Y71.813 E3.91375
G1 X54.366 Y70.507 E3.95809
G1 X54.739 Y69.222 E4.00243
G1 X55.193 Y67.963 E4.04676
G1 X55.724 Y66.735 E4.09110
G1 X56.332 Y65.542 E4.13544
G1 X57.013 Y64.390 E4.17978
G1 X57.765 Y63.283 E4.22411
G1 X58.585 Y62.226 E4.26845
G1 X59.470 Y61.222 E4.31279
G1 X60.417 Y60.276 E4.35713
G1 X61.421 Y59.391 E4.40147
G1 X62.478 Y58.570 E4.44580
G1 X63.585 Y57.818 E4.49014
G1 X64.737 Y57.137 E4.53448
G1 X65.929 Y56.529 E4.57882
G1 X67.158 Y55.998 E4.62315
G1 X68.417 Y55.544 E4.66749
G1 X69.702 Y55.171 E4.71183
G1 X71.008 Y54.879 E4.75617
G1 X72.330 Y54.670 E4.80050
G1 X73.662 Y54.544 E4.84484
G1 X75.000 Y54.502 E4.88918
G1 X76.338 Y54.544 E4.93352
G1 X77.670 Y54.670 E4.97785
G1 X78.992 Y54.879 E5.02219
G1 X80.298 Y55.171 E5.06653
G1 X81.583 Y55.544 E5.11087
G1 X82.842 Y55.998 E5.15521
G1 X84.071 Y56.529 E5.19954
G1 X85.263 Y57.137 E5.24388
G1 X86.415 Y57.818 E5.28822
G1 X87.522 Y58.570 E5.33256
G1 X88.579 Y59.391 E5.37689
G1 X89.583 Y60.276 E5.42123
G1 X90.530 Y61.222 E5.46557
G1 X91.415 Y62.226 E5.50991
G1 X92.235 Y63.283 E5.55424
G1 X92.987 Y64.390 E5.59858
G1 X93.668 Y65.542 E5.64292
G1 X94.276 Y66.735 E5.68726
G1 X94.807 Y67.963 E5.73159
G1 X95.261 Y69.222 E5.77593
G1 X95.634 Y70.507 E5.82027
G1 X95.926 Y71.813 E5.86461
G1 X96.135 Y73.135 E5.90895
G1 X96.261 Y74.468 E5.95328
G1 X96.303 Y75.805 E5.99762
G1 X96.261 Y77.143 E6.04196
G1 X96.135 Y78.475 E6.08630
G1 X95.926 Y79.797 E6.13063
G1 X95.634 Y81.103 E6.17497
G1 X95.261 Y82.388 E6.21931
G1 X94.807 Y83.648 E6.26365
G1 X94.276 Y84.876 E6.30798
G1 X93.668 Y86.068 E6.35232
G1 X92.987 Y87.220 E6.39666
G1 X92.235 Y88.327 E6.44100
G1 X91.415 Y89.384 E6.48533
G1 X90.530 Y90.388 E6.52967
G1 X89.583 Y91.335 E6.57401
G1 X88.579 Y92.220 E6.61835
G1 X87.522 Y93.040 E6.66268
G1 X86.415 Y93.792 E6.70702
G1 X85.263 Y94.473 E6.75136
G1 X83.946 Y95.135 E6.80018
G1 X83.946 Y65.609 E7.77836
G1 X66.114 Y65.609 E8.36914
G1 X66.319 Y65.875 F7800.000
G1 F1800.000
G1 X66.319 Y95.539 E9.35192
G1 X65.816 Y95.322 E9.37008
G1 X64.609 Y94.706 E9.41497
G1 X63.443 Y94.017 E9.45986
G1 X62.322 Y93.255 E9.50475
G1 X61.251 Y92.425 E9.54964
G1 X60.235 Y91.528 E9.59453
G1 X59.277 Y90.570 E9.63942
G1 X58.381 Y89.554 E9.68431
G1 X57.550 Y88.483 E9.72920
G1 X56.789 Y87.363 E9.77409
G1 X56.099 Y86.196 E9.81898
G1 X55.484 Y84.989 E9.86388
G1 X54.945 Y83.745 E9.90877
G1 X54.487 Y82.470 E9.95366
G1 X54.108 Y81.169 E9.99855
G1 X53.813 Y79.847 E10.04344
G1 X53.601 Y78.509 E10.08833
G1 X53.473 Y77.160 E10.13322
G1 X53.431 Y75.805 E10.17811
G1 X53.473 Y74.451 E10.22300
G1 X53.601 Y73.102 E10.26789
G1 X53.813 Y71.764 E10.31278
G1 X54.108 Y70.441 E10.35767
G1 X54.487 Y69.140 E10.40256
G1 X54.945 Y67.865 E10.44745
G1 X55.484 Y66.622 E10.49234
G1 X56.099 Y65.414 E10.53724
G1 X56.789 Y64.248 E10.58213
G1 X57.550 Y63.127 E10.62702
G1 X58.381 Y62.057 E10.67191
G1 X59.277 Y61.040 E10.71680
G1 X60.235 Y60.082 E10.76169
G1 X61.251 Y59.186 E10.80658
G1 X62.322 Y58.355 E10.85147
G1 X63.443 Y57.594 E10.89636
G1 X64.609 Y56.904 E10.94125
G1 X65.816 Y56.289 E10.98614
G1 X67.060 Y55.751 E11.03103
G1 X68.335 Y55.292 E11.07592
G1 X69.636 Y54.914 E11.12082
G1 X70.958 Y54.618 E11.16571
G1 X72.297 Y54.406 E11.21060
G1 X73.646 Y54.279 E11.25549
G1 X75.000 Y54.236 E11.30038
G1 X76.354 Y54.279 E11.34527
G1 X77.703 Y54.406 E11.39016
G1 X79.042 Y54.618 E11.43505
G1 X80.364 Y54.914 E11.47994
G1 X81.665 Y55.292 E11.52483
G1 X82.940 Y55.751 E11.56972
G1 X84.184 Y56.289 E11.61461
G1 X85.391 Y56.904 E11.65951
G1 X86.557 Y57.594 E11.70440
G1 X87.678 Y58.355 E11.74929
G1 X88.749 Y59.186 E11.79418
G1 X89.765 Y60.082 E11.83907
G1 X90.723 Y61.040 E11.88396
G1 X91.619 Y62.057 E11.92885
G1 X92.450 Y63.127 E11.97374
G1 X93.211 Y64.248 E12.01863
G1 X93.901 Y65.414 E12.06352
G1 X94.516 Y66.622 E12.10841
G1 X95.055 Y67.865 E12.15330
G1 X95.513 Y69.140 E12.19819
G1 X95.892 Y70.441 E12.24308
G1 X96.187 Y71.764 E12.28798
G1 X96.399 Y73.102 E12.33287
G1 X96.527 Y74.451 E12.37776
G1 X96.569 Y75.805 E12.42265
G1 X96.527 Y77.160 E12.46754
G1 X96.399 Y78.509 E12.51243
G1 X96.187 Y79.847 E12.55732
G1 X95.892 Y81.169 E12.60221
G1 X95.513 Y82.470 E12.64710
G1 X95.055 Y83.745 E12.69199
G1 X94.516 Y84.989 E12.73688
G1 X93.901 Y86.196 E12.78177
G1 X93.211 Y87.363 E12.82667
G1 X92.450 Y88.483 E12.87156
G1 X91.619 Y89.554 E12.91644
G1 X90.723 Y90.570 E12.96134
G1 X89.765 Y91.528 E13.00623
G1 X88.749 Y92.425 E13.05112
G1 X87.678 Y93.255 E13.09601
G1 X86.557 Y94.017 E13.14090
G1 X85.391 Y94.706 E13.18579
G1 X84.184 Y95.322 E13.23068
G1 X83.681 Y95.539 E13.24884
G1 X83.681 Y65.875 E14.23162
G1 X66.379 Y65.875 E14.80480
G1 X66.585 Y66.140 F7800.000
G1 F1800.000
G1 X66.585 Y95.944 E15.79217
G1 X65.703 Y95.562 E15.82401
G1 X64.481 Y94.939 E15.86945
G1 X63.300 Y94.241 E15.91489
G1 X62.166 Y93.470 E15.96034
G1 X61.082 Y92.629 E16.00578
G1 X60.053 Y91.722 E16.05122
G1 X59.083 Y90.752 E16.09667
G1 X58.176 Y89.723 E16.14211
G1 X57.335 Y88.639 E16.18756
G1 X56.564 Y87.505 E16.23300
G1 X55.866 Y86.324 E16.27844
G1 X55.243 Y85.102 E16.32389
G1 X54.698 Y83.843 E16.36933
G1 X54.234 Y82.553 E16.41478
G1 X53.851 Y81.235 E16.46022
G1 X53.552 Y79.897 E16.50566
G1 X53.337 Y78.542 E16.55111
G1 X53.208 Y77.176 E16.59655
G1 X53.165 Y75.805 E16.64200
G1 X53.208 Y74.434 E16.68744
G1 X53.337 Y73.069 E16.73288
G1 X53.552 Y71.714 E16.77833
G1 X53.851 Y70.375 E16.82377
G1 X54.234 Y69.058 E16.86921
G1 X54.698 Y67.767 E16.91466
G1 X55.243 Y66.508 E16.96010
G1 X55.866 Y65.286 E17.00555
G1 X56.564 Y64.105 E17.05099
G1 X57.335 Y62.971 E17.09643
G1 X58.176 Y61.887 E17.14188
G1 X59.083 Y60.858 E17.18732
G1 X60.053 Y59.888 E17.23277
G1 X61.082 Y58.981 E17.27821
G1 X62.166 Y58.140 E17.32365
G1 X63.300 Y57.369 E17.36910
G1 X64.481 Y56.671 E17.41454
G1 X65.703 Y56.048 E17.45998
G1 X66.962 Y55.504 E17.50543
G1 X68.253 Y55.039 E17.55087
G1 X69.570 Y54.656 E17.59632
G1 X70.909 Y54.357 E17.64176
G1 X72.263 Y54.142 E17.68720
G1 X73.629 Y54.013 E17.73265
G1 X75.000 Y53.970 E17.77809
G1 X76.371 Y54.013 E17.82354
G1 X77.737 Y54.142 E17.86898
G1 X79.091 Y54.357 E17.91442
G1 X80.430 Y54.656 E17.95987
G1 X81.747 Y55.039 E18.00531
G1 X83.038 Y55.504 E18.05075
G1 X84.297 Y56.048 E18.09620
G1 X85.519 Y56.671 E18.14164
G1 X86.700 Y57.369 E18.18709
G1 X87.834 Y58.140 E18.23253
G1 X88.918 Y58.981 E18.27797
G1 X89.947 Y59.888 E18.32342
G1 X90.917 Y60.858 E18.36886
G1 X91.824 Y61.887 E18.41431
G1 X92.665 Y62.971 E18.45975
G1 X93.436 Y64.105 E18.50519
G1 X94.134 Y65.286 E18.55064
G1 X94.757 Y66.508 E18.59608
G1 X95.302 Y67.767 E18.64152
G1 X95.766 Y69.058 E18.68697
G1 X96.149 Y70.375 E18.73241
G1 X96.448 Y71.714 E18.77786
G1 X96.663 Y73.069 E18.82330
G1 X96.792 Y74.434 E18.86874
G1 X96.835 Y75.805 E18.91419
G1 X96.792 Y77.176 E18.95963
G1 X96.663 Y78.542 E19.00507
G1 X96.448 Y79.897 E19.05052
G1 X96.149 Y81.235 E19.09596
G1 X95.766 Y82.553 E19.14141
G1 X95.302 Y83.843 E19.18685
G1 X94.757 Y85.102 E19.23229
G1 X94.134 Y86.324 E19.27774
G1 X93.436 Y87.505 E19.32318
G1 X92.665 Y88.639 E19.36863
G1 X91.824 Y89.723 E19.41407
G1 X90.917 Y90.752 E19.45951
G1 X89.947 Y91.722 E19.50496
G1 X88.918 Y92.629 E19.55040
G1 X87.834 Y93.470 E19.59584
G1 X86.700 Y94.241 E19.64129
G1 X85.519 Y94.939 E19.68673
G1 X84.297 Y95.562 E19.73218
G1 X83.415 Y95.944 E19.76401
G1 X83.415 Y66.140 E20.75138
G1 X66.645 Y66.140 E21.30696
G1 X65.891 Y65.340 F7800.000
G1 F1800.000
G1 X65.891 Y65.717 E21.31946
G1 X53.942 Y77.666 E21.88048
G1 X53.974 Y78.010 E21.89195
G1 X65.891 Y66.093 E22.45144
G1 X65.891 Y66.469 E22.46394
G1 X54.007 Y78.354 E23.02190
G1 X54.048 Y78.690 E23.03312
G1 X65.891 Y66.846 E23.58917
G1 X65.891 Y67.222 E23.60166
G1 X54.099 Y79.014 E24.15529
G1 X54.151 Y79.339 E24.16622
G1 X65.891 Y67.599 E24.71743
G1 X65.891 Y67.975 E24.72992
G1 X54.202 Y79.664 E25.27872
G1 X54.261 Y79.982 E25.28944
G1 X65.891 Y68.352 E25.83547
G1 X65.891 Y68.728 E25.84797
G1 X54.330 Y80.290 E26.39077
G1 X54.399 Y80.597 E26.40124
G1 X65.891 Y69.104 E26.94082
G1 X65.891 Y69.481 E26.95331
G1 X54.467 Y80.905 E27.48966
G1 X54.540 Y81.209 E27.50003
G1 X65.891 Y69.857 E28.03297
G1 X65.891 Y70.234 E28.04547
G1 X54.625 Y81.500 E28.57443
G1 X54.709 Y81.792 E28.58452
G1 X65.891 Y70.610 E29.10950
G1 X65.891 Y70.986 E29.12200
G1 X54.794 Y82.084 E29.64300
G1 X54.879 Y82.375 E29.65309
G1 X65.891 Y71.363 E30.17012
G1 X65.891 Y71.739 E30.18261
G1 X54.977 Y82.654 E30.69504
G1 X55.076 Y82.931 E30.70481
G1 X65.891 Y72.116 E31.21256
G1 X65.891 Y72.492 E31.22506
G1 X55.176 Y83.208 E31.72814
G1 X55.276 Y83.484 E31.73790
G1 X65.891 Y72.869 E32.23630
G1 X65.891 Y73.245 E32.24880
G1 X55.381 Y83.756 E32.74226
G1 X55.494 Y84.018 E32.75177
G1 X65.891 Y73.621 E33.23989
G1 X65.891 Y73.998 E33.25239
G1 X55.608 Y84.281 E33.73517
G1 X55.722 Y84.544 E33.74468
G1 X65.891 Y74.374 E34.22213
G1 X65.891 Y74.751 E34.23462
G1 X55.836 Y84.807 E34.70674
G1 X55.960 Y85.059 E34.71607
G1 X65.891 Y75.127 E35.18236
G1 X65.891 Y75.503 E35.19486
G1 X56.087 Y85.308 E35.65518
G1 X56.214 Y85.558 E35.66447
G1 X65.891 Y75.880 E36.11883
G1 X65.891 Y76.256 E36.13133
G1 X56.341 Y85.807 E36.57972
G1 X56.468 Y86.056 E36.58900
G1 X65.891 Y76.633 E37.03140
G1 X65.891 Y77.009 E37.04389
G1 X56.608 Y86.292 E37.47972
G1 X56.748 Y86.529 E37.48885
G1 X65.891 Y77.386 E37.91811
G1 X65.891 Y77.762 E37.93060
G1 X56.888 Y86.765 E38.35330
G1 X57.028 Y87.002 E38.36242
G1 X65.891 Y78.138 E38.77855
G1 X65.891 Y78.515 E38.79105
G1 X57.171 Y87.235 E39.20047
G1 X57.323 Y87.459 E39.20946
G1 X65.891 Y78.891 E39.61173
G1 X65.891 Y79.268 E39.62423
G1 X57.475 Y87.684 E40.01935
G1 X57.628 Y87.908 E40.02834
G1 X65.891 Y79.644 E40.41631
G1 X65.891 Y80.020 E40.42881
G1 X57.780 Y88.132 E40.80963
G1 X57.937 Y88.351 E40.81858
G1 X65.891 Y80.397 E41.19204
G1 X65.891 Y80.773 E41.20454
G1 X58.101 Y88.563 E41.57028
G1 X58.266 Y88.775 E41.57919
G1 X65.891 Y81.150 E41.93721
G1 X65.891 Y81.526 E41.94970
G1 X58.430 Y88.987 E42.30000
G1 X58.595 Y89.199 E42.30891
G1 X65.891 Y81.902 E42.65149
G1 X65.891 Y82.279 E42.66399
G1 X58.764 Y89.406 E42.99860
G1 X58.941 Y89.606 E43.00745
G1 X65.891 Y82.655 E43.33379
G1 X65.891 Y83.032 E43.34628
G1 X59.117 Y89.806 E43.66434
G1 X59.293 Y90.006 E43.67319
G1 X65.891 Y83.408 E43.98296
G1 X65.891 Y83.785 E43.99546
G1 X59.470 Y90.206 E44.29695
G1 X59.652 Y90.401 E44.30579
G1 X65.891 Y84.161 E44.59874
G1 X65.891 Y84.537 E44.61123
G1 X59.840 Y90.589 E44.89534
G1 X60.028 Y90.777 E44.90418
G1 X65.891 Y84.914 E45.17945
G1 X65.891 Y85.290 E45.19195
G1 X60.216 Y90.965 E45.45838
G1 X60.405 Y91.153 E45.46722
G1 X65.891 Y85.667 E45.72482
G1 X65.891 Y86.043 E45.73731
G1 X60.599 Y91.336 E45.98579
G1 X60.799 Y91.512 E45.99464
G1 X65.891 Y86.419 E46.23373
G1 X65.891 Y86.796 E46.24622
G1 X60.999 Y91.688 E46.47592
G1 X61.199 Y91.865 E46.48477
G1 X65.891 Y87.172 E46.70507
G1 X65.891 Y87.549 E46.71757
G1 X61.399 Y92.041 E46.92847
G1 X61.606 Y92.211 E46.93735
G1 X65.891 Y87.925 E47.13855
G1 X65.891 Y88.302 E47.15105
G1 X61.818 Y92.375 E47.34230
G1 X62.030 Y92.540 E47.35121
G1 X65.891 Y88.678 E47.53250
G1 X65.891 Y89.054 E47.54500
G1 X62.242 Y92.704 E47.71635
G1 X62.454 Y92.868 E47.72525
G1 X65.891 Y89.431 E47.88665
G1 X65.891 Y89.807 E47.89914
G1 X62.673 Y93.025 E48.05022
G1 X62.898 Y93.177 E48.05922
G1 X65.891 Y90.184 E48.19978
G1 X65.891 Y90.560 E48.21227
G1 X63.122 Y93.330 E48.34231
G1 X63.346 Y93.482 E48.35130
G1 X65.891 Y90.936 E48.47082
G1 X65.891 Y91.313 E48.48331
G1 X63.570 Y93.634 E48.59230
G1 X63.803 Y93.777 E48.60139
G1 X65.891 Y91.689 E48.69942
G1 X65.891 Y92.066 E48.71192
G1 X64.040 Y93.917 E48.79884
G1 X64.277 Y94.057 E48.80796
G1 X65.891 Y92.442 E48.88378
G1 X65.891 Y92.819 E48.89627
G1 X64.513 Y94.197 E48.96099
G1 X64.750 Y94.337 E48.97011
G1 X65.891 Y93.195 E49.02372
G1 X65.891 Y93.571 E49.03621
G1 X65.000 Y94.463 E49.07809
G1 X65.250 Y94.589 E49.08740
G1 X65.891 Y93.948 E49.11751
G1 X65.891 Y94.324 E49.13001
G1 X65.501 Y94.715 E49.14836
G1 E47.14836 F2400.00000
G92 E0
G1 X89.297 Y91.245 F7800.000
G1 E2.00000 F2400.00000
G1 F1800.000
G1 X90.440 Y90.102 E2.05368
G1 X91.313 Y89.112 E2.09750
G1 X92.176 Y87.989 E2.14451
G1 X87.184 Y92.981 E2.37888
G1 X86.044 Y93.745 E2.42444
G1 X92.940 Y86.849 E2.74820
G1 X93.485 Y85.928 E2.78372
G1 X85.123 Y94.290 E3.17631
G1 X84.350 Y94.686 E3.20513
G1 X93.891 Y85.145 E3.65305
G1 X94.244 Y84.416 E3.67995
G1 X84.109 Y94.551 E4.15580
G1 X84.109 Y94.175 E4.16830
G1 X94.531 Y83.752 E4.65763
G1 X94.778 Y83.129 E4.67987
G1 X84.109 Y93.799 E5.18078
G1 X84.109 Y93.422 E5.19327
G1 X94.989 Y82.541 E5.70412
G1 X95.177 Y81.978 E5.72383
G1 X84.109 Y93.046 E6.24347
G1 X84.109 Y92.669 E6.25597
G1 X95.331 Y81.447 E6.78284
G1 X95.484 Y80.918 E6.80112
G1 X84.109 Y92.293 E7.33516
G1 X84.109 Y91.917 E7.34766
G1 X95.592 Y80.433 E7.88679
G1 X95.700 Y79.948 E7.90328
G1 X84.109 Y91.540 E8.44749
G1 X84.109 Y91.164 E8.45999
G1 X95.795 Y79.478 E9.00864
G1 X95.866 Y79.030 E9.02367
G1 X84.109 Y90.787 E9.57564
G1 X84.109 Y90.411 E9.58814
G1 X95.936 Y78.583 E10.14344
G1 X95.993 Y78.150 E10.15794
G1 X84.109 Y90.035 E10.71589
G1 X84.109 Y89.658 E10.72839
G1 X96.032 Y77.734 E11.28819
G1 X96.072 Y77.319 E11.30205
G1 X84.109 Y89.282 E11.86369
G1 X84.109 Y88.905 E11.87619
G1 X96.103 Y76.911 E12.43931
G1 X96.115 Y76.522 E12.45222
G1 X84.109 Y88.529 E13.01592
G1 X84.109 Y88.152 E13.02841
G1 X96.127 Y76.134 E13.59268
G1 X96.140 Y75.745 E13.60559
G1 X84.109 Y87.776 E14.17044
G1 X84.109 Y87.400 E14.18293
G1 X96.131 Y75.377 E14.74736
G1 X96.119 Y75.012 E14.75948
G1 X84.109 Y87.023 E15.32337
G1 X84.109 Y86.647 E15.33587
G1 X96.108 Y74.647 E15.89922
G1 X96.091 Y74.288 E15.91116
G1 X84.109 Y86.270 E16.47371
G1 X84.109 Y85.894 E16.48620
G1 X96.058 Y73.944 E17.04722
G1 X96.026 Y73.600 E17.05869
G1 X84.109 Y85.518 E17.61818
G1 X84.109 Y85.141 E17.63068
G1 X95.993 Y73.256 E18.18865
G1 X95.952 Y72.921 E18.19987
G1 X84.109 Y84.765 E18.75591
G1 X84.109 Y84.388 E18.76841
G1 X95.901 Y72.596 E19.32204
G1 X95.849 Y72.271 E19.33296
G1 X84.109 Y84.012 E19.88417
G1 X84.109 Y83.635 E19.89667
G1 X95.798 Y71.946 E20.44547
G1 X95.739 Y71.629 E20.45619
G1 X84.109 Y83.259 E21.00222
G1 X84.109 Y82.883 E21.01472
G1 X95.670 Y71.321 E21.55752
G1 X95.601 Y71.013 E21.56799
G1 X84.109 Y82.506 E22.10756
G1 X84.109 Y82.130 E22.12006
G1 X95.533 Y70.706 E22.65641
G1 X95.460 Y70.402 E22.66678
G1 X84.109 Y81.753 E23.19972
G1 X84.109 Y81.377 E23.21222
G1 X95.375 Y70.110 E23.74119
G1 X95.291 Y69.818 E23.75127
G1 X84.109 Y81.001 E24.27626
G1 X84.109 Y80.624 E24.28875
G1 X95.206 Y69.527 E24.80976
G1 X95.121 Y69.235 E24.81984
G1 X84.109 Y80.248 E25.33687
G1 X84.109 Y79.871 E25.34937
G1 X95.023 Y68.957 E25.86180
G1 X94.924 Y68.680 E25.87157
G1 X84.109 Y79.495 E26.37933
G1 X84.109 Y79.118 E26.39182
G1 X94.824 Y68.403 E26.89490
G1 X94.724 Y68.126 E26.90467
G1 X84.109 Y78.742 E27.40307
G1 X84.109 Y78.366 E27.41556
