; generated by Slic3r 1.3.1-dev (Build 2d100c4) on 2020-05-22 at 13:22:03

; external perimeters extrusion width = 0.45mm (2.44mm^3/s)
; perimeters extrusion width = 0.45mm (3.26mm^3/s)
; infill extrusion width = 0.45mm (6.51mm^3/s)
; solid infill extrusion width = 0.45mm (6.51mm^3/s)
; top infill extrusion width = 0.40mm (2.86mm^3/s)

M107
G92 E0
M190 S60 ; set bed temperature and wait for it to be reached
;D3D:START:START
T0
M104 S215 T0

G21
G90
M107
T0
G28
G29
M109 T0 S215 T0
G0 F3000
M107
T0
G92 E0
G0 X0 Y149 Z0.1 F3600
G1 Y49 E6.5 F1200
G0 Z1
G92 E0
; Filament gcode

G21 ; set units to millimeters
G90 ; use absolute coordinates
M82 ; use absolute distances for extrusion
G92 E0
G1 Z0.300 F9000.000
G1 E-3.20000 F4200.00000
G92 E0
G1 Z0.500 F9000.000
G1 X72.996 Y72.430 F9000.000
G1 Z0.300 F9000.000
G1 E3.20000 F4200.00000
M201 X800 Y800
M204 P800 T800
G1 F1200.000
G1 X74.269 Y71.307 E3.25625
G1 X75.386 Y70.441 E3.30308
G1 X76.670 Y69.563 E3.35462
G1 X78.132 Y68.698 E3.41088
G1 X79.520 Y67.996 E3.46242
G1 X80.950 Y67.382 E3.51396
G1 X82.280 Y66.904 E3.56079
G1 X83.772 Y66.465 E3.61233
G1 X85.430 Y66.095 E3.66858
G1 X86.826 Y65.874 E3.71541
G1 X88.374 Y65.723 E3.76695
G1 X90.071 Y65.669 E3.82321
G1 X91.484 Y65.714 E3.87003
G1 X93.033 Y65.856 E3.92157
G1 X94.710 Y66.121 E3.97783
G1 X96.228 Y66.465 E4.02937
G1 X97.585 Y66.860 E4.07620
G1 X99.183 Y67.435 E4.13245
G1 X100.609 Y68.057 E4.18399
G1 X101.993 Y68.767 E4.23554
G1 X103.209 Y69.486 E4.28236
G1 X104.499 Y70.357 E4.33390
G1 X105.840 Y71.398 E4.39016
G1 X106.901 Y72.333 E4.43698
G1 X108.004 Y73.430 E4.48853
G1 X109.127 Y74.703 E4.54478
G1 X109.993 Y75.820 E4.59160
G1 X110.871 Y77.104 E4.64315
G1 X111.736 Y78.566 E4.69941
G1 X112.438 Y79.954 E4.75095
G1 X113.052 Y81.384 E4.80249
G1 X113.530 Y82.714 E4.84932
G1 X113.969 Y84.206 E4.90086
G1 X114.339 Y85.864 E4.95711
G1 X114.560 Y87.260 E5.00394
G1 X114.711 Y88.808 E5.05548
G1 X114.765 Y90.505 E5.11174
G1 X114.720 Y91.918 E5.15856
G1 X114.578 Y93.467 E5.21010
G1 X114.313 Y95.144 E5.26636
G1 X113.969 Y96.662 E5.31790
G1 X113.574 Y98.019 E5.36472
G1 X112.999 Y99.617 E5.42098
G1 X112.377 Y101.043 E5.47252
G1 X111.667 Y102.427 E5.52407
G1 X110.948 Y103.643 E5.57089
G1 X110.077 Y104.933 E5.62243
G1 X109.036 Y106.274 E5.67868
G1 X108.101 Y107.335 E5.72551
G1 X107.004 Y108.438 E5.77706
G1 X105.840 Y109.470 E5.82860
G1 X104.614 Y110.427 E5.88013
G1 X103.330 Y111.305 E5.93168
G1 X101.993 Y112.101 E5.98322
G1 X100.609 Y112.811 E6.03476
G1 X99.183 Y113.433 E6.08630
G1 X97.720 Y113.964 E6.13785
G1 X96.782 Y114.242 E6.17026
G1 X96.150 Y114.332 E6.19141
G1 X83.850 Y114.332 E6.59890
G1 X83.218 Y114.242 E6.62005
G1 X82.415 Y114.009 E6.64775
G1 X80.950 Y113.486 E6.69929
G1 X79.520 Y112.872 E6.75084
G1 X78.007 Y112.101 E6.80709
G1 X76.670 Y111.305 E6.85863
G1 X75.386 Y110.427 E6.91018
G1 X74.269 Y109.561 E6.95701
G1 X73.099 Y108.535 E7.00854
G1 X71.996 Y107.438 E7.06008
G1 X70.873 Y106.165 E7.11633
G1 X70.007 Y105.048 E7.16316
G1 X69.129 Y103.764 E7.21471
G1 X68.264 Y102.302 E7.27096
G1 X67.562 Y100.914 E7.32250
G1 X66.948 Y99.484 E7.37404
G1 X66.470 Y98.154 E7.42087
G1 X66.031 Y96.662 E7.47241
G1 X65.661 Y95.004 E7.52867
G1 X65.440 Y93.608 E7.57550
G1 X65.289 Y92.060 E7.62704
G1 X65.235 Y90.363 E7.68329
G1 X65.280 Y88.950 E7.73012
G1 X65.422 Y87.401 E7.78166
G1 X65.687 Y85.724 E7.83792
G1 X66.031 Y84.206 E7.88945
G1 X66.426 Y82.849 E7.93628
G1 X67.001 Y81.251 E7.99254
G1 X67.562 Y79.954 E8.03937
G1 X68.264 Y78.566 E8.09091
G1 X69.129 Y77.104 E8.14716
G1 X69.923 Y75.935 E8.19399
G1 X70.873 Y74.703 E8.24553
G1 X71.899 Y73.533 E8.29707
G1 X72.953 Y72.473 E8.34662
M201 X1250 Y1250
M204 P1250 T1250
G1 F7200.000
G1 X73.099 Y72.333 E8.23446
G1 F7200.000
G1 X74.160 Y71.398 E7.45116
G1 F7200.000
G1 X74.269 Y71.307 E7.37242
G1 F7200.000
G1 X75.386 Y70.441 E6.58913
G1 F7200.000
G1 X75.501 Y70.357 E6.51015
G1 F7200.000
G1 X76.670 Y69.563 E5.72683
G1 F7200.000
G1 X76.791 Y69.486 E5.64797
G1 F7200.000
G1 X77.321 Y69.173 E5.30662
G1 E5.14662 F4200.00000
G92 E0
G1 Z0.500 F9000.000
G1 X96.846 Y80.238 F9000.000
G1 Z0.300 F9000.000
G1 E3.20000 F4200.00000
M201 X800 Y800
M204 P800 T800
G1 F1200.000
G1 X83.154 Y80.238 E3.65363
G1 X83.154 Y111.131 E4.67711
G1 X81.974 Y110.706 E4.71866
G1 X80.717 Y110.162 E4.76404
G1 X79.496 Y109.540 E4.80942
G1 X78.317 Y108.843 E4.85480
G1 X77.184 Y108.073 E4.90018
G1 X76.102 Y107.234 E4.94556
G1 X75.075 Y106.328 E4.99093
G1 X74.106 Y105.359 E5.03631
G1 X73.200 Y104.332 E5.08169
G1 X72.361 Y103.250 E5.12707
G1 X71.591 Y102.117 E5.17245
G1 X70.894 Y100.938 E5.21782
G1 X70.272 Y99.717 E5.26320
G1 X69.728 Y98.460 E5.30858
G1 X69.264 Y97.172 E5.35396
G1 X68.882 Y95.856 E5.39934
G1 X68.583 Y94.520 E5.44472
G1 X68.368 Y93.167 E5.49010
G1 X68.240 Y91.803 E5.53547
G1 X68.197 Y90.434 E5.58085
G1 X68.240 Y89.065 E5.62623
G1 X68.368 Y87.701 E5.67161
G1 X68.583 Y86.348 E5.71699
G1 X68.882 Y85.012 E5.76237
G1 X69.264 Y83.696 E5.80774
G1 X69.728 Y82.408 E5.85312
G1 X70.272 Y81.151 E5.89850
G1 X70.894 Y79.930 E5.94388
G1 X71.591 Y78.751 E5.98926
G1 X72.361 Y77.618 E6.03464
G1 X73.200 Y76.536 E6.08001
G1 X74.106 Y75.509 E6.12539
G1 X75.075 Y74.540 E6.17077
G1 X76.102 Y73.634 E6.21615
G1 X77.184 Y72.795 E6.26153
G1 X78.317 Y72.025 E6.30691
G1 X79.496 Y71.328 E6.35228
G1 X80.717 Y70.706 E6.39766
G1 X81.974 Y70.162 E6.44304
G1 X83.262 Y69.698 E6.48842
G1 X84.578 Y69.316 E6.53380
G1 X85.914 Y69.017 E6.57918
G1 X87.267 Y68.802 E6.62455
G1 X88.631 Y68.674 E6.66993
G1 X90.000 Y68.631 E6.71531
G1 X91.369 Y68.674 E6.76069
G1 X92.733 Y68.802 E6.80607
G1 X94.086 Y69.017 E6.85144
G1 X95.422 Y69.316 E6.89682
G1 X96.738 Y69.698 E6.94220
G1 X98.026 Y70.162 E6.98758
G1 X99.283 Y70.706 E7.03296
G1 X100.504 Y71.328 E7.07834
G1 X101.683 Y72.025 E7.12371
G1 X102.816 Y72.795 E7.16909
G1 X103.898 Y73.634 E7.21447
G1 X104.925 Y74.540 E7.25985
G1 X105.894 Y75.509 E7.30523
G1 X106.800 Y76.536 E7.35061
G1 X107.639 Y77.618 E7.39598
G1 X108.409 Y78.751 E7.44136
G1 X109.106 Y79.930 E7.48674
G1 X109.728 Y81.151 E7.53212
G1 X110.272 Y82.408 E7.57750
G1 X110.736 Y83.696 E7.62288
G1 X111.118 Y85.012 E7.66825
G1 X111.417 Y86.348 E7.71363
G1 X111.632 Y87.701 E7.75901
G1 X111.760 Y89.065 E7.80439
G1 X111.803 Y90.434 E7.84977
G1 X111.760 Y91.803 E7.89515
G1 X111.632 Y93.167 E7.94052
G1 X111.417 Y94.520 E7.98590
G1 X111.118 Y95.856 E8.03128
G1 X110.736 Y97.172 E8.07666
G1 X110.272 Y98.460 E8.12204
G1 X109.728 Y99.717 E8.16742
G1 X109.106 Y100.938 E8.21280
G1 X108.409 Y102.117 E8.25817
G1 X107.639 Y103.250 E8.30355
G1 X106.800 Y104.332 E8.34893
G1 X105.894 Y105.359 E8.39431
G1 X104.925 Y106.328 E8.43969
G1 X103.898 Y107.234 E8.48506
G1 X102.816 Y108.073 E8.53044
G1 X101.683 Y108.843 E8.57582
G1 X100.504 Y109.540 E8.62120
G1 X99.283 Y110.162 E8.66658
G1 X98.026 Y110.706 E8.71196
G1 X96.846 Y111.131 E8.75351
G1 X96.846 Y80.298 E9.77501
M201 X1250 Y1250
M204 P1250 T1250
G1 X96.581 Y80.503 F9000.000
M201 X800 Y800
M204 P800 T800
G1 F1200.000
G1 X83.419 Y80.503 E10.21103
G1 X83.419 Y111.493 E11.23769
G1 X83.180 Y111.423 E11.24594
G1 X81.876 Y110.953 E11.29187
G1 X80.603 Y110.403 E11.33780
G1 X79.368 Y109.773 E11.38373
G1 X78.175 Y109.068 E11.42966
G1 X77.028 Y108.288 E11.47560
G1 X75.933 Y107.439 E11.52153
G1 X74.893 Y106.522 E11.56746
G1 X73.912 Y105.541 E11.61339
G1 X72.995 Y104.501 E11.65932
G1 X72.146 Y103.406 E11.70525
G1 X71.366 Y102.259 E11.75118
G1 X70.661 Y101.066 E11.79711
G1 X70.031 Y99.831 E11.84305
G1 X69.481 Y98.558 E11.88898
G1 X69.011 Y97.254 E11.93491
G1 X68.624 Y95.922 E11.98084
G1 X68.322 Y94.569 E12.02677
G1 X68.105 Y93.200 E12.07270
G1 X67.974 Y91.820 E12.11863
G1 X67.931 Y90.434 E12.16457
G1 X67.974 Y89.048 E12.21050
G1 X68.105 Y87.668 E12.25643
G1 X68.322 Y86.299 E12.30236
G1 X68.624 Y84.946 E12.34829
G1 X69.011 Y83.614 E12.39422
G1 X69.481 Y82.310 E12.44015
G1 X70.031 Y81.037 E12.48609
G1 X70.661 Y79.802 E12.53202
G1 X71.366 Y78.609 E12.57795
G1 X72.146 Y77.462 E12.62388
G1 X72.995 Y76.367 E12.66981
G1 X73.912 Y75.327 E12.71574
G1 X74.893 Y74.346 E12.76167
G1 X75.933 Y73.429 E12.80761
G1 X77.028 Y72.580 E12.85354
G1 X78.175 Y71.800 E12.89947
G1 X79.368 Y71.095 E12.94540
G1 X80.603 Y70.465 E12.99133
G1 X81.876 Y69.915 E13.03726
G1 X83.180 Y69.445 E13.08319
G1 X84.512 Y69.058 E13.12913
G1 X85.865 Y68.756 E13.17506
G1 X87.234 Y68.539 E13.22099
G1 X88.614 Y68.408 E13.26692
G1 X90.000 Y68.365 E13.31285
G1 X91.386 Y68.408 E13.35878
G1 X92.766 Y68.539 E13.40471
G1 X94.135 Y68.756 E13.45064
G1 X95.488 Y69.058 E13.49658
G1 X96.820 Y69.445 E13.54251
G1 X98.124 Y69.915 E13.58844
G1 X99.397 Y70.465 E13.63437
G1 X100.632 Y71.095 E13.68030
G1 X101.825 Y71.800 E13.72623
G1 X102.972 Y72.580 E13.77217
G1 X104.067 Y73.429 E13.81810
G1 X105.107 Y74.346 E13.86403
G1 X106.088 Y75.327 E13.90996
G1 X107.005 Y76.367 E13.95589
G1 X107.854 Y77.462 E14.00182
G1 X108.634 Y78.609 E14.04775
G1 X109.339 Y79.802 E14.09368
G1 X109.969 Y81.037 E14.13962
G1 X110.519 Y82.310 E14.18555
G1 X110.989 Y83.614 E14.23148
G1 X111.376 Y84.946 E14.27741
G1 X111.678 Y86.299 E14.32334
G1 X111.895 Y87.668 E14.36927
G1 X112.026 Y89.048 E14.41520
G1 X112.069 Y90.434 E14.46114
G1 X112.026 Y91.820 E14.50707
G1 X111.895 Y93.200 E14.55300
G1 X111.678 Y94.569 E14.59893
G1 X111.376 Y95.922 E14.64486
G1 X110.989 Y97.254 E14.69079
G1 X110.519 Y98.558 E14.73672
G1 X109.969 Y99.831 E14.78266
G1 X109.339 Y101.066 E14.82859
G1 X108.634 Y102.259 E14.87452
G1 X107.854 Y103.406 E14.92045
G1 X107.005 Y104.501 E14.96638
G1 X106.088 Y105.541 E15.01231
G1 X105.107 Y106.522 E15.05824
G1 X104.067 Y107.439 E15.10418
G1 X102.972 Y108.288 E15.15011
G1 X101.825 Y109.068 E15.19604
G1 X100.632 Y109.773 E15.24197
G1 X99.397 Y110.403 E15.28790
G1 X98.124 Y110.953 E15.33383
G1 X96.820 Y111.423 E15.37976
G1 X96.581 Y111.493 E15.38801
G1 X96.581 Y80.563 E16.41268
M201 X1250 Y1250
M204 P1250 T1250
G1 X96.315 Y80.769 F9000.000
M201 X800 Y800
M204 P800 T800
G1 F1200.000
G1 X83.685 Y80.769 E16.83111
G1 X83.685 Y111.846 E17.86068
G1 X83.098 Y111.676 E17.88093
G1 X81.778 Y111.201 E17.92741
G1 X80.490 Y110.643 E17.97390
G1 X79.240 Y110.006 E18.02038
G1 X78.032 Y109.292 E18.06687
G1 X76.872 Y108.503 E18.11335
G1 X75.763 Y107.643 E18.15984
G1 X74.711 Y106.715 E18.20632
G1 X73.719 Y105.723 E18.25280
G1 X72.791 Y104.671 E18.29929
G1 X71.931 Y103.562 E18.34577
G1 X71.142 Y102.402 E18.39226
G1 X70.428 Y101.194 E18.43874
G1 X69.791 Y99.944 E18.48523
G1 X69.233 Y98.656 E18.53171
G1 X68.758 Y97.336 E18.57820
G1 X68.367 Y95.988 E18.62468
G1 X68.061 Y94.619 E18.67116
G1 X67.841 Y93.233 E18.71765
G1 X67.709 Y91.836 E18.76413
G1 X67.665 Y90.434 E18.81062
G1 X67.709 Y89.032 E18.85710
G1 X67.841 Y87.635 E18.90359
G1 X68.061 Y86.249 E18.95007
G1 X68.367 Y84.880 E18.99656
G1 X68.758 Y83.532 E19.04304
G1 X69.233 Y82.212 E19.08952
G1 X69.791 Y80.924 E19.13601
G1 X70.428 Y79.674 E19.18250
G1 X71.142 Y78.466 E19.22898
G1 X71.931 Y77.306 E19.27546
G1 X72.791 Y76.197 E19.32195
G1 X73.719 Y75.145 E19.36843
G1 X74.711 Y74.153 E19.41492
G1 X75.763 Y73.225 E19.46140
G1 X76.872 Y72.365 E19.50788
G1 X78.032 Y71.576 E19.55437
G1 X79.240 Y70.862 E19.60085
G1 X80.490 Y70.225 E19.64734
G1 X81.778 Y69.667 E19.69382
G1 X83.098 Y69.192 E19.74031
G1 X84.446 Y68.801 E19.78679
G1 X85.815 Y68.495 E19.83328
G1 X87.201 Y68.275 E19.87976
G1 X88.598 Y68.143 E19.92625
G1 X90.000 Y68.099 E19.97273
G1 X91.402 Y68.143 E20.01922
G1 X92.799 Y68.275 E20.06570
G1 X94.185 Y68.495 E20.11218
G1 X95.554 Y68.801 E20.15867
G1 X96.902 Y69.192 E20.20515
G1 X98.222 Y69.667 E20.25164
G1 X99.510 Y70.225 E20.29812
G1 X100.760 Y70.862 E20.34461
G1 X101.968 Y71.576 E20.39109
G1 X103.128 Y72.365 E20.43758
G1 X104.237 Y73.225 E20.48406
G1 X105.289 Y74.153 E20.53054
G1 X106.281 Y75.145 E20.57703
G1 X107.209 Y76.197 E20.62351
G1 X108.069 Y77.306 E20.67000
G1 X108.858 Y78.466 E20.71648
G1 X109.572 Y79.674 E20.76297
G1 X110.209 Y80.924 E20.80945
G1 X110.767 Y82.212 E20.85594
G1 X111.242 Y83.532 E20.90242
G1 X111.633 Y84.880 E20.94890
G1 X111.939 Y86.249 E20.99539
G1 X112.159 Y87.635 E21.04187
G1 X112.291 Y89.032 E21.08836
G1 X112.335 Y90.434 E21.13484
G1 X112.291 Y91.836 E21.18133
G1 X112.159 Y93.233 E21.22781
G1 X111.939 Y94.619 E21.27430
G1 X111.633 Y95.988 E21.32078
G1 X111.242 Y97.336 E21.36726
G1 X110.767 Y98.656 E21.41375
G1 X110.209 Y99.944 E21.46023
G1 X109.572 Y101.194 E21.50672
G1 X108.858 Y102.402 E21.55320
G1 X108.069 Y103.562 E21.59969
G1 X107.209 Y104.671 E21.64617
G1 X106.281 Y105.723 E21.69266
G1 X105.289 Y106.715 E21.73914
G1 X104.237 Y107.643 E21.78563
G1 X103.128 Y108.503 E21.83211
G1 X101.968 Y109.292 E21.87860
G1 X100.760 Y110.006 E21.92508
G1 X99.510 Y110.643 E21.97156
G1 X98.222 Y111.201 E22.01805
G1 X96.902 Y111.676 E22.06453
G1 X96.315 Y111.846 E22.08478
G1 X96.315 Y80.829 E23.11237
M201 X1250 Y1250
M204 P1250 T1250
G1 F7200.000
G1 X90.829 Y80.803 E20.07237
G1 E19.91237 F4200.00000
G92 E0
G1 Z0.500 F9000.000
G1 X82.991 Y80.154 F9000.000
G1 Z0.300 F9000.000
G1 E3.20000 F4200.00000
M201 X800 Y800
M204 P800 T800
G1 F1200.000
G1 X82.991 Y80.530 E3.21246
G1 X68.778 Y94.743 E3.87874
G1 X68.847 Y95.050 E3.88917
G1 X82.991 Y80.905 E4.55223
G1 X82.991 Y81.281 E4.56469
G1 X68.916 Y95.357 E5.22452
G1 X68.984 Y95.664 E5.23496
G1 X82.991 Y81.657 E5.89158
G1 X82.991 Y82.033 E5.90404
G1 X69.057 Y95.967 E6.55725
G1 X69.142 Y96.259 E6.56730
G1 X82.991 Y82.409 E7.21655
G1 X82.991 Y82.785 E7.22900
G1 X69.226 Y96.550 E7.87428
G1 X69.311 Y96.841 E7.88434
G1 X82.991 Y83.160 E8.52565
G1 X82.991 Y83.536 E8.53811
G1 X69.396 Y97.132 E9.17545
G1 X69.492 Y97.412 E9.18525
G1 X82.991 Y83.912 E9.81808
G1 X82.991 Y84.288 E9.83054
G1 X69.591 Y97.688 E10.45870
G1 X69.691 Y97.964 E10.46844
G1 X82.991 Y84.664 E11.09194
G1 X82.991 Y85.040 E11.10440
G1 X69.790 Y98.241 E11.72324
G1 X69.892 Y98.514 E11.73292
G1 X82.991 Y85.416 E12.34697
G1 X82.991 Y85.791 E12.35943
G1 X70.006 Y98.777 E12.96816
G1 X70.120 Y99.039 E12.97763
G1 X82.991 Y86.167 E13.58104
G1 X82.991 Y86.543 E13.59350
G1 X70.233 Y99.301 E14.19158
G1 X70.347 Y99.564 E14.20106
G1 X82.991 Y86.919 E14.79382
G1 X82.991 Y87.295 E14.80628
G1 X70.466 Y99.820 E15.39344
G1 X70.593 Y100.069 E15.40270
G1 X82.991 Y87.671 E15.98391
G1 X82.991 Y88.046 E15.99637
G1 X70.720 Y100.318 E16.57164
G1 X70.847 Y100.567 E16.58090
G1 X82.991 Y88.422 E17.15022
G1 X82.991 Y88.798 E17.16267
G1 X70.974 Y100.816 E17.72605
G1 X71.108 Y101.057 E17.73520
G1 X82.991 Y89.174 E18.29226
G1 X82.991 Y89.550 E18.30472
G1 X71.248 Y101.293 E18.85523
G1 X71.388 Y101.530 E18.86432
G1 X82.991 Y89.926 E19.40829
G1 X82.991 Y90.302 E19.42075
G1 X71.527 Y101.766 E19.95816
G1 X71.667 Y102.002 E19.96726
G1 X82.991 Y90.677 E20.49812
G1 X82.991 Y91.053 E20.51058
G1 X71.815 Y102.230 E21.03451
G1 X71.967 Y102.453 E21.04348
G1 X82.991 Y91.429 E21.56027
G1 X82.991 Y91.805 E21.57273
G1 X72.119 Y102.677 E22.08240
G1 X72.271 Y102.901 E22.09137
G1 X82.991 Y92.181 E22.59391
G1 X82.991 Y92.557 E22.60637
G1 X72.423 Y103.125 E23.10178
G1 X72.584 Y103.340 E23.11068
G1 X82.991 Y92.932 E23.59858
G1 X82.991 Y93.308 E23.61104
G1 X72.748 Y103.552 E24.09124
G1 X72.912 Y103.764 E24.10011
G1 X82.991 Y93.684 E24.57262
G1 X82.991 Y94.060 E24.58508
G1 X73.076 Y103.975 E25.04988
G1 X73.240 Y104.187 E25.05876
G1 X82.991 Y94.436 E25.51587
G1 X82.991 Y94.812 E25.52833
G1 X73.412 Y104.391 E25.97739
G1 X73.588 Y104.591 E25.98621
G1 X82.991 Y95.188 E26.42702
G1 X82.991 Y95.563 E26.43948
G1 X73.764 Y104.791 E26.87203
G1 X73.940 Y104.990 E26.88086
G1 X82.991 Y95.939 E27.30515
G1 X82.991 Y96.315 E27.31761
G1 X74.116 Y105.190 E27.73365
G1 X74.299 Y105.383 E27.74247
G1 X82.991 Y96.691 E28.14995
G1 X82.991 Y97.067 E28.16241
G1 X74.487 Y105.571 E28.56108
G1 X74.675 Y105.759 E28.56989
G1 X82.991 Y97.443 E28.95976
G1 X82.991 Y97.818 E28.97222
G1 X74.863 Y105.947 E29.35327
G1 X75.051 Y106.135 E29.36208
G1 X82.991 Y98.194 E29.73433
G1 X82.991 Y98.570 E29.74679
G1 X75.244 Y106.318 E30.10997
G1 X75.444 Y106.494 E30.11880
G1 X82.991 Y98.946 E30.47262
G1 X82.991 Y99.322 E30.48508
G1 X75.643 Y106.670 E30.82954
G1 X75.843 Y106.846 E30.83836
G1 X82.991 Y99.698 E31.17346
G1 X82.991 Y100.074 E31.18592
G1 X76.043 Y107.022 E31.51164
