; generated by Slic3r 1.3.1-dev (Build 2d100c4) on 2020-05-22 at 15:20:48

; external perimeters extrusion width = 0.44mm (2.86mm^3/s)
; perimeters extrusion width = 0.56mm (4.14mm^3/s)
; infill extrusion width = 0.50mm (3.66mm^3/s)
; solid infill extrusion width = 0.56mm (3.10mm^3/s)
; top infill extrusion width = 0.56mm (3.10mm^3/s)

M107
G92 E0
;D3D:START:START
T0
M104 S215 T0

G21
G90
M107
T0
G28
G29
M109 T0 S215 T0
G0 F3000
M107
T0
G92 E0
G0 X0 Y149 Z0.1 F3600
G1 Y49 E6.5 F1200
G0 Z1
G92 E0
; Filament gcode

G21 ; set units to millimeters
G90 ; use absolute coordinates
M82 ; use absolute distances for extrusion
G92 E0
G1 Z0.300 F7800.000
G1 E-2.00000 F2400.00000
G92 E0
G1 X65.805 Y58.369 F7800.000
G1 E2.00000 F2400.00000
G1 F1800.000
G1 X66.143 Y58.051 E2.01538
G1 X66.527 Y57.772 E2.03110
G1 X67.206 Y57.424 E2.05638
G1 X82.782 Y57.424 E2.57242
G1 X83.282 Y57.660 E2.59073
G1 X83.683 Y57.914 E2.60646
G1 X84.188 Y58.360 E2.62880
G1 X84.491 Y58.727 E2.64454
G1 X84.746 Y59.128 E2.66029
G1 X85.018 Y59.757 E2.68299
G1 X85.168 Y60.426 E2.70570
G1 X85.196 Y60.878 E2.72072
G1 X85.190 Y105.232 E4.19015
G1 X85.132 Y105.693 E4.20553
G1 X85.014 Y106.153 E4.22128
G1 X84.746 Y106.772 E4.24362
G1 X84.486 Y107.183 E4.25973
G1 X84.040 Y107.688 E4.28206
G1 X83.665 Y107.998 E4.29818
G1 X83.085 Y108.342 E4.32051
G1 X82.643 Y108.517 E4.33626
G1 X82.182 Y108.635 E4.35201
G1 X81.536 Y108.696 E4.37351
G1 X68.478 Y108.696 E4.80612
G1 X68.026 Y108.668 E4.82114
G1 X67.368 Y108.521 E4.84347
G1 X66.926 Y108.346 E4.85922
G1 X66.519 Y108.122 E4.87461
G1 X66.143 Y107.849 E4.88999
G1 X65.805 Y107.531 E4.90537
G1 X65.509 Y107.173 E4.92075
G1 X65.254 Y106.772 E4.93650
G1 X64.986 Y106.153 E4.95884
G1 X64.865 Y105.682 E4.97495
G1 X64.804 Y105.036 E4.99646
G1 X64.810 Y60.668 E6.46636
G1 X64.868 Y60.207 E6.48174
G1 X64.986 Y59.747 E6.49749
G1 X65.254 Y59.128 E6.51983
G1 X65.509 Y58.727 E6.53558
G1 X65.766 Y58.415 E6.54897
G1 X65.999 Y58.551 F7800.000
G1 F1800.000
G1 X66.313 Y58.256 E6.56324
G1 X66.666 Y57.999 E6.57773
G1 X67.270 Y57.689 E6.60021
G1 X82.723 Y57.689 E7.11214
G1 X83.153 Y57.893 E7.12793
G1 X83.523 Y58.127 E7.14242
G1 X83.997 Y58.546 E7.16337
G1 X84.276 Y58.883 E7.17787
G1 X84.511 Y59.253 E7.19237
G1 X84.765 Y59.839 E7.21355
G1 X84.904 Y60.463 E7.23473
G1 X84.931 Y60.886 E7.24879
G1 X84.925 Y105.216 E8.71738
G1 X84.871 Y105.643 E8.73166
G1 X84.762 Y106.067 E8.74616
G1 X84.511 Y106.647 E8.76711
G1 X84.272 Y107.023 E8.78184
G1 X83.854 Y107.497 E8.80279
G1 X83.512 Y107.780 E8.81752
G1 X82.967 Y108.102 E8.83847
G1 X82.560 Y108.264 E8.85297
G1 X82.136 Y108.372 E8.86747
G1 X81.524 Y108.431 E8.88787
G1 X68.486 Y108.431 E9.31978
G1 X68.063 Y108.404 E9.33383
G1 X67.446 Y108.266 E9.35479
G1 X67.039 Y108.105 E9.36929
G1 X66.661 Y107.897 E9.38357
G1 X66.313 Y107.644 E9.39784
G1 X65.999 Y107.349 E9.41212
G1 X65.724 Y107.017 E9.42639
G1 X65.489 Y106.647 E9.44089
G1 X65.238 Y106.067 E9.46185
G1 X65.128 Y105.636 E9.47657
G1 X65.069 Y105.024 E9.49697
G1 X65.075 Y60.684 E10.96590
G1 X65.129 Y60.257 E10.98017
G1 X65.238 Y59.833 E10.99468
G1 X65.489 Y59.253 E11.01563
G1 X65.724 Y58.883 E11.03013
G1 X65.960 Y58.597 E11.04242
G1 X66.193 Y58.733 F7800.000
G1 F1800.000
G1 X66.482 Y58.461 E11.05559
G1 X66.806 Y58.226 E11.06884
G1 X67.334 Y57.955 E11.08851
G1 X82.663 Y57.955 E11.59635
G1 X83.025 Y58.126 E11.60962
G1 X83.363 Y58.341 E11.62286
G1 X83.806 Y58.731 E11.64243
G1 X84.061 Y59.039 E11.65569
G1 X84.275 Y59.377 E11.66894
G1 X84.511 Y59.922 E11.68860
G1 X84.640 Y60.501 E11.70825
G1 X84.665 Y60.895 E11.72133
G1 X84.659 Y105.199 E13.18910
G1 X84.609 Y105.593 E13.20227
G1 X84.510 Y105.981 E13.21553
G1 X84.275 Y106.523 E13.23509
G1 X84.059 Y106.863 E13.24844
G1 X83.669 Y107.306 E13.26800
G1 X83.359 Y107.563 E13.28134
G1 X82.850 Y107.863 E13.30091
G1 X82.478 Y108.010 E13.31417
G1 X82.091 Y108.110 E13.32742
G1 X81.511 Y108.165 E13.34671
G1 X68.495 Y108.165 E13.77793
G1 X68.101 Y108.140 E13.79101
G1 X67.524 Y108.011 E13.81058
G1 X67.152 Y107.864 E13.82384
G1 X66.804 Y107.673 E13.83701
G1 X66.482 Y107.439 E13.85018
G1 X66.193 Y107.167 E13.86334
G1 X65.939 Y106.861 E13.87651
G1 X65.725 Y106.523 E13.88977
G1 X65.490 Y105.981 E13.90933
G1 X65.390 Y105.591 E13.92268
G1 X65.335 Y105.011 E13.94197
G1 X65.341 Y60.701 E15.40993
G1 X65.391 Y60.307 E15.42309
G1 X65.490 Y59.919 E15.43635
G1 X65.725 Y59.377 E15.45592
G1 X65.939 Y59.039 E15.46918
G1 X66.154 Y58.779 E15.48035
G1 E13.48035 F2400.00000
G92 E0
G1 X61.841 Y88.244 F7800.000
G1 E2.00000 F2400.00000
G1 F1800.000
G1 X62.246 Y88.362 E2.01397
G1 X62.632 Y88.559 E2.02831
G1 X62.974 Y88.824 E2.04265
G1 X63.260 Y89.149 E2.05699
G1 X63.480 Y89.521 E2.07132
G1 X63.627 Y89.928 E2.08566
G1 X63.695 Y90.356 E2.10000
G1 X63.681 Y90.788 E2.11433
G1 X63.587 Y91.211 E2.12867
G1 X63.415 Y91.608 E2.14301
G1 X63.172 Y91.966 E2.15735
G1 X62.866 Y92.272 E2.17168
G1 X62.517 Y92.509 E2.18566
G1 X62.246 Y92.636 E2.19558
G1 X61.961 Y92.729 E2.20550
G1 X61.555 Y92.793 E2.21911
G1 X61.256 Y92.793 E2.22904
G1 X60.959 Y92.756 E2.23896
G1 X60.554 Y92.638 E2.25293
G1 X60.168 Y92.441 E2.26727
G1 X59.826 Y92.176 E2.28161
G1 X59.540 Y91.851 E2.29595
G1 X59.320 Y91.479 E2.31028
G1 X59.173 Y91.072 E2.32462
G1 X59.105 Y90.644 E2.33895
G1 X59.119 Y90.212 E2.35329
G1 X59.213 Y89.789 E2.36763
G1 X59.385 Y89.392 E2.38197
G1 X59.628 Y89.034 E2.39631
G1 X59.934 Y88.728 E2.41064
G1 X60.292 Y88.485 E2.42498
G1 X60.679 Y88.318 E2.43896
G1 X60.969 Y88.243 E2.44888
G1 X61.256 Y88.207 E2.45844
G1 X61.544 Y88.207 E2.46800
G1 X61.782 Y88.237 E2.47593
G1 X61.787 Y88.505 F7800.000
G1 F1800.000
G1 X62.148 Y88.610 E2.48838
G1 X62.489 Y88.784 E2.50105
G1 X62.791 Y89.018 E2.51373
G1 X63.044 Y89.305 E2.52640
G1 X63.239 Y89.635 E2.53908
G1 X63.369 Y89.995 E2.55175
G1 X63.428 Y90.372 E2.56442
G1 X63.417 Y90.755 E2.57710
G1 X63.333 Y91.128 E2.58977
G1 X63.181 Y91.479 E2.60245
G1 X62.966 Y91.796 E2.61512
G1 X62.696 Y92.066 E2.62779
G1 X62.385 Y92.277 E2.64024
G1 X62.148 Y92.389 E2.64892
G1 X61.899 Y92.470 E2.65759
G1 X61.534 Y92.527 E2.66982
G1 X61.272 Y92.527 E2.67850
G1 X61.013 Y92.495 E2.68717
G1 X60.652 Y92.390 E2.69962
G1 X60.311 Y92.216 E2.71229
G1 X60.009 Y91.982 E2.72497
G1 X59.756 Y91.695 E2.73764
G1 X59.561 Y91.365 E2.75032
G1 X59.431 Y91.005 E2.76299
G1 X59.372 Y90.628 E2.77566
G1 X59.383 Y90.245 E2.78834
G1 X59.467 Y89.872 E2.80101
G1 X59.619 Y89.521 E2.81369
G1 X59.834 Y89.204 E2.82636
G1 X60.104 Y88.934 E2.83903
G1 X60.421 Y88.719 E2.85171
G1 X60.766 Y88.570 E2.86416
G1 X61.019 Y88.505 E2.87283
G1 X61.272 Y88.473 E2.88128
G1 X61.528 Y88.473 E2.88974
G1 X61.728 Y88.498 E2.89642
G1 X61.733 Y88.766 F7800.000
G1 F1800.000
G1 X62.050 Y88.858 E2.90735
G1 X62.346 Y89.009 E2.91836
G1 X62.609 Y89.213 E2.92937
G1 X62.828 Y89.462 E2.94038
G1 X62.998 Y89.748 E2.95139
G1 X63.110 Y90.061 E2.96240
G1 X63.162 Y90.389 E2.97341
G1 X63.152 Y90.721 E2.98442
G1 X63.079 Y91.046 E2.99543
G1 X62.947 Y91.351 E3.00644
G1 X62.761 Y91.626 E3.01745
G1 X62.526 Y91.861 E3.02846
G1 X62.253 Y92.046 E3.03939
G1 X62.050 Y92.141 E3.04682
G1 X61.837 Y92.211 E3.05425
G1 X61.513 Y92.262 E3.06508
G1 X61.289 Y92.262 E3.07252
G1 X61.067 Y92.234 E3.07995
G1 X60.750 Y92.142 E3.09087
G1 X60.454 Y91.991 E3.10188
G1 X60.191 Y91.787 E3.11289
G1 X59.972 Y91.538 E3.12390
G1 X59.802 Y91.252 E3.13491
G1 X59.690 Y90.939 E3.14592
G1 X59.638 Y90.611 E3.15693
G1 X59.648 Y90.279 E3.16794
G1 X59.721 Y89.954 E3.17895
G1 X59.853 Y89.649 E3.18996
G1 X60.039 Y89.374 E3.20097
G1 X60.274 Y89.139 E3.21198
G1 X60.549 Y88.953 E3.22299
G1 X60.852 Y88.822 E3.23392
G1 X61.069 Y88.766 E3.24135
G1 X61.289 Y88.738 E3.24869
G1 X61.674 Y88.759 E3.26145
G1 E1.26145 F2400.00000
G92 E0
G1 X86.319 Y90.212 F7800.000
G1 E2.00000 F2400.00000
G1 F1800.000
G1 X86.413 Y89.789 E2.01434
G1 X86.585 Y89.392 E2.02868
G1 X86.828 Y89.034 E2.04302
G1 X87.134 Y88.728 E2.05735
G1 X87.492 Y88.485 E2.07169
G1 X87.879 Y88.318 E2.08566
G1 X88.169 Y88.243 E2.09559
G1 X88.456 Y88.207 E2.10514
G1 X88.744 Y88.207 E2.11471
G1 X89.041 Y88.244 E2.12463
G1 X89.446 Y88.362 E2.13860
G1 X89.832 Y88.559 E2.15294
G1 X90.174 Y88.824 E2.16728
G1 X90.460 Y89.149 E2.18161
G1 X90.680 Y89.521 E2.19595
G1 X90.827 Y89.928 E2.21029
G1 X90.895 Y90.356 E2.22462
G1 X90.881 Y90.788 E2.23896
G1 X90.787 Y91.211 E2.25330
G1 X90.615 Y91.608 E2.26764
G1 X90.372 Y91.966 E2.28198
G1 X90.066 Y92.272 E2.29631
G1 X89.717 Y92.509 E2.31029
G1 X89.446 Y92.636 E2.32021
G1 X89.161 Y92.729 E2.33013
G1 X88.755 Y92.793 E2.34374
G1 X88.456 Y92.793 E2.35366
G1 X88.159 Y92.756 E2.36359
G1 X87.754 Y92.638 E2.37756
G1 X87.368 Y92.441 E2.39189
G1 X87.026 Y92.176 E2.40623
G1 X86.740 Y91.851 E2.42057
G1 X86.520 Y91.479 E2.43491
G1 X86.373 Y91.072 E2.44925
G1 X86.305 Y90.644 E2.46358
G1 X86.317 Y90.272 E2.47593
G1 X86.583 Y90.245 F7800.000
G1 F1800.000
G1 X86.667 Y89.872 E2.48861
G1 X86.819 Y89.521 E2.50128
G1 X87.034 Y89.204 E2.51396
G1 X87.304 Y88.934 E2.52663
G1 X87.621 Y88.719 E2.53930
G1 X87.966 Y88.570 E2.55175
G1 X88.219 Y88.505 E2.56043
G1 X88.472 Y88.473 E2.56888
G1 X88.728 Y88.473 E2.57733
G1 X88.987 Y88.505 E2.58601
G1 X89.348 Y88.610 E2.59846
G1 X89.689 Y88.784 E2.61113
G1 X89.991 Y89.018 E2.62381
G1 X90.244 Y89.305 E2.63648
G1 X90.439 Y89.635 E2.64915
G1 X90.569 Y89.995 E2.66183
G1 X90.628 Y90.372 E2.67450
G1 X90.617 Y90.755 E2.68717
G1 X90.533 Y91.128 E2.69985
G1 X90.381 Y91.479 E2.71252
G1 X90.166 Y91.796 E2.72520
G1 X89.896 Y92.066 E2.73787
G1 X89.585 Y92.277 E2.75032
G1 X89.348 Y92.389 E2.75899
G1 X89.099 Y92.470 E2.76767
G1 X88.734 Y92.527 E2.77989
G1 X88.472 Y92.527 E2.78857
G1 X88.213 Y92.495 E2.79725
G1 X87.852 Y92.390 E2.80970
G1 X87.511 Y92.216 E2.82237
G1 X87.209 Y91.982 E2.83505
G1 X86.956 Y91.695 E2.84772
G1 X86.761 Y91.365 E2.86039
G1 X86.631 Y91.005 E2.87307
G1 X86.572 Y90.628 E2.88574
G1 X86.582 Y90.305 E2.89642
G1 X86.848 Y90.279 F7800.000
G1 F1800.000
G1 X86.921 Y89.954 E2.90744
G1 X87.053 Y89.649 E2.91845
G1 X87.239 Y89.374 E2.92946
G1 X87.474 Y89.139 E2.94047
G1 X87.749 Y88.953 E2.95148
G1 X88.052 Y88.822 E2.96240
G1 X88.269 Y88.766 E2.96983
G1 X88.489 Y88.738 E2.97717
G1 X88.711 Y88.738 E2.98452
G1 X88.933 Y88.766 E2.99195
G1 X89.250 Y88.858 E3.00288
G1 X89.546 Y89.009 E3.01388
G1 X89.809 Y89.213 E3.02490
G1 X90.028 Y89.462 E3.03591
G1 X90.198 Y89.748 E3.04692
G1 X90.310 Y90.061 E3.05793
G1 X90.362 Y90.389 E3.06894
G1 X90.352 Y90.721 E3.07995
G1 X90.279 Y91.046 E3.09096
G1 X90.147 Y91.351 E3.10197
G1 X89.960 Y91.626 E3.11298
G1 X89.726 Y91.861 E3.12399
G1 X89.453 Y92.046 E3.13491
G1 X89.250 Y92.141 E3.14234
G1 X89.037 Y92.211 E3.14977
G1 X88.713 Y92.262 E3.16061
G1 X88.489 Y92.262 E3.16804
G1 X88.267 Y92.234 E3.17547
G1 X87.950 Y92.142 E3.18640
G1 X87.654 Y91.991 E3.19741
G1 X87.391 Y91.787 E3.20842
G1 X87.172 Y91.538 E3.21943
G1 X87.002 Y91.252 E3.23044
G1 X86.890 Y90.939 E3.24145
G1 X86.838 Y90.611 E3.25246
G1 X86.846 Y90.339 E3.26148
G1 E1.26148 F2400.00000
G92 E0
G1 X75.001 Y40.181 F7800.000
G1 E2.00000 F2400.00000
G1 F1800.000
G1 X75.529 Y40.852 E2.02831
G1 X77.005 Y42.837 E2.11024
G1 X78.556 Y45.004 E2.19855
G1 X79.895 Y46.946 E2.27669
G1 X80.856 Y48.379 E2.33385
G1 X82.381 Y50.731 E2.42671
G1 X83.439 Y52.418 E2.49270
G1 X84.521 Y54.197 E2.56168
G1 X85.617 Y56.058 E2.63321
G1 X87.270 Y58.992 E2.74480
G1 X88.363 Y61.027 E2.82131
G1 X89.438 Y63.116 E2.89916
G1 X90.999 Y66.342 E3.01789
G1 X91.989 Y68.535 E3.09760
G1 X92.463 Y69.637 E3.13735
G1 X93.372 Y71.868 E3.21715
G1 X93.798 Y72.981 E3.25664
G1 X94.601 Y75.226 E3.33562
G1 X94.968 Y76.340 E3.37448
G1 X95.639 Y78.575 E3.45178
G1 X96.210 Y80.794 E3.52770
G1 X96.453 Y81.889 E3.56485
G1 X96.669 Y82.980 E3.60169
G1 X96.855 Y84.062 E3.63806
G1 X97.010 Y85.134 E3.67394
G1 X97.133 Y86.195 E3.70933
G1 X97.223 Y87.243 E3.74420
G1 X97.279 Y88.279 E3.77856
G1 X97.301 Y89.300 E3.81241
G1 X97.288 Y90.306 E3.84574
G1 X97.240 Y91.296 E3.87857
G1 X97.155 Y92.269 E3.91092
G1 X97.033 Y93.224 E3.94280
G1 X96.875 Y94.159 E3.97424
G1 X96.680 Y95.075 E4.00526
G1 X96.448 Y95.970 E4.03590
G1 X96.179 Y96.844 E4.06620
G1 X95.873 Y97.697 E4.09620
G1 X95.531 Y98.526 E4.12593
G1 X95.152 Y99.332 E4.15544
G1 X94.737 Y100.115 E4.18478
G1 X94.286 Y100.872 E4.21399
G1 X93.801 Y101.605 E4.24311
G1 X93.281 Y102.312 E4.27219
G1 X92.727 Y102.993 E4.30126
G1 X92.141 Y103.647 E4.33036
G1 X91.522 Y104.274 E4.35954
G1 X90.872 Y104.873 E4.38881
G1 X90.192 Y105.443 E4.41822
G1 X89.482 Y105.984 E4.44778
G1 X88.745 Y106.495 E4.47752
G1 X87.980 Y106.976 E4.50746
G1 X87.189 Y107.427 E4.53761
G1 X86.373 Y107.846 E4.56800
G1 X85.533 Y108.233 E4.59864
G1 X84.670 Y108.589 E4.62955
G1 X83.786 Y108.912 E4.66074
G1 X82.881 Y109.202 E4.69222
G1 X81.956 Y109.459 E4.72401
G1 X81.013 Y109.682 E4.75613
G1 X80.052 Y109.871 E4.78860
G1 X79.072 Y110.026 E4.82144
G1 X78.076 Y110.148 E4.85469
G1 X77.064 Y110.234 E4.88836
G1 X76.032 Y110.286 E4.92256
G1 X75.009 Y110.301 E4.95647
G1 X73.968 Y110.286 E4.99098
G1 X72.936 Y110.234 E5.02518
G1 X71.924 Y110.148 E5.05885
G1 X70.928 Y110.026 E5.09210
G1 X69.948 Y109.871 E5.12495
G1 X68.987 Y109.682 E5.15741
G1 X68.044 Y109.459 E5.18953
G1 X67.119 Y109.202 E5.22132
G1 X66.214 Y108.912 E5.25280
G1 X65.330 Y108.589 E5.28399
G1 X64.467 Y108.233 E5.31490
G1 X63.627 Y107.846 E5.34554
G1 X62.811 Y107.427 E5.37593
G1 X62.020 Y106.976 E5.40608
G1 X61.255 Y106.495 E5.43602
G1 X60.518 Y105.984 E5.46576
G1 X59.808 Y105.443 E5.49532
G1 X59.128 Y104.873 E5.52473
G1 X58.478 Y104.274 E5.55400
G1 X57.859 Y103.647 E5.58318
G1 X57.273 Y102.993 E5.61228
G1 X56.719 Y102.312 E5.64135
G1 X56.199 Y101.605 E5.67043
G1 X55.714 Y100.872 E5.69955
G1 X55.263 Y100.115 E5.72876
G1 X54.848 Y99.332 E5.75810
G1 X54.469 Y98.526 E5.78761
G1 X54.127 Y97.697 E5.81734
G1 X53.821 Y96.844 E5.84734
G1 X53.552 Y95.970 E5.87764
G1 X53.320 Y95.075 E5.90828
G1 X53.125 Y94.159 E5.93930
G1 X52.967 Y93.224 E5.97074
G1 X52.845 Y92.269 E6.00262
G1 X52.760 Y91.296 E6.03497
G1 X52.712 Y90.306 E6.06780
G1 X52.699 Y89.300 E6.10113
G1 X52.721 Y88.279 E6.13498
G1 X52.777 Y87.243 E6.16934
G1 X52.867 Y86.195 E6.20421
G1 X52.990 Y85.134 E6.23960
G1 X53.145 Y84.062 E6.27548
G1 X53.331 Y82.980 E6.31185
G1 X53.547 Y81.889 E6.34869
G1 X53.790 Y80.794 E6.38584
G1 X54.361 Y78.575 E6.46176
G1 X55.032 Y76.340 E6.53906
G1 X55.399 Y75.226 E6.57792
G1 X56.202 Y72.981 E6.65690
G1 X56.628 Y71.868 E6.69640
G1 X57.537 Y69.637 E6.77619
G1 X58.011 Y68.535 E6.81594
G1 X59.001 Y66.342 E6.89565
G1 X60.562 Y63.116 E7.01438
G1 X61.637 Y61.027 E7.09223
G1 X62.730 Y58.992 E7.16874
G1 X64.383 Y56.058 E7.28033
G1 X65.479 Y54.197 E7.35186
G1 X66.561 Y52.418 E7.42084
G1 X67.619 Y50.731 E7.48683
G1 X69.144 Y48.379 E7.57969
G1 X70.105 Y46.946 E7.63685
G1 X71.444 Y45.004 E7.71499
G1 X72.995 Y42.837 E7.80329
G1 X74.624 Y40.652 E7.89359
G1 X74.963 Y40.227 E7.91158
G1 X75.002 Y39.753 F7800.000
G1 F1800.000
G1 X75.740 Y40.691 E7.95112
G1 X77.219 Y42.680 E8.03325
G1 X78.773 Y44.852 E8.12171
G1 X80.115 Y46.797 E8.19999
G1 X81.077 Y48.233 E8.25727
G1 X82.605 Y50.588 E8.35027
G1 X83.665 Y52.279 E8.41639
G1 X84.749 Y54.061 E8.48548
G1 X85.847 Y55.925 E8.55716
G1 X87.503 Y58.864 E8.66892
G1 X88.598 Y60.903 E8.74560
G1 X89.676 Y62.998 E8.82364
G1 X91.240 Y66.230 E8.94259
G1 X92.232 Y68.428 E9.02250
G1 X92.708 Y69.535 E9.06241
G1 X93.619 Y71.770 E9.14239
G1 X94.047 Y72.889 E9.18207
G1 X94.852 Y75.140 E9.26126
G1 X95.221 Y76.260 E9.30034
G1 X95.895 Y78.503 E9.37794
G1 X96.468 Y80.732 E9.45418
G1 X96.713 Y81.834 E9.49158
G1 X96.930 Y82.931 E9.52863
G1 X97.117 Y84.020 E9.56523
G1 X97.273 Y85.099 E9.60136
G1 X97.397 Y86.168 E9.63699
G1 X97.488 Y87.225 E9.67214
G1 X97.545 Y88.269 E9.70678
G1 X97.567 Y89.299 E9.74092
G1 X97.554 Y90.315 E9.77457
G1 X97.505 Y91.314 E9.80773
G1 X97.419 Y92.297 E9.84041
G1 X97.296 Y93.262 E9.87265
G1 X97.136 Y94.209 E9.90445
G1 X96.939 Y95.136 E9.93585
G1 X96.704 Y96.043 E9.96689
G1 X96.431 Y96.928 E9.99759
G1 X96.121 Y97.792 E10.02799
G1 X95.774 Y98.633 E10.05814
G1 X95.389 Y99.451 E10.08807
G1 X94.968 Y100.245 E10.11784
G1 X94.511 Y101.014 E10.14748
G1 X94.019 Y101.757 E10.17703
G1 X93.491 Y102.475 E10.20653
G1 X92.929 Y103.166 E10.23603
G1 X92.334 Y103.829 E10.26556
G1 X91.707 Y104.465 E10.29516
