; generated by Slic3r 1.3.0 on 2020-08-25 at 18:20:22

; external perimeters extrusion width = 0.44mm (2.38mm^3/s)
; perimeters extrusion width = 0.56mm (4.14mm^3/s)
; infill extrusion width = 0.50mm (7.31mm^3/s)
; solid infill extrusion width = 0.56mm (8.27mm^3/s)
; top infill extrusion width = 0.56mm (4.14mm^3/s)

M107
M190 S60 ; set bed temperature and wait for it to be reached
;D3D:START:START
T0
M104 S215 T0

G21
G90
M107
T0
G28
G29
M109 T0 S215 T0
G0 F3000
M107
T0
G92 E0
G0 X0 Y149 Z0.1 F3600
G1 Y49 E6.5 F1200
G0 Z1
G92 E0
; Filament gcode

G21 ; set units to millimeters
G90 ; use absolute coordinates
M82 ; use absolute distances for extrusion
G92 E0
G1 Z0.300 F9000.000
G1 E-3.20000 F4200.00000
G92 E0
G1 Z0.500 F9000.000
G1 X73.463 Y102.171 F9000.000
G1 Z0.300 F9000.000
G1 E3.20000 F4200.00000
M201 X800 Y800
M204 P800 T800
G1 F1200
G1 X73.749 Y102.002 E3.21101
G1 X74.064 Y101.889 E3.22211
G1 X74.495 Y101.834 E3.23648
G1 X74.832 Y101.865 E3.24769
G1 X75.151 Y101.958 E3.25871
G1 X75.447 Y102.109 E3.26972
G1 X75.710 Y102.313 E3.28073
G1 X75.928 Y102.560 E3.29165
G1 X76.048 Y102.750 E3.29908
G1 X76.143 Y102.952 E3.30651
G1 X76.235 Y103.269 E3.31744
G1 X76.267 Y103.600 E3.32845
G1 X76.235 Y103.931 E3.33946
G1 X76.140 Y104.256 E3.35068
G1 X75.931 Y104.636 E3.36505
G1 X75.710 Y104.887 E3.37615
G1 X75.447 Y105.091 E3.38716
G1 X75.150 Y105.242 E3.39820
G1 X74.771 Y105.347 E3.41123
G1 X74.501 Y105.365 E3.42020
G1 X74.231 Y105.347 E3.42917
G1 X73.854 Y105.243 E3.44210
G1 X73.650 Y105.147 E3.44957
G1 X73.461 Y105.027 E3.45700
G1 X73.214 Y104.809 E3.46793
G1 X73.010 Y104.546 E3.47894
G1 X72.859 Y104.250 E3.48994
G1 X72.766 Y103.931 E3.50096
G1 X72.735 Y103.600 E3.51197
G1 X72.766 Y103.269 E3.52298
G1 X72.859 Y102.950 E3.53399
G1 X73.010 Y102.654 E3.54500
G1 X73.214 Y102.391 E3.55601
G1 X73.418 Y102.211 E3.56503
M201 X1250 Y1250
M204 P1250 T1250
G1 F7200
G1 X73.749 Y102.002 E3.34807
G1 F7200
G1 X74.064 Y101.889 E3.16252
G1 F7200
G1 X74.495 Y101.834 E2.92208
G1 F7200
G1 X74.832 Y101.865 E2.73448
G1 F7200
G1 X75.151 Y101.958 E2.55022
G1 F7200
G1 X75.447 Y102.109 E2.36608
G1 F7200
G1 X75.710 Y102.313 E2.18188
G1 F7200
G1 X75.928 Y102.560 E1.99921
G1 F7200
G1 X76.048 Y102.750 E1.87486
G1 F7200
G1 X76.143 Y102.952 E1.75059
G1 F7200
G1 X76.235 Y103.269 E1.56785
G1 F7200
G1 X76.267 Y103.600 E1.38368
G1 F7200
G1 X76.235 Y103.931 E1.19945
G1 F7200
G1 X76.140 Y104.256 E1.01184
G1 F7200
G1 X75.931 Y104.636 E0.77138
G1 F7200
G1 X75.710 Y104.887 E0.58585
G1 F7200
G1 X75.623 Y104.954 E0.52503
G1 E0.36503 F4200.00000
G92 E0
G1 Z0.500 F9000.000
G1 X59.086 Y97.665 F9000.000
G1 Z0.300 F9000.000
G1 E3.20000 F4200.00000
M201 X800 Y800
M204 P800 T800
G1 F1200
G1 X59.086 Y82.335 E3.70788
G1 X110.578 Y82.335 E5.41377
G1 X110.578 Y97.665 E5.92165
G1 X59.146 Y97.665 E7.62556
M201 X1250 Y1250
M204 P1250 T1250
G1 F7200
G1 X59.124 Y92.179 E4.58556
G1 E4.42556 F4200.00000
G92 E0
G1 Z0.500 F9000.000
G1 X73.461 Y77.827 F9000.000
G1 Z0.300 F9000.000
G1 E3.20000 F4200.00000
M201 X800 Y800
M204 P800 T800
G1 F1200
G1 X73.214 Y77.609 E3.21092
G1 X73.010 Y77.346 E3.22193
G1 X72.859 Y77.050 E3.23294
G1 X72.766 Y76.731 E3.24395
G1 X72.735 Y76.400 E3.25496
G1 X72.766 Y76.069 E3.26598
G1 X72.859 Y75.750 E3.27699
G1 X73.010 Y75.454 E3.28799
G1 X73.214 Y75.191 E3.29900
G1 X73.463 Y74.971 E3.31002
G1 X73.749 Y74.802 E3.32103
G1 X74.064 Y74.689 E3.33212
G1 X74.495 Y74.634 E3.34650
G1 X74.832 Y74.665 E3.35771
G1 X75.151 Y74.758 E3.36872
G1 X75.447 Y74.909 E3.37973
G1 X75.710 Y75.113 E3.39075
G1 X75.929 Y75.362 E3.40176
G1 X76.101 Y75.654 E3.41297
G1 X76.235 Y76.067 E3.42735
G1 X76.267 Y76.400 E3.43844
G1 X76.236 Y76.728 E3.44937
G1 X76.180 Y76.946 E3.45680
G1 X76.097 Y77.154 E3.46423
G1 X75.929 Y77.438 E3.47515
G1 X75.710 Y77.687 E3.48616
G1 X75.447 Y77.891 E3.49717
G1 X75.151 Y78.042 E3.50818
G1 X74.832 Y78.134 E3.51919
G1 X74.501 Y78.166 E3.53020
G1 X74.170 Y78.134 E3.54121
G1 X73.853 Y78.042 E3.55214
G1 X73.512 Y77.859 E3.56499
M201 X1250 Y1250
M204 P1250 T1250
G1 F7200
G1 X73.214 Y77.609 E3.34934
G1 F7200
G1 X73.010 Y77.346 E3.16519
G1 F7200
G1 X72.859 Y77.050 E2.98104
G1 F7200
G1 X72.766 Y76.731 E2.79685
G1 F7200
G1 X72.735 Y76.400 E2.61268
G1 F7200
G1 X72.766 Y76.069 E2.42850
G1 F7200
G1 X72.859 Y75.750 E2.24431
G1 F7200
G1 X73.010 Y75.454 E2.06017
G1 F7200
G1 X73.214 Y75.191 E1.87602
G1 F7200
G1 X73.463 Y74.971 E1.69182
G1 F7200
G1 X73.749 Y74.802 E1.50761
G1 F7200
G1 X74.064 Y74.689 E1.32206
G1 F7200
G1 X74.495 Y74.634 E1.08161
G1 F7200
G1 X74.832 Y74.665 E0.89403
G1 F7200
G1 X75.151 Y74.758 E0.70978
G1 F7200
G1 X75.447 Y74.909 E0.52563
G1 F7200
G1 X75.448 Y74.910 E0.52499
G1 E0.36499 F4200.00000
G92 E0
G1 Z0.500 F9000.000
G1 X125.580 Y90.003 F9000.000
G1 Z0.300 F9000.000
G1 E3.20000 F4200.00000
M201 X800 Y800
M204 P800 T800
G1 F1200
G1 X125.100 Y90.325 E3.21916
G1 X122.957 Y91.597 E3.30170
G1 X120.317 Y93.082 E3.40206
G1 X117.663 Y94.508 E3.50189
G1 X115.383 Y95.681 E3.58681
G1 X112.876 Y96.919 E3.67944
G1 X110.167 Y98.198 E3.77872
G1 X108.260 Y99.063 E3.84808
G1 X105.266 Y100.358 E3.95613
G1 X103.193 Y101.211 E4.03040
G1 X101.066 Y102.048 E4.10613
G1 X98.899 Y102.859 E4.18279
G1 X96.693 Y103.638 E4.26029
G1 X94.463 Y104.375 E4.33812
G1 X92.216 Y105.063 E4.41596
G1 X91.088 Y105.387 E4.45485
G1 X88.830 Y105.986 E4.53224
G1 X86.578 Y106.515 E4.60888
G1 X84.340 Y106.966 E4.68450
G1 X83.229 Y107.159 E4.72186
G1 X81.027 Y107.478 E4.79558
G1 X78.863 Y107.698 E4.86763
G1 X77.797 Y107.770 E4.90303
G1 X76.743 Y107.815 E4.93797
G1 X75.704 Y107.833 E4.97240
G1 X74.677 Y107.822 E5.00645
G1 X73.666 Y107.783 E5.03996
G1 X72.672 Y107.715 E5.07298
G1 X70.735 Y107.491 E5.13757
G1 X69.796 Y107.335 E5.16911
G1 X69.130 Y107.200 E5.19162
G1 X67.977 Y106.932 E5.23083
G1 X67.101 Y106.686 E5.26097
G1 X66.248 Y106.410 E5.29070
G1 X65.417 Y106.104 E5.32000
G1 X64.611 Y105.770 E5.34891
G1 X63.831 Y105.407 E5.37743
G1 X63.076 Y105.015 E5.40560
G1 X62.348 Y104.596 E5.43343
G1 X61.647 Y104.150 E5.46095
G1 X60.974 Y103.678 E5.48819
G1 X60.330 Y103.180 E5.51516
G1 X59.715 Y102.658 E5.54190
G1 X59.130 Y102.111 E5.56843
G1 X58.575 Y101.542 E5.59477
G1 X58.051 Y100.950 E5.62095
G1 X57.558 Y100.337 E5.64700
G1 X57.097 Y99.704 E5.67294
G1 X56.669 Y99.051 E5.69881
G1 X56.273 Y98.380 E5.72462
G1 X55.911 Y97.691 E5.75040
G1 X55.581 Y96.986 E5.77620
G1 X55.286 Y96.264 E5.80203
G1 X55.025 Y95.528 E5.82792
G1 X54.798 Y94.777 E5.85392
G1 X54.605 Y94.011 E5.88008
G1 X54.447 Y93.232 E5.90641
G1 X54.324 Y92.440 E5.93295
G1 X54.236 Y91.635 E5.95979
G1 X54.184 Y90.813 E5.98707
G1 X54.169 Y90.000 E6.01401
G1 X54.184 Y89.187 E6.04096
G1 X54.236 Y88.365 E6.06824
G1 X54.324 Y87.560 E6.09508
G1 X54.447 Y86.768 E6.12162
G1 X54.605 Y85.989 E6.14795
G1 X54.798 Y85.223 E6.17411
G1 X55.025 Y84.472 E6.20011
G1 X55.286 Y83.736 E6.22600
G1 X55.581 Y83.014 E6.25183
G1 X55.911 Y82.309 E6.27762
G1 X56.273 Y81.620 E6.30341
G1 X56.669 Y80.949 E6.32922
G1 X57.097 Y80.296 E6.35509
G1 X57.558 Y79.663 E6.38103
G1 X58.051 Y79.050 E6.40708
G1 X58.575 Y78.458 E6.43326
G1 X59.130 Y77.889 E6.45960
G1 X59.715 Y77.342 E6.48613
G1 X60.330 Y76.820 E6.51287
G1 X60.974 Y76.322 E6.53984
G1 X61.647 Y75.850 E6.56707
G1 X62.348 Y75.404 E6.59460
G1 X63.076 Y74.985 E6.62243
G1 X63.831 Y74.593 E6.65059
G1 X64.611 Y74.230 E6.67912
G1 X65.417 Y73.896 E6.70802
G1 X66.248 Y73.590 E6.73733
G1 X67.101 Y73.314 E6.76706
G1 X67.978 Y73.068 E6.79722
G1 X68.876 Y72.852 E6.82784
G1 X69.796 Y72.665 E6.85892
G1 X70.735 Y72.509 E6.89048
G1 X71.694 Y72.382 E6.92253
G1 X72.672 Y72.285 E6.95506
G1 X73.666 Y72.217 E6.98808
G1 X74.677 Y72.178 E7.02159
G1 X75.704 Y72.167 E7.05564
G1 X76.743 Y72.185 E7.09007
G1 X77.797 Y72.230 E7.12501
G1 X78.862 Y72.302 E7.16038
G1 X81.028 Y72.522 E7.23249
G1 X83.229 Y72.841 E7.30618
G1 X84.340 Y73.034 E7.34354
G1 X86.578 Y73.485 E7.41916
G1 X88.831 Y74.014 E7.49582
G1 X89.958 Y74.305 E7.53440
G1 X92.215 Y74.936 E7.61206
G1 X93.342 Y75.274 E7.65101
G1 X95.579 Y75.987 E7.72880
G1 X98.896 Y77.140 E7.84514
G1 X102.135 Y78.367 E7.95991
G1 X104.235 Y79.213 E8.03491
G1 X106.279 Y80.072 E8.10836
G1 X109.222 Y81.370 E8.21492
G1 X112.877 Y83.081 E8.34861
G1 X114.571 Y83.912 E8.41112
G1 X116.929 Y85.109 E8.49873
G1 X119.047 Y86.228 E8.57810
G1 X120.907 Y87.244 E8.64831
G1 X123.203 Y88.545 E8.73574
G1 X124.981 Y89.601 E8.80426
G1 X125.530 Y89.969 E8.82615
M201 X1250 Y1250
M204 P1250 T1250
G1 X125.000 Y90.106 F9000.000
M201 X800 Y800
M204 P800 T800
G1 F1200
G1 X125.207 Y89.899 E8.83587
G1 X124.981 Y89.748 E8.84488
G1 X124.045 Y90.684 E8.88884
G1 X123.119 Y91.234 E8.92462
G1 X124.747 Y89.606 E9.00109
G1 X124.511 Y89.466 E9.01021
G1 X122.230 Y91.747 E9.11734
G1 X121.369 Y92.231 E9.15014
G1 X124.274 Y89.326 E9.28660
G1 X124.038 Y89.185 E9.29573
G1 X120.508 Y92.715 E9.46152
G1 X119.671 Y93.175 E9.49323
G1 X123.802 Y89.045 E9.68723
G1 X123.565 Y88.905 E9.69635
G1 X118.858 Y93.612 E9.91746
G1 X118.044 Y94.049 E9.94812
G1 X123.329 Y88.764 E10.19633
G1 X123.091 Y88.625 E10.20547
G1 X117.240 Y94.477 E10.48028
G1 X116.465 Y94.876 E10.50925
G1 X122.851 Y88.489 E10.80920
G1 X122.611 Y88.353 E10.81837
G1 X115.689 Y95.275 E11.14347
G1 X114.923 Y95.664 E11.17199
G1 X122.371 Y88.217 E11.52176
G1 X122.130 Y88.080 E11.53094
G1 X114.179 Y96.032 E11.90437
G1 X113.435 Y96.399 E11.93193
G1 X121.890 Y87.944 E12.32903
G1 X121.650 Y87.808 E12.33820
G1 X112.691 Y96.767 E12.75896
G1 X111.976 Y97.105 E12.78522
G1 X121.409 Y87.672 E13.22826
G1 X121.169 Y87.536 E13.23743
G1 X111.263 Y97.442 E13.70270
G1 X110.740 Y97.689 E13.72190
G1 X110.740 Y97.588 E13.72524
G1 X120.929 Y87.399 E14.20377
G1 X120.686 Y87.266 E14.21298
G1 X110.740 Y97.212 E14.68011
G1 X110.740 Y96.835 E14.69261
G1 X120.442 Y87.133 E15.14830
G1 X120.199 Y87.000 E15.15751
G1 X110.740 Y96.458 E15.60176
G1 X110.740 Y96.082 E15.61427
G1 X119.955 Y86.867 E16.04708
G1 X119.712 Y86.734 E16.05630
G1 X110.740 Y95.705 E16.47767
G1 X110.740 Y95.329 E16.49017
G1 X119.468 Y86.600 E16.90011
G1 X119.225 Y86.467 E16.90933
G1 X110.740 Y94.952 E17.30782
G1 X110.740 Y94.576 E17.32033
G1 X118.980 Y86.335 E17.70736
G1 X118.734 Y86.205 E17.71662
G1 X110.740 Y94.199 E18.09208
G1 X110.740 Y93.822 E18.10458
G1 X118.488 Y86.075 E18.46847
G1 X118.241 Y85.945 E18.47772
G1 X110.740 Y93.446 E18.83003
G1 X110.740 Y93.069 E18.84253
G1 X117.995 Y85.815 E19.18327
G1 X117.748 Y85.684 E19.19252
G1 X110.740 Y92.693 E19.52168
G1 X110.740 Y92.316 E19.53419
G1 X117.502 Y85.554 E19.85177
G1 X117.255 Y85.424 E19.86102
G1 X110.740 Y91.940 E20.16703
G1 X110.740 Y91.563 E20.17953
G1 X117.009 Y85.294 E20.47397
G1 X116.760 Y85.166 E20.48325
G1 X110.740 Y91.187 E20.76601
G1 X110.740 Y90.810 E20.77852
G1 X116.511 Y85.039 E21.04955
G1 X116.261 Y84.912 E21.05885
G1 X110.740 Y90.433 E21.31816
G1 X110.740 Y90.057 E21.33066
G1 X116.011 Y84.786 E21.57824
G1 X115.761 Y84.659 E21.58754
G1 X110.740 Y89.680 E21.82339
G1 X110.740 Y89.304 E21.83589
G1 X115.512 Y84.532 E22.06001
G1 X115.262 Y84.405 E22.06931
G1 X110.740 Y88.927 E22.28169
G1 X110.740 Y88.551 E22.29420
G1 X115.012 Y84.278 E22.49485
G1 X114.762 Y84.152 E22.50416
G1 X110.740 Y88.174 E22.69308
G1 X110.740 Y87.798 E22.70559
G1 X114.512 Y84.025 E22.88276
G1 X114.260 Y83.901 E22.89211
G1 X110.740 Y87.421 E23.05741
G1 X110.740 Y87.044 E23.06992
G1 X114.007 Y83.777 E23.22336
G1 X113.754 Y83.653 E23.23271
G1 X110.740 Y86.668 E23.37428
G1 X110.740 Y86.291 E23.38679
G1 X113.502 Y83.530 E23.51650
G1 X113.249 Y83.406 E23.52584
G1 X110.740 Y85.915 E23.64369
G1 X110.740 Y85.538 E23.65620
G1 X112.996 Y83.282 E23.76218
G1 X112.742 Y83.160 E23.77155
G1 X110.740 Y85.162 E23.86558
G1 X110.740 Y84.785 E23.87808
G1 X112.485 Y83.039 E23.96006
G1 X112.229 Y82.919 E23.96947
G1 X110.740 Y84.408 E24.03941
G1 X110.740 Y84.032 E24.05191
G1 X111.972 Y82.799 E24.10980
G1 X111.716 Y82.679 E24.11921
G1 X110.740 Y83.655 E24.16505
G1 X110.740 Y83.279 E24.17756
G1 X111.460 Y82.559 E24.21136
G1 X111.203 Y82.439 E24.22077
G1 X110.740 Y82.902 E24.24252
G1 X110.740 Y82.526 E24.25503
G1 X110.947 Y82.319 E24.26474
M201 X1250 Y1250
M204 P1250 T1250
G1 X109.711 Y82.173 F9000.000
M201 X800 Y800
M204 P800 T800
G1 F1200
G1 X110.005 Y81.878 E24.27854
G1 X109.749 Y81.758 E24.28791
G1 X109.335 Y82.173 E24.30733
G1 X108.959 Y82.173 E24.31978
G1 X109.493 Y81.638 E24.34482
G1 X109.238 Y81.519 E24.35419
G1 X108.583 Y82.173 E24.38485
G1 X108.208 Y82.173 E24.39730
G1 X108.977 Y81.403 E24.43337
G1 X108.716 Y81.288 E24.44281
G1 X107.832 Y82.173 E24.48427
G1 X107.456 Y82.173 E24.49672
G1 X108.456 Y81.173 E24.54357
G1 X108.195 Y81.058 E24.55302
G1 X107.080 Y82.173 E24.60526
G1 X106.705 Y82.173 E24.61771
G1 X107.934 Y80.943 E24.67534
G1 X107.673 Y80.828 E24.68478
G1 X106.329 Y82.173 E24.74780
G1 X105.953 Y82.173 E24.76026
G1 X107.413 Y80.713 E24.82867
G1 X107.152 Y80.598 E24.83811
G1 X105.577 Y82.173 E24.91192
G1 X105.201 Y82.173 E24.92437
G1 X106.891 Y80.483 E25.00356
G1 X106.630 Y80.368 E25.01301
G1 X104.826 Y82.173 E25.09759
G1 X104.450 Y82.173 E25.11004
G1 X106.369 Y80.253 E25.20002
G1 X106.106 Y80.141 E25.20951
G1 X104.074 Y82.173 E25.30475
G1 X103.698 Y82.173 E25.31721
G1 X105.842 Y80.029 E25.41767
G1 X105.577 Y79.918 E25.42718
G1 X103.322 Y82.173 E25.53285
G1 X102.947 Y82.173 E25.54531
G1 X105.312 Y79.807 E25.65619
G1 X105.048 Y79.696 E25.66570
G1 X102.571 Y82.173 E25.78180
G1 X102.195 Y82.173 E25.79425
G1 X104.783 Y79.585 E25.91556
G1 X104.519 Y79.473 E25.92507
G1 X101.819 Y82.173 E26.05160
G1 X101.444 Y82.173 E26.06405
G1 X104.254 Y79.362 E26.19578
G1 X103.986 Y79.254 E26.20535
G1 X101.068 Y82.173 E26.34215
G1 X100.692 Y82.173 E26.35460
G1 X103.718 Y79.146 E26.49646
G1 X103.451 Y79.038 E26.50603
G1 X100.316 Y82.173 E26.65294
G1 X99.940 Y82.173 E26.66540
G1 X103.183 Y78.930 E26.81736
G1 X102.915 Y78.823 E26.82693
G1 X99.565 Y82.173 E26.98395
G1 X99.189 Y82.173 E26.99641
G1 X102.647 Y78.715 E27.15849
G1 X102.379 Y78.607 E27.16806
G1 X98.813 Y82.173 E27.33519
G1 X98.437 Y82.173 E27.34765
G1 X102.110 Y78.499 E27.51981
G1 X101.838 Y78.396 E27.52947
G1 X98.061 Y82.173 E27.70647
G1 X97.686 Y82.173 E27.71892
G1 X101.565 Y78.293 E27.90077
G1 X101.293 Y78.190 E27.91042
G1 X97.310 Y82.173 E28.09710
G1 X96.934 Y82.173 E28.10956
G1 X101.020 Y78.087 E28.30108
G1 X100.748 Y77.983 E28.31074
G1 X96.558 Y82.173 E28.50710
G1 X96.183 Y82.173 E28.51955
G1 X100.475 Y77.880 E28.72075
G1 X100.203 Y77.777 E28.73041
G1 X95.807 Y82.173 E28.93644
G1 X95.431 Y82.173 E28.94890
G1 X99.930 Y77.674 E29.15977
G1 X99.658 Y77.570 E29.16943
G1 X95.055 Y82.173 E29.38515
G1 X94.679 Y82.173 E29.39760
G1 X99.385 Y77.467 E29.61815
G1 X99.112 Y77.364 E29.62781
G1 X94.304 Y82.173 E29.85320
G1 X93.928 Y82.173 E29.86566
G1 X98.838 Y77.262 E30.09582
G1 X98.559 Y77.165 E30.10560
G1 X93.552 Y82.173 E30.34030
G1 X93.176 Y82.173 E30.35275
G1 X98.281 Y77.068 E30.59200
G1 X98.002 Y76.971 E30.60178
G1 X92.800 Y82.173 E30.84557
G1 X92.425 Y82.173 E30.85802
G1 X97.723 Y76.874 E31.10635
G1 X97.444 Y76.778 E31.11613
G1 X92.049 Y82.173 E31.36901
G1 X91.673 Y82.173 E31.38146
G1 X97.165 Y76.681 E31.63887
G1 X96.886 Y76.584 E31.64866
G1 X91.297 Y82.173 E31.91062
G1 X90.921 Y82.173 E31.92307
G1 X96.607 Y76.487 E32.18957
G1 X96.329 Y76.390 E32.19936
G1 X90.546 Y82.173 E32.47040
G1 X90.170 Y82.173 E32.48285
G1 X96.050 Y76.293 E32.75844
G1 X95.771 Y76.196 E32.76822
G1 X89.794 Y82.173 E33.04835
G1 X89.418 Y82.173 E33.06081
G1 X95.490 Y76.101 E33.34537
G1 X95.205 Y76.011 E33.35528
G1 X89.043 Y82.173 E33.64410
G1 X88.667 Y82.173 E33.65656
G1 X94.920 Y75.920 E33.94963
G1 X94.635 Y75.829 E33.95955
G1 X88.291 Y82.173 E34.25688
G1 X87.915 Y82.173 E34.26934
G1 X94.350 Y75.738 E34.57093
G1 X94.065 Y75.647 E34.58084
G1 X87.539 Y82.173 E34.88669
G1 X87.164 Y82.173 E34.89915
G1 X93.780 Y75.556 E35.20925
G1 X93.495 Y75.466 E35.21917
G1 X86.788 Y82.173 E35.53353
G1 X86.412 Y82.173 E35.54599
G1 X93.208 Y75.377 E35.86450
G1 X92.919 Y75.290 E35.87450
G1 X86.036 Y82.173 E36.19709
G1 X85.660 Y82.173 E36.20954
G1 X92.630 Y75.204 E36.53618
G1 X92.341 Y75.117 E36.54619
G1 X85.285 Y82.173 E36.87690
G1 X84.909 Y82.173 E36.88935
G1 X92.048 Y75.033 E37.22398
G1 X91.755 Y74.951 E37.23409
G1 X84.533 Y82.173 E37.57257
