; generated by Slic3r 1.3.0 on 2020-07-29 at 17:52:06

; external perimeters extrusion width = 0.44mm (2.86mm^3/s)
; perimeters extrusion width = 0.56mm (4.14mm^3/s)
; infill extrusion width = 0.50mm (3.66mm^3/s)
; solid infill extrusion width = 0.56mm (3.10mm^3/s)
; top infill extrusion width = 0.56mm (3.10mm^3/s)

M107
;D3D:START:START
T0
M104 S215 T0

G21
G90
M107
T0
G28
G29
M109 T0 S215 T0
G0 F3000
M107
T0
G92 E0
G0 X0 Y149 Z0.1 F3600
G1 Y49 E6.5 F1200
G0 Z1
G92 E0
; Filament gcode

G21 ; set units to millimeters
G90 ; use absolute coordinates
M82 ; use absolute distances for extrusion
G92 E0
G1 Z0.300 F7800.000
G1 E-2.00000 F2400.00000
G92 E0
G1 X67.335 Y54.422 F7800.000
G1 E2.00000 F2400.00000
G1 F1800
G1 X82.665 Y54.422 E2.50788
G1 X82.665 Y105.914 E4.21377
G1 X67.335 Y105.914 E4.72165
G1 X67.335 Y54.482 E6.42556
G1 E4.42556 F2400.00000
G92 E0
G1 X61.728 Y88.764 F7800.000
G1 E2.00000 F2400.00000
G1 F1800
G1 X62.050 Y88.857 E2.01110
G1 X62.346 Y89.008 E2.02210
G1 X62.609 Y89.212 E2.03312
G1 X62.828 Y89.461 E2.04413
G1 X62.998 Y89.747 E2.05514
G1 X63.110 Y90.060 E2.06615
G1 X63.162 Y90.388 E2.07716
G1 X63.152 Y90.720 E2.08817
G1 X63.079 Y91.045 E2.09918
G1 X62.947 Y91.350 E2.11019
G1 X62.760 Y91.625 E2.12120
G1 X62.526 Y91.860 E2.13221
G1 X62.253 Y92.045 E2.14313
G1 X62.050 Y92.141 E2.15056
G1 X61.837 Y92.210 E2.15799
G1 X61.511 Y92.261 E2.16892
G1 X61.179 Y92.251 E2.17993
G1 X60.854 Y92.178 E2.19094
G1 X60.547 Y92.045 E2.20203
G1 X60.196 Y91.791 E2.21641
G1 X59.972 Y91.537 E2.22762
G1 X59.802 Y91.251 E2.23864
G1 X59.690 Y90.938 E2.24965
G1 X59.638 Y90.610 E2.26065
G1 X59.648 Y90.278 E2.27167
G1 X59.721 Y89.953 E2.28268
G1 X59.856 Y89.643 E2.29390
G1 X60.111 Y89.292 E2.30827
G1 X60.362 Y89.071 E2.31936
G1 X60.648 Y88.901 E2.33038
G1 X60.961 Y88.789 E2.34139
G1 X61.295 Y88.736 E2.35260
G1 X61.669 Y88.760 E2.36499
G1 E0.36499 F2400.00000
G92 E0
G1 X86.848 Y90.278 F7800.000
G1 E2.00000 F2400.00000
G1 F1800
G1 X86.921 Y89.953 E2.01101
G1 X87.056 Y89.643 E2.02223
G1 X87.311 Y89.292 E2.03660
G1 X87.562 Y89.071 E2.04770
G1 X87.848 Y88.901 E2.05871
G1 X88.161 Y88.789 E2.06972
G1 X88.495 Y88.736 E2.08094
G1 X88.928 Y88.764 E2.09531
G1 X89.250 Y88.857 E2.10641
G1 X89.546 Y89.008 E2.11742
G1 X89.809 Y89.212 E2.12843
G1 X90.028 Y89.461 E2.13944
G1 X90.198 Y89.747 E2.15045
G1 X90.310 Y90.060 E2.16146
G1 X90.362 Y90.388 E2.17247
G1 X90.352 Y90.720 E2.18348
G1 X90.279 Y91.045 E2.19449
G1 X90.147 Y91.350 E2.20550
G1 X89.961 Y91.625 E2.21651
G1 X89.726 Y91.860 E2.22752
G1 X89.453 Y92.045 E2.23844
G1 X89.250 Y92.141 E2.24587
G1 X89.037 Y92.210 E2.25331
G1 X88.711 Y92.261 E2.26423
G1 X88.379 Y92.251 E2.27524
G1 X88.054 Y92.178 E2.28625
G1 X87.747 Y92.045 E2.29734
G1 X87.396 Y91.791 E2.31172
G1 X87.172 Y91.537 E2.32293
G1 X87.002 Y91.251 E2.33395
G1 X86.890 Y90.938 E2.34496
G1 X86.838 Y90.610 E2.35597
G1 X86.846 Y90.338 E2.36499
G1 E0.36499 F2400.00000
G92 E0
G1 X75.089 Y39.542 F7800.000
G1 E2.00000 F2400.00000
G1 F1800
G1 X75.651 Y40.432 E2.03485
G1 X76.864 Y42.507 E2.11449
G1 X78.082 Y44.683 E2.19709
G1 X79.891 Y48.071 E2.32435
G1 X81.088 Y50.429 E2.41196
G1 X81.919 Y52.123 E2.47447
G1 X83.630 Y55.778 E2.60815
G1 X84.928 Y58.721 E2.71472
G1 X85.787 Y60.765 E2.78817
G1 X86.633 Y62.865 E2.86317
G1 X87.859 Y66.101 E2.97782
G1 X89.012 Y69.420 E3.09423
G1 X89.726 Y71.660 E3.17213
G1 X90.063 Y72.783 E3.21096
G1 X90.695 Y75.042 E3.28868
G1 X90.986 Y76.169 E3.32726
G1 X91.515 Y78.422 E3.40392
G1 X91.966 Y80.660 E3.47953
G1 X92.159 Y81.771 E3.51690
G1 X92.478 Y83.972 E3.59059
G1 X92.698 Y86.138 E3.66270
G1 X92.770 Y87.203 E3.69807
G1 X92.815 Y88.257 E3.73301
G1 X92.833 Y89.296 E3.76744
G1 X92.822 Y90.323 E3.80148
G1 X92.783 Y91.334 E3.83500
G1 X92.715 Y92.329 E3.86802
G1 X92.618 Y93.307 E3.90059
G1 X92.491 Y94.265 E3.93260
G1 X92.335 Y95.204 E3.96416
G1 X92.148 Y96.124 E3.99524
G1 X91.932 Y97.022 E4.02586
G1 X91.686 Y97.899 E4.05602
G1 X91.410 Y98.753 E4.08575
G1 X91.104 Y99.583 E4.11505
G1 X90.770 Y100.389 E4.14396
G1 X90.406 Y101.170 E4.17252
G1 X90.015 Y101.924 E4.20065
G1 X89.596 Y102.652 E4.22848
G1 X89.149 Y103.354 E4.25605
G1 X88.678 Y104.026 E4.28324
G1 X88.180 Y104.670 E4.31021
G1 X87.658 Y105.285 E4.33695
G1 X87.111 Y105.870 E4.36348
G1 X86.542 Y106.425 E4.38982
G1 X85.950 Y106.949 E4.41600
G1 X85.337 Y107.442 E4.44205
G1 X84.704 Y107.903 E4.46799
G1 X84.051 Y108.331 E4.49386
G1 X83.380 Y108.727 E4.51967
G1 X82.691 Y109.089 E4.54547
G1 X81.755 Y109.513 E4.57952
G1 X81.264 Y109.714 E4.59707
G1 X80.528 Y109.975 E4.62296
G1 X79.777 Y110.202 E4.64896
G1 X79.011 Y110.395 E4.67512
G1 X78.232 Y110.553 E4.70145
G1 X77.440 Y110.676 E4.72799
G1 X76.635 Y110.764 E4.75484
G1 X75.813 Y110.816 E4.78211
G1 X74.995 Y110.831 E4.80921
G1 X74.187 Y110.816 E4.83600
G1 X73.365 Y110.764 E4.86328
G1 X72.560 Y110.676 E4.89012
G1 X71.768 Y110.553 E4.91666
G1 X70.989 Y110.395 E4.94299
G1 X70.223 Y110.202 E4.96915
G1 X69.472 Y109.975 E4.99517
G1 X68.736 Y109.714 E5.02105
G1 X68.245 Y109.513 E5.03859
G1 X67.309 Y109.089 E5.07265
G1 X66.620 Y108.727 E5.09845
G1 X65.949 Y108.331 E5.12426
G1 X65.296 Y107.903 E5.15012
G1 X64.663 Y107.442 E5.17606
G1 X64.050 Y106.949 E5.20211
G1 X63.458 Y106.425 E5.22830
G1 X62.889 Y105.870 E5.25464
G1 X62.342 Y105.285 E5.28116
G1 X61.820 Y104.670 E5.30790
G1 X61.322 Y104.026 E5.33488
G1 X60.851 Y103.354 E5.36207
G1 X60.404 Y102.652 E5.38963
G1 X59.985 Y101.924 E5.41746
G1 X59.594 Y101.170 E5.44559
G1 X59.230 Y100.387 E5.47419
G1 X58.896 Y99.583 E5.50306
G1 X58.590 Y98.753 E5.53237
G1 X58.315 Y97.900 E5.56205
G1 X58.068 Y97.022 E5.59226
G1 X57.851 Y96.122 E5.62291
G1 X57.665 Y95.204 E5.65396
G1 X57.509 Y94.265 E5.68552
G1 X57.382 Y93.307 E5.71752
G1 X57.285 Y92.329 E5.75009
G1 X57.217 Y91.333 E5.78316
G1 X57.178 Y90.323 E5.81663
G1 X57.167 Y89.298 E5.85058
G1 X57.185 Y88.257 E5.88510
G1 X57.230 Y87.203 E5.92005
G1 X57.302 Y86.139 E5.95537
G1 X57.522 Y83.972 E6.02753
G1 X57.841 Y81.771 E6.10121
G1 X58.034 Y80.660 E6.13858
G1 X58.484 Y78.424 E6.21414
G1 X59.014 Y76.169 E6.29086
G1 X59.304 Y75.044 E6.32938
G1 X59.937 Y72.783 E6.40715
G1 X60.274 Y71.660 E6.44599
G1 X60.987 Y69.421 E6.52383
G1 X62.140 Y66.104 E6.64017
G1 X63.367 Y62.865 E6.75494
G1 X64.213 Y60.765 E6.82994
G1 X65.072 Y58.721 E6.90339
G1 X66.370 Y55.778 E7.00996
G1 X68.081 Y52.123 E7.14364
G1 X68.912 Y50.429 E7.20616
G1 X70.109 Y48.071 E7.29376
G1 X71.918 Y44.683 E7.42102
G1 X73.136 Y42.507 E7.50362
G1 X74.349 Y40.432 E7.58326
G1 X74.911 Y39.542 E7.61811
G1 X75.000 Y39.437 E7.62267
G1 X75.050 Y39.497 E7.62523
G1 X75.103 Y39.796 F7800.000
G1 F1800
G1 X74.896 Y40.003 E7.63495
G1 X74.291 Y40.985 E7.67325
G1 X75.249 Y40.027 E7.71824
G1 X75.395 Y40.257 E7.72730
G1 X73.761 Y41.891 E7.80399
G1 X73.235 Y42.794 E7.83870
G1 X75.540 Y40.489 E7.94693
G1 X75.679 Y40.726 E7.95607
G1 X72.755 Y43.650 E8.09333
G1 X72.276 Y44.506 E8.12590
G1 X75.818 Y40.964 E8.29220
G1 X75.956 Y41.202 E8.30134
G1 X71.822 Y45.336 E8.49548
G1 X71.391 Y46.144 E8.52586
G1 X76.095 Y41.439 E8.74675
G1 X76.234 Y41.677 E8.75589
G1 X70.960 Y46.951 E9.00353
G1 X70.529 Y47.758 E9.03391
G1 X76.373 Y41.914 E9.30831
G1 X76.512 Y42.152 E9.31745
G1 X70.113 Y48.551 E9.61793
G1 X69.724 Y49.316 E9.64641
G1 X76.651 Y42.390 E9.97166
G1 X76.788 Y42.629 E9.98081
G1 X69.336 Y50.081 E10.33074
G1 X68.954 Y50.839 E10.35893
G1 X76.923 Y42.870 E10.73313
G1 X77.059 Y43.111 E10.74231
G1 X68.592 Y51.578 E11.13988
G1 X68.229 Y52.317 E11.16721
G1 X77.194 Y43.353 E11.58814
G1 X77.329 Y43.594 E11.59732
G1 X67.897 Y53.026 E12.04022
G1 X67.565 Y53.734 E12.06617
G1 X77.464 Y43.835 E12.53098
G1 X77.599 Y44.076 E12.54016
G1 X67.416 Y54.260 E13.01834
G1 X67.792 Y54.260 E13.03084
G1 X77.734 Y44.318 E13.49768
G1 X77.870 Y44.559 E13.50686
G1 X68.169 Y54.260 E13.96238
G1 X68.545 Y54.260 E13.97488
G1 X78.003 Y44.802 E14.41898
G1 X78.134 Y45.047 E14.42822
G1 X68.922 Y54.260 E14.86080
G1 X69.298 Y54.260 E14.87330
G1 X78.265 Y45.293 E15.29436
G1 X78.396 Y45.538 E15.30360
G1 X69.674 Y54.260 E15.71313
G1 X70.051 Y54.260 E15.72563
G1 X78.527 Y45.784 E16.12363
G1 X78.658 Y46.029 E16.13287
G1 X70.427 Y54.260 E16.51935
G1 X70.804 Y54.260 E16.53185
G1 X78.789 Y46.275 E16.90680
G1 X78.920 Y46.520 E16.91604
G1 X71.180 Y54.260 E17.27946
G1 X71.557 Y54.260 E17.29196
G1 X79.051 Y46.766 E17.64386
G1 X79.182 Y47.011 E17.65310
G1 X71.933 Y54.260 E17.99348
G1 X72.310 Y54.260 E18.00598
G1 X79.313 Y47.257 E18.33483
G1 X79.444 Y47.502 E18.34406
G1 X72.686 Y54.260 E18.66139
G1 X73.063 Y54.260 E18.67389
G1 X79.575 Y47.748 E18.97969
G1 X79.706 Y47.993 E18.98892
G1 X73.439 Y54.260 E19.28320
G1 X73.816 Y54.260 E19.29570
G1 X79.835 Y48.241 E19.57832
G1 X79.961 Y48.491 E19.58762
G1 X74.192 Y54.260 E19.85852
G1 X74.569 Y54.260 E19.87102
G1 X80.088 Y48.740 E20.13020
G1 X80.215 Y48.990 E20.13950
G1 X74.945 Y54.260 E20.38696
G1 X75.321 Y54.260 E20.39945
G1 X80.342 Y49.240 E20.63519
G1 X80.469 Y49.489 E20.64448
G1 X75.698 Y54.260 E20.86849
G1 X76.074 Y54.260 E20.88099
G1 X80.595 Y49.739 E21.09327
G1 X80.722 Y49.989 E21.10257
G1 X76.451 Y54.260 E21.30313
G1 X76.827 Y54.260 E21.31563
G1 X80.849 Y50.239 E21.50447
G1 X80.975 Y50.489 E21.51377
G1 X77.204 Y54.260 E21.69086
G1 X77.580 Y54.260 E21.70336
G1 X81.099 Y50.741 E21.86859
G1 X81.223 Y50.994 E21.87793
G1 X77.957 Y54.260 E22.03129
G1 X78.333 Y54.260 E22.04379
G1 X81.347 Y51.246 E22.18530
G1 X81.471 Y51.499 E22.19464
G1 X78.710 Y54.260 E22.32429
G1 X79.086 Y54.260 E22.33679
G1 X81.595 Y51.752 E22.45458
G1 X81.719 Y52.004 E22.46392
G1 X79.463 Y54.260 E22.56985
G1 X79.839 Y54.260 E22.58235
G1 X81.841 Y52.259 E22.67633
G1 X81.961 Y52.515 E22.68573
G1 X80.216 Y54.260 E22.76767
G1 X80.592 Y54.260 E22.78017
G1 X82.081 Y52.771 E22.85008
G1 X82.201 Y53.028 E22.85948
G1 X80.969 Y54.260 E22.91734
G1 X81.345 Y54.260 E22.92984
G1 X82.321 Y53.284 E22.97566
G1 X82.441 Y53.541 E22.98506
G1 X81.721 Y54.260 E23.01885
G1 X82.098 Y54.260 E23.03135
G1 X82.561 Y53.797 E23.05309
G1 X82.681 Y54.053 E23.06249
G1 X82.474 Y54.260 E23.07220
G1 X82.921 Y55.213 F7800.000
G1 F1800
G1 X82.827 Y55.013 E23.07950
G1 X82.827 Y55.306 E23.08920
G1 X83.127 Y55.006 E23.10326
G1 X83.247 Y55.262 E23.11262
G1 X82.827 Y55.682 E23.13229
G1 X82.827 Y56.058 E23.14474
G1 X83.367 Y55.518 E23.17002
G1 X83.487 Y55.774 E23.17938
G1 X82.827 Y56.433 E23.21028
G1 X82.827 Y56.809 E23.22273
G1 X83.602 Y56.034 E23.25902
G1 X83.717 Y56.295 E23.26846
G1 X82.827 Y57.185 E23.31014
G1 X82.827 Y57.560 E23.32259
G1 X83.832 Y56.556 E23.36966
G1 X83.947 Y56.817 E23.37910
G1 X82.827 Y57.936 E23.43156
G1 X82.827 Y58.312 E23.44400
G1 X84.062 Y57.077 E23.50185
G1 X84.177 Y57.338 E23.51129
G1 X82.827 Y58.687 E23.57452
G1 X82.827 Y59.063 E23.58696
G1 X84.292 Y57.599 E23.65558
G1 X84.407 Y57.859 E23.66502
G1 X82.827 Y59.439 E23.73903
G1 X82.827 Y59.814 E23.75148
G1 X84.522 Y58.120 E23.83087
G1 X84.637 Y58.381 E23.84031
G1 X82.827 Y60.190 E23.92509
G1 X82.827 Y60.566 E23.93753
G1 X84.752 Y58.641 E24.02770
G1 X84.864 Y58.905 E24.03719
G1 X82.827 Y60.941 E24.13262
G1 X82.827 Y61.317 E24.14507
G1 X84.975 Y59.169 E24.24571
G1 X85.086 Y59.434 E24.25521
G1 X82.827 Y61.693 E24.36106
G1 X82.827 Y62.068 E24.37351
G1 X85.198 Y59.698 E24.48457
G1 X85.309 Y59.963 E24.49407
G1 X82.827 Y62.444 E24.61034
G1 X82.827 Y62.820 E24.62279
G1 X85.420 Y60.227 E24.74426
G1 X85.531 Y60.492 E24.75377
G1 X82.827 Y63.195 E24.88045
G1 X82.827 Y63.571 E24.89290
G1 X85.642 Y60.756 E25.02479
G1 X85.750 Y61.024 E25.03436
G1 X82.827 Y63.947 E25.17131
G1 X82.827 Y64.322 E25.18376
G1 X85.858 Y61.292 E25.32576
G1 X85.966 Y61.560 E25.33532
G1 X82.827 Y64.698 E25.48238
G1 X82.827 Y65.074 E25.49483
G1 X86.074 Y61.827 E25.64694
G1 X86.181 Y62.095 E25.65650
G1 X82.827 Y65.449 E25.81366
G1 X82.827 Y65.825 E25.82611
G1 X86.289 Y62.363 E25.98832
G1 X86.397 Y62.631 E25.99789
G1 X82.827 Y66.201 E26.16516
G1 X82.827 Y66.576 E26.17760
G1 X86.504 Y62.899 E26.34989
G1 X86.607 Y63.172 E26.35954
G1 X82.827 Y66.952 E26.53667
G1 X82.827 Y67.328 E26.54911
G1 X86.711 Y63.444 E26.73107
G1 X86.814 Y63.717 E26.74072
G1 X82.827 Y67.703 E26.92752
G1 X82.827 Y68.079 E26.93996
G1 X86.917 Y63.989 E27.13160
G1 X87.020 Y64.262 E27.14125
G1 X82.827 Y68.455 E27.33772
G1 X82.827 Y68.830 E27.35016
G1 X87.124 Y64.534 E27.55146
G1 X87.227 Y64.807 E27.56112
G1 X82.827 Y69.206 E27.76726
G1 X82.827 Y69.582 E27.77970
G1 X87.330 Y65.079 E27.99068
G1 X87.433 Y65.352 E28.00033
G1 X82.827 Y69.957 E28.21614
G1 X82.827 Y70.333 E28.22859
G1 X87.536 Y65.624 E28.44923
G1 X87.640 Y65.897 E28.45889
G1 X82.827 Y70.709 E28.68437
G1 X82.827 Y71.084 E28.69682
G1 X87.741 Y66.171 E28.92705
G1 X87.838 Y66.450 E28.93683
G1 X82.827 Y71.460 E29.17160
G1 X82.827 Y71.836 E29.18404
G1 X87.935 Y66.728 E29.42336
G1 X88.032 Y67.007 E29.43313
G1 X82.827 Y72.211 E29.67699
G1 X82.827 Y72.587 E29.68943
G1 X88.129 Y67.286 E29.93782
G1 X88.225 Y67.565 E29.94760
G1 X82.827 Y72.963 E30.20053
G1 X82.827 Y73.338 E30.21298
G1 X88.322 Y67.843 E30.47045
G1 X88.419 Y68.122 E30.48023
G1 X82.827 Y73.714 E30.74225
G1 X82.827 Y74.090 E30.75469
G1 X88.516 Y68.401 E31.02125
G1 X88.613 Y68.680 E31.03102
G1 X82.827 Y74.465 E31.30212
G1 X82.827 Y74.841 E31.31456
G1 X88.710 Y68.959 E31.59020
G1 X88.807 Y69.237 E31.59998
G1 X82.827 Y75.217 E31.88015
G1 X82.827 Y75.593 E31.89260
G1 X88.901 Y69.519 E32.17719
G1 X88.992 Y69.803 E32.18710
G1 X82.827 Y75.968 E32.47595
G1 X82.827 Y76.344 E32.48839
G1 X89.083 Y70.088 E32.78150
G1 X89.174 Y70.373 E32.79141
G1 X82.827 Y76.720 E33.08877
G1 X82.827 Y77.095 E33.10121
G1 X89.264 Y70.658 E33.40283
G1 X89.355 Y70.943 E33.41273
G1 X82.827 Y77.471 E33.71860
G1 X82.827 Y77.847 E33.73105
G1 X89.446 Y71.228 E34.04118
G1 X89.537 Y71.513 E34.05108
G1 X82.827 Y78.222 E34.36546
G1 X82.827 Y78.598 E34.37791
G1 X89.625 Y71.800 E34.69643
G1 X89.712 Y72.089 E34.70643
G1 X82.827 Y78.974 E35.02902
G1 X82.827 Y79.349 E35.04146
G1 X89.799 Y72.378 E35.36811
G1 X89.885 Y72.667 E35.37811
G1 X82.827 Y79.725 E35.70882
G1 X82.827 Y80.101 E35.72126
G1 X89.969 Y72.959 E36.05588
G1 X90.051 Y73.253 E36.06598
G1 X82.827 Y80.476 E36.40445
G1 X82.827 Y80.852 E36.41690
G1 X90.133 Y73.546 E36.75921
G1 X90.215 Y73.840 E36.76931
G1 X82.827 Y81.228 E37.11548
G1 X82.827 Y81.603 E37.12792
G1 X90.297 Y74.133 E37.47793
G1 X90.379 Y74.427 E37.48803
G1 X82.827 Y81.979 E37.84189
G1 X82.827 Y82.355 E37.85434
G1 X90.462 Y74.720 E38.21204
G1 X90.544 Y75.014 E38.22214
G1 X82.827 Y82.730 E38.58369
G1 X82.827 Y83.106 E38.59614
G1 X90.621 Y75.313 E38.96130
G1 X90.698 Y75.611 E38.97152
G1 X82.827 Y83.482 E39.34029
G1 X82.827 Y83.857 E39.35273
G1 X90.775 Y75.910 E39.72512
G1 X90.850 Y76.210 E39.73537
G1 X82.827 Y84.233 E40.11129
G1 X82.827 Y84.609 E40.12374
G1 X90.922 Y76.514 E40.50301
G1 X90.993 Y76.818 E40.51337
G1 X82.827 Y84.984 E40.89599
G1 X82.827 Y85.360 E40.90843
G1 X91.065 Y77.122 E41.29440
G1 X91.136 Y77.427 E41.30476
G1 X82.827 Y85.736 E41.69407
G1 X82.827 Y86.111 E41.70652
G1 X91.208 Y77.731 E42.09919
G1 X91.279 Y78.035 E42.10954
G1 X82.827 Y86.487 E42.50555
G1 X82.827 Y86.863 E42.51800
G1 X91.351 Y78.339 E42.91736
G1 X91.415 Y78.651 E42.92791
G1 X82.827 Y87.238 E43.33027
G1 X82.827 Y87.614 E43.34271
G1 X91.478 Y78.964 E43.74802
G1 X91.540 Y79.276 E43.75859
G1 X82.827 Y87.990 E44.16685
G1 X82.827 Y88.365 E44.17930
G1 X91.603 Y79.589 E44.59051
G1 X91.666 Y79.902 E44.60108
G1 X82.827 Y88.741 E45.01524
G1 X82.827 Y89.117 E45.02769
G1 X91.729 Y80.214 E45.44480
G1 X91.792 Y80.527 E45.45536
G1 X82.827 Y89.492 E45.87543
G1 X82.827 Y89.868 E45.88787
G1 X91.850 Y80.845 E46.31063
G1 X91.906 Y81.165 E46.32139
G1 X82.827 Y90.244 E46.74676
G1 X82.827 Y90.619 E46.75920
G1 X91.961 Y81.485 E47.18718
G1 X92.015 Y81.808 E47.19801
G1 X82.827 Y90.995 E47.62848
G1 X82.827 Y91.371 E47.64093
G1 X92.062 Y82.136 E48.07362
G1 X92.109 Y82.464 E48.08461
G1 X82.827 Y91.746 E48.51953
G1 X82.827 Y92.122 E48.53197
G1 X92.157 Y82.792 E48.96911
G1 X92.204 Y83.121 E48.98010
G1 X82.827 Y92.498 E49.41946
G1 X82.827 Y92.873 E49.43191
G1 X92.252 Y83.449 E49.87350
G1 X92.299 Y83.777 E49.88449
G1 X82.827 Y93.249 E50.32830
G1 X82.827 Y93.625 E50.34074
G1 X86.630 Y89.822 E50.51891
G1 X86.720 Y89.614 E50.52645
G1 X87.010 Y89.216 E50.54276
