; generated by Slic3r 1.3.1-dev (Build 2d100c4) on 2020-08-24 at 08:17:12

; external perimeters extrusion width = 0.44mm (2.86mm^3/s)
; perimeters extrusion width = 0.56mm (4.14mm^3/s)
; infill extrusion width = 0.50mm (3.66mm^3/s)
; solid infill extrusion width = 0.56mm (3.10mm^3/s)
; top infill extrusion width = 0.56mm (3.10mm^3/s)

M107
G92 E0
;D3D:START:START
T0
M104 S215 T0

G21
G90
M107
T0
G28
G29
M109 T0 S215 T0
G0 F3000
M107
T0
G92 E0
G0 X0 Y149 Z0.1 F3600
G1 Y49 E6.5 F1200
G0 Z1
G92 E0
; Filament gcode

G21 ; set units to millimeters
G90 ; use absolute coordinates
M82 ; use absolute distances for extrusion
G92 E0
G1 Z0.300 F7800.000
G1 E-2.00000 F2400.00000
G92 E0
G1 X44.086 Y67.335 F7800.000
G1 E2.00000 F2400.00000
G1 F1800.000
G1 X95.578 Y67.335 E3.70590
G1 X95.578 Y82.665 E4.21377
G1 X44.086 Y82.665 E5.91967
G1 X44.086 Y67.395 E6.42556
G1 E4.42556 F2400.00000
G92 E0
G1 X58.149 Y86.740 F7800.000
G1 E2.00000 F2400.00000
G1 F1800.000
G1 X58.522 Y86.519 E2.01434
G1 X58.929 Y86.373 E2.02867
G1 X59.356 Y86.305 E2.04301
G1 X59.789 Y86.319 E2.05734
G1 X60.211 Y86.413 E2.07168
G1 X60.609 Y86.585 E2.08602
G1 X60.967 Y86.828 E2.10036
G1 X61.272 Y87.134 E2.11470
G1 X61.516 Y87.492 E2.12904
G1 X61.683 Y87.879 E2.14301
G1 X61.758 Y88.170 E2.15294
G1 X61.795 Y88.467 E2.16286
G1 X61.782 Y88.888 E2.17682
G1 X61.688 Y89.310 E2.19116
G1 X61.516 Y89.708 E2.20550
G1 X61.272 Y90.066 E2.21984
G1 X60.967 Y90.372 E2.23418
G1 X60.609 Y90.615 E2.24852
G1 X60.218 Y90.784 E2.26262
G1 X59.859 Y90.872 E2.27486
G1 X59.620 Y90.894 E2.28280
G1 X59.161 Y90.876 E2.29802
G1 X58.784 Y90.784 E2.31090
G1 X58.393 Y90.615 E2.32500
G1 X58.035 Y90.372 E2.33934
G1 X57.729 Y90.066 E2.35367
G1 X57.486 Y89.708 E2.36801
G1 X57.318 Y89.321 E2.38198
G1 X57.244 Y89.030 E2.39191
G1 X57.206 Y88.733 E2.40183
G1 X57.220 Y88.312 E2.41580
G1 X57.314 Y87.889 E2.43014
G1 X57.482 Y87.502 E2.44411
G1 X57.642 Y87.250 E2.45404
G1 X57.833 Y87.019 E2.46396
G1 X58.104 Y86.779 E2.47595
G1 X58.306 Y86.956 F7800.000
G1 F1800.000
G1 X58.635 Y86.761 E2.48862
G1 X58.995 Y86.631 E2.50129
G1 X59.373 Y86.572 E2.51397
G1 X59.756 Y86.583 E2.52664
G1 X60.129 Y86.667 E2.53932
G1 X60.480 Y86.819 E2.55199
G1 X60.796 Y87.034 E2.56467
G1 X61.067 Y87.304 E2.57734
G1 X61.282 Y87.621 E2.59001
G1 X61.431 Y87.966 E2.60246
G1 X61.496 Y88.219 E2.61114
G1 X61.529 Y88.479 E2.61981
G1 X61.517 Y88.855 E2.63226
G1 X61.434 Y89.228 E2.64494
G1 X61.282 Y89.579 E2.65761
G1 X61.067 Y89.896 E2.67029
G1 X60.796 Y90.166 E2.68296
G1 X60.480 Y90.381 E2.69563
G1 X60.133 Y90.531 E2.70816
G1 X59.815 Y90.609 E2.71901
G1 X59.613 Y90.628 E2.72572
G1 X59.198 Y90.612 E2.73947
G1 X58.869 Y90.531 E2.75072
G1 X58.522 Y90.381 E2.76325
G1 X58.205 Y90.166 E2.77592
G1 X57.935 Y89.896 E2.78859
G1 X57.720 Y89.579 E2.80127
G1 X57.570 Y89.234 E2.81372
G1 X57.505 Y88.981 E2.82240
G1 X57.473 Y88.721 E2.83107
G1 X57.484 Y88.345 E2.84352
G1 X57.568 Y87.972 E2.85619
G1 X57.717 Y87.627 E2.86864
G1 X57.857 Y87.406 E2.87732
G1 X58.024 Y87.204 E2.88599
G1 X58.261 Y86.995 E2.89646
G1 X58.463 Y87.171 F7800.000
G1 F1800.000
G1 X58.749 Y87.002 E2.90747
G1 X59.062 Y86.890 E2.91848
G1 X59.390 Y86.838 E2.92949
G1 X59.722 Y86.848 E2.94050
G1 X60.046 Y86.921 E2.95151
G1 X60.351 Y87.053 E2.96252
G1 X60.626 Y87.239 E2.97353
G1 X60.861 Y87.474 E2.98454
G1 X61.048 Y87.749 E2.99555
G1 X61.179 Y88.052 E3.00647
G1 X61.235 Y88.269 E3.01391
G1 X61.263 Y88.492 E3.02133
G1 X61.253 Y88.821 E3.03226
G1 X61.180 Y89.146 E3.04327
G1 X61.048 Y89.451 E3.05428
G1 X60.861 Y89.726 E3.06529
G1 X60.626 Y89.960 E3.07630
G1 X60.351 Y90.147 E3.08731
G1 X60.048 Y90.279 E3.09827
G1 X59.771 Y90.347 E3.10773
G1 X59.606 Y90.362 E3.11321
G1 X59.236 Y90.348 E3.12549
G1 X58.954 Y90.279 E3.13510
G1 X58.650 Y90.147 E3.14606
G1 X58.375 Y89.960 E3.15707
G1 X58.140 Y89.726 E3.16808
G1 X57.954 Y89.451 E3.17909
G1 X57.823 Y89.148 E3.19001
G1 X57.767 Y88.931 E3.19744
G1 X57.739 Y88.708 E3.20487
G1 X57.749 Y88.379 E3.21580
G1 X57.822 Y88.054 E3.22681
G1 X57.952 Y87.752 E3.23773
G1 X58.073 Y87.562 E3.24516
G1 X58.216 Y87.390 E3.25259
G1 X58.418 Y87.211 E3.26153
G1 E1.26153 F2400.00000
G92 E0
G1 X59.357 Y63.693 F7800.000
G1 E2.00000 F2400.00000
G1 F1800.000
G1 X59.059 Y63.656 E2.00992
G1 X58.654 Y63.538 E2.02389
G1 X58.269 Y63.341 E2.03823
G1 X57.927 Y63.076 E2.05257
G1 X57.641 Y62.751 E2.06691
G1 X57.420 Y62.379 E2.08124
G1 X57.274 Y61.972 E2.09558
G1 X57.206 Y61.544 E2.10992
G1 X57.220 Y61.112 E2.12425
G1 X57.314 Y60.689 E2.13860
G1 X57.482 Y60.302 E2.15257
G1 X57.642 Y60.050 E2.16249
G1 X57.833 Y59.819 E2.17241
G1 X58.149 Y59.540 E2.18639
G1 X58.522 Y59.319 E2.20073
G1 X58.929 Y59.173 E2.21506
G1 X59.346 Y59.107 E2.22903
G1 X59.645 Y59.107 E2.23896
G1 X59.942 Y59.144 E2.24888
G1 X60.347 Y59.262 E2.26285
G1 X60.733 Y59.459 E2.27719
G1 X61.075 Y59.724 E2.29153
G1 X61.361 Y60.048 E2.30587
G1 X61.581 Y60.421 E2.32020
G1 X61.728 Y60.828 E2.33454
G1 X61.796 Y61.256 E2.34888
G1 X61.782 Y61.688 E2.36321
G1 X61.688 Y62.111 E2.37755
G1 X61.516 Y62.508 E2.39189
G1 X61.272 Y62.866 E2.40623
G1 X60.967 Y63.172 E2.42057
G1 X60.618 Y63.409 E2.43454
G1 X60.347 Y63.536 E2.44446
G1 X60.062 Y63.629 E2.45439
G1 X59.656 Y63.693 E2.46799
G1 X59.417 Y63.693 E2.47593
G1 X59.373 Y63.427 F7800.000
G1 F1800.000
G1 X59.113 Y63.395 E2.48461
G1 X58.753 Y63.290 E2.49705
G1 X58.412 Y63.116 E2.50973
G1 X58.109 Y62.882 E2.52240
G1 X57.856 Y62.595 E2.53508
G1 X57.662 Y62.265 E2.54775
G1 X57.532 Y61.905 E2.56042
G1 X57.472 Y61.528 E2.57310
G1 X57.484 Y61.145 E2.58577
G1 X57.568 Y60.772 E2.59845
G1 X57.717 Y60.427 E2.61089
G1 X57.857 Y60.206 E2.61957
G1 X58.024 Y60.004 E2.62824
G1 X58.306 Y59.756 E2.64070
G1 X58.635 Y59.561 E2.65337
G1 X58.995 Y59.431 E2.66604
G1 X59.366 Y59.373 E2.67849
G1 X59.628 Y59.373 E2.68717
G1 X59.888 Y59.405 E2.69585
G1 X60.249 Y59.510 E2.70829
G1 X60.590 Y59.684 E2.72097
G1 X60.892 Y59.918 E2.73364
G1 X61.145 Y60.205 E2.74632
G1 X61.340 Y60.535 E2.75899
G1 X61.469 Y60.895 E2.77166
G1 X61.529 Y61.272 E2.78434
G1 X61.517 Y61.655 E2.79701
G1 X61.434 Y62.028 E2.80968
G1 X61.282 Y62.379 E2.82236
G1 X61.067 Y62.696 E2.83503
G1 X60.796 Y62.966 E2.84771
G1 X60.486 Y63.177 E2.86016
G1 X60.249 Y63.289 E2.86883
G1 X60.000 Y63.370 E2.87751
G1 X59.635 Y63.427 E2.88973
G1 X59.433 Y63.427 E2.89642
G1 X59.390 Y63.162 F7800.000
G1 F1800.000
G1 X59.167 Y63.134 E2.90385
G1 X58.851 Y63.042 E2.91478
G1 X58.555 Y62.891 E2.92578
G1 X58.292 Y62.687 E2.93680
G1 X58.072 Y62.438 E2.94781
G1 X57.903 Y62.152 E2.95882
G1 X57.791 Y61.839 E2.96983
G1 X57.739 Y61.511 E2.98084
G1 X57.749 Y61.179 E2.99185
G1 X57.822 Y60.854 E3.00286
G1 X57.952 Y60.552 E3.01378
G1 X58.073 Y60.362 E3.02121
G1 X58.216 Y60.190 E3.02864
G1 X58.463 Y59.971 E3.03957
G1 X58.749 Y59.802 E3.05058
G1 X59.062 Y59.690 E3.06159
G1 X59.387 Y59.638 E3.07251
G1 X59.612 Y59.638 E3.07994
G1 X59.834 Y59.666 E3.08737
G1 X60.151 Y59.758 E3.09830
G1 X60.447 Y59.909 E3.10931
G1 X60.710 Y60.113 E3.12032
G1 X60.929 Y60.362 E3.13133
G1 X61.099 Y60.648 E3.14234
G1 X61.211 Y60.961 E3.15335
G1 X61.263 Y61.289 E3.16436
G1 X61.253 Y61.621 E3.17537
G1 X61.180 Y61.946 E3.18638
G1 X61.048 Y62.251 E3.19739
G1 X60.861 Y62.526 E3.20840
G1 X60.626 Y62.761 E3.21941
G1 X60.354 Y62.946 E3.23033
G1 X60.151 Y63.041 E3.23776
G1 X59.937 Y63.111 E3.24519
G1 X59.614 Y63.162 E3.25603
G1 X59.450 Y63.162 E3.26148
G1 E1.26148 F2400.00000
G92 E0
G1 X43.555 Y66.804 F7800.000
G1 E2.00000 F2400.00000
G1 F1800.000
G1 X43.555 Y83.196 E2.54307
G1 X93.580 Y83.196 E4.20038
G1 X93.607 Y83.322 E4.20464
G1 X90.058 Y84.869 E4.33291
G1 X87.993 Y85.719 E4.40688
G1 X85.876 Y86.552 E4.48225
G1 X83.716 Y87.360 E4.55866
G1 X81.521 Y88.135 E4.63577
G1 X79.302 Y88.869 E4.71322
G1 X77.063 Y89.555 E4.79077
G1 X75.946 Y89.875 E4.82927
G1 X73.701 Y90.471 E4.90623
G1 X71.465 Y90.996 E4.98234
G1 X69.241 Y91.444 E5.05750
G1 X68.146 Y91.635 E5.09432
G1 X65.959 Y91.951 E5.16752
G1 X63.821 Y92.169 E5.23870
G1 X62.768 Y92.240 E5.27368
G1 X61.728 Y92.284 E5.30818
G1 X60.700 Y92.301 E5.34223
G1 X59.690 Y92.291 E5.37570
G1 X58.693 Y92.253 E5.40874
G1 X57.716 Y92.186 E5.44119
G1 X56.754 Y92.090 E5.47321
G1 X55.813 Y91.966 E5.50467
G1 X54.892 Y91.812 E5.53558
G1 X53.990 Y91.629 E5.56608
G1 X53.112 Y91.418 E5.59601
G1 X52.254 Y91.177 E5.62554
G1 X51.421 Y90.907 E5.65454
G1 X50.611 Y90.609 E5.68313
G1 X49.825 Y90.283 E5.71131
G1 X49.064 Y89.929 E5.73912
G1 X48.331 Y89.549 E5.76649
G1 X47.622 Y89.141 E5.79358
G1 X46.941 Y88.708 E5.82031
G1 X46.288 Y88.249 E5.84675
G1 X45.663 Y87.767 E5.87291
G1 X45.067 Y87.260 E5.89883
G1 X44.501 Y86.731 E5.92448
G1 X43.964 Y86.180 E5.94999
G1 X43.457 Y85.607 E5.97533
G1 X42.979 Y85.013 E6.00058
G1 X42.534 Y84.401 E6.02568
G1 X42.120 Y83.770 E6.05065
G1 X41.737 Y83.121 E6.07561
G1 X41.386 Y82.454 E6.10060
G1 X41.068 Y81.773 E6.12550
G1 X40.782 Y81.075 E6.15049
G1 X40.529 Y80.361 E6.17557
G1 X40.310 Y79.635 E6.20072
G1 X40.123 Y78.893 E6.22605
G1 X39.970 Y78.138 E6.25157
G1 X39.851 Y77.371 E6.27731
G1 X39.766 Y76.589 E6.30336
G1 X39.714 Y75.792 E6.32982
G1 X39.701 Y74.952 E6.35766
G1 X39.714 Y74.209 E6.38227
G1 X39.766 Y73.411 E6.40876
G1 X39.851 Y72.629 E6.43481
G1 X39.970 Y71.862 E6.46055
G1 X40.123 Y71.107 E6.48607
G1 X40.310 Y70.365 E6.51140
G1 X40.530 Y69.637 E6.53658
G1 X40.783 Y68.924 E6.56165
G1 X41.068 Y68.227 E6.58661
G1 X41.387 Y67.544 E6.61159
G1 X41.738 Y66.878 E6.63654
G1 X42.120 Y66.230 E6.66146
G1 X42.534 Y65.598 E6.68648
G1 X42.981 Y64.985 E6.71162
G1 X43.458 Y64.392 E6.73682
G1 X43.965 Y63.819 E6.76217
G1 X44.501 Y63.269 E6.78763
G1 X45.068 Y62.739 E6.81333
G1 X45.664 Y62.233 E6.83925
G1 X46.289 Y61.750 E6.86541
G1 X46.942 Y61.292 E6.89184
G1 X47.624 Y60.858 E6.91861
G1 X48.331 Y60.451 E6.94562
G1 X49.066 Y60.070 E6.97307
G1 X49.826 Y59.716 E7.00084
G1 X50.612 Y59.390 E7.02902
G1 X51.421 Y59.093 E7.05758
G1 X52.256 Y58.823 E7.08665
G1 X53.112 Y58.582 E7.11610
G1 X53.993 Y58.370 E7.14611
G1 X54.892 Y58.188 E7.17653
G1 X55.814 Y58.034 E7.20748
G1 X56.757 Y57.909 E7.23899
G1 X57.716 Y57.814 E7.27092
G1 X58.696 Y57.747 E7.30345
G1 X59.685 Y57.709 E7.33626
G1 X61.734 Y57.716 E7.40413
G1 X62.768 Y57.760 E7.43843
G1 X63.818 Y57.831 E7.47328
G1 X65.963 Y58.050 E7.54472
G1 X68.146 Y58.365 E7.61778
G1 X69.242 Y58.556 E7.65466
G1 X71.465 Y59.004 E7.72976
G1 X73.703 Y59.530 E7.80595
G1 X74.822 Y59.818 E7.84422
G1 X77.069 Y60.447 E7.92153
G1 X78.185 Y60.782 E7.96012
G1 X80.412 Y61.492 E8.03758
G1 X83.718 Y62.641 E8.15351
G1 X86.944 Y63.863 E8.26780
G1 X89.033 Y64.704 E8.34242
G1 X91.070 Y65.560 E8.41562
G1 X93.607 Y66.678 E8.50746
G1 X93.580 Y66.804 E8.51172
G1 X43.615 Y66.804 E10.16704
G1 X43.820 Y67.069 F7800.000
G1 F1800.000
G1 X43.820 Y82.931 E10.69252
G1 X94.810 Y82.931 E12.38177
G1 X94.837 Y83.056 E12.38603
G1 X93.152 Y83.820 E12.44731
G1 X90.161 Y85.114 E12.55527
G1 X88.093 Y85.966 E12.62938
G1 X85.971 Y86.800 E12.70491
G1 X83.807 Y87.610 E12.78147
G1 X81.607 Y88.386 E12.85874
G1 X79.382 Y89.122 E12.93639
G1 X77.139 Y89.809 E13.01411
G1 X76.017 Y90.131 E13.05278
G1 X73.766 Y90.729 E13.12995
G1 X71.521 Y91.256 E13.20633
G1 X69.290 Y91.705 E13.28174
G1 X68.187 Y91.897 E13.31881
G1 X65.993 Y92.214 E13.39227
G1 X63.842 Y92.433 E13.46388
G1 X62.783 Y92.505 E13.49907
G1 X61.736 Y92.549 E13.53379
G1 X60.701 Y92.567 E13.56808
G1 X59.683 Y92.557 E13.60179
G1 X58.679 Y92.518 E13.63509
G1 X57.694 Y92.451 E13.66780
G1 X56.724 Y92.354 E13.70010
G1 X55.773 Y92.228 E13.73185
G1 X54.844 Y92.074 E13.76307
G1 X53.933 Y91.889 E13.79388
G1 X53.045 Y91.675 E13.82413
G1 X52.177 Y91.431 E13.85400
G1 X51.334 Y91.158 E13.88334
G1 X50.514 Y90.857 E13.91229
G1 X49.718 Y90.526 E13.94083
G1 X48.947 Y90.168 E13.96902
G1 X48.203 Y89.782 E13.99677
G1 X47.484 Y89.368 E14.02425
G1 X46.794 Y88.929 E14.05138
G1 X46.131 Y88.463 E14.07821
G1 X45.496 Y87.973 E14.10478
G1 X44.891 Y87.458 E14.13111
G1 X44.315 Y86.921 E14.15718
G1 X43.769 Y86.361 E14.18310
G1 X43.254 Y85.779 E14.20886
G1 X42.768 Y85.175 E14.23453
G1 X42.315 Y84.552 E14.26006
G1 X41.895 Y83.911 E14.28545
G1 X41.505 Y83.251 E14.31084
G1 X41.148 Y82.572 E14.33625
G1 X40.825 Y81.879 E14.36157
G1 X40.534 Y81.170 E14.38698
G1 X40.277 Y80.444 E14.41248
G1 X40.054 Y79.706 E14.43804
G1 X39.864 Y78.952 E14.46378
G1 X39.709 Y78.185 E14.48971
G1 X39.588 Y77.405 E14.51585
G1 X39.501 Y76.612 E14.54230
G1 X39.449 Y75.803 E14.56917
G1 X39.435 Y74.951 E14.59737
G1 X39.449 Y74.198 E14.62233
G1 X39.501 Y73.388 E14.64922
G1 X39.588 Y72.595 E14.67566
G1 X39.709 Y71.815 E14.70181
G1 X39.864 Y71.048 E14.72773
G1 X40.054 Y70.294 E14.75347
G1 X40.277 Y69.555 E14.77908
G1 X40.535 Y68.830 E14.80456
G1 X40.825 Y68.121 E14.82994
G1 X41.149 Y67.426 E14.85535
G1 X41.506 Y66.748 E14.88072
G1 X41.895 Y66.089 E14.90606
G1 X42.316 Y65.447 E14.93150
G1 X42.770 Y64.823 E14.95706
G1 X43.255 Y64.220 E14.98269
G1 X43.770 Y63.638 E15.00845
G1 X44.315 Y63.079 E15.03434
G1 X44.892 Y62.541 E15.06045
G1 X45.497 Y62.026 E15.08678
G1 X46.132 Y61.536 E15.11335
G1 X46.795 Y61.071 E15.14018
G1 X47.486 Y60.630 E15.16734
G1 X48.203 Y60.218 E15.19475
G1 X48.949 Y59.831 E15.22257
G1 X49.719 Y59.473 E15.25072
G1 X50.515 Y59.143 E15.27926
G1 X51.334 Y58.842 E15.30818
G1 X52.179 Y58.568 E15.33760
G1 X53.045 Y58.325 E15.36738
G1 X53.935 Y58.111 E15.39772
G1 X54.844 Y57.926 E15.42845
G1 X55.775 Y57.771 E15.45970
G1 X56.726 Y57.646 E15.49150
G1 X57.694 Y57.549 E15.52371
G1 X58.681 Y57.482 E15.55651
G1 X59.680 Y57.443 E15.58963
G1 X61.740 Y57.451 E15.65786
G1 X62.783 Y57.495 E15.69244
G1 X63.840 Y57.566 E15.72755
G1 X65.995 Y57.786 E15.79932
G1 X68.187 Y58.103 E15.87270
G1 X69.291 Y58.295 E15.90982
G1 X71.521 Y58.744 E15.98518
G1 X73.767 Y59.272 E16.06161
G1 X74.891 Y59.562 E16.10005
G1 X77.143 Y60.192 E16.17754
G1 X78.263 Y60.528 E16.21628
G1 X80.496 Y61.240 E16.29393
G1 X83.808 Y62.391 E16.41010
G1 X87.040 Y63.615 E16.52460
G1 X89.134 Y64.458 E16.59938
G1 X91.175 Y65.316 E16.67271
G1 X93.151 Y66.180 E16.74417
G1 X94.837 Y66.944 E16.80547
G1 X94.810 Y67.069 E16.80973
G1 X43.880 Y67.069 E18.49700
G1 E16.49700 F2400.00000
G92 E0
G1 X96.109 Y67.838 F7800.000
G1 E2.00000 F2400.00000
G1 F1800.000
G1 X98.505 Y68.978 E2.08789
G1 X100.143 Y69.793 E2.14853
G1 X102.416 Y70.963 E2.23321
G1 X104.443 Y72.046 E2.30936
G1 X106.207 Y73.019 E2.37610
G1 X108.122 Y74.112 E2.44915
G1 X109.609 Y74.999 E2.50650
G1 X107.692 Y76.137 E2.58038
G1 X105.061 Y77.617 E2.68036
G1 X102.415 Y79.038 E2.77986
G1 X100.143 Y80.207 E2.86452
G1 X97.645 Y81.441 E2.95682
G1 X96.109 Y82.166 E3.01311
G1 X96.109 Y67.898 E3.48580
G1 X95.843 Y67.418 F7800.000
G1 F1800.000
G1 X98.621 Y68.739 E3.58771
G1 X100.263 Y69.556 E3.64847
G1 X102.539 Y70.727 E3.73329
G1 X104.570 Y71.812 E3.80957
G1 X106.337 Y72.787 E3.87642
G1 X108.256 Y73.883 E3.94962
G1 X109.879 Y74.850 E4.01223
G1 X110.104 Y75.003 E4.02122
G1 X107.825 Y76.367 E4.10922
G1 X105.189 Y77.849 E4.20939
G1 X102.539 Y79.273 E4.30906
G1 X100.263 Y80.444 E4.39386
G1 X97.761 Y81.680 E4.48631
G1 X95.843 Y82.585 E4.55657
G1 X95.843 Y67.478 E5.05708
G1 E3.05708 F2400.00000
G92 E0
G1 X110.579 Y75.004 F7800.000
G1 E2.00000 F2400.00000
G1 F1800.000
G1 X110.100 Y75.325 E2.01910
G1 X107.957 Y76.597 E2.10164
G1 X105.317 Y78.082 E2.20200
G1 X102.663 Y79.508 E2.30183
G1 X100.382 Y80.681 E2.38679
G1 X97.876 Y81.919 E2.47938
G1 X95.167 Y83.198 E2.57866
G1 X93.260 Y84.063 E2.64803
G1 X90.265 Y85.359 E2.75614
G1 X88.192 Y86.212 E2.83040
G1 X86.066 Y87.048 E2.90607
G1 X83.897 Y87.859 E2.98279
G1 X81.693 Y88.638 E3.06023
G1 X79.463 Y89.375 E3.13806
G1 X77.214 Y90.064 E3.21596
G1 X76.088 Y90.387 E3.25479
G1 X73.830 Y90.986 E3.33218
G1 X71.578 Y91.515 E3.40882
G1 X69.339 Y91.966 E3.48449
G1 X68.229 Y92.159 E3.52180
G1 X66.027 Y92.478 E3.59552
G1 X63.863 Y92.698 E3.66757
G1 X62.797 Y92.770 E3.70297
G1 X61.743 Y92.815 E3.73792
G1 X60.702 Y92.833 E3.77244
G1 X59.677 Y92.822 E3.80639
G1 X58.665 Y92.783 E3.83994
G1 X57.672 Y92.715 E3.87292
G1 X56.693 Y92.618 E3.90550
G1 X55.734 Y92.491 E3.93754
G1 X54.796 Y92.335 E3.96906
G1 X53.875 Y92.148 E4.00019
G1 X52.978 Y91.932 E4.03076
G1 X52.100 Y91.685 E4.06097
G1 X51.248 Y91.410 E4.09065
G1 X50.417 Y91.104 E4.11996
G1 X49.611 Y90.770 E4.14886
G1 X48.830 Y90.406 E4.17743
